;Generated with Cura_SteamEngine 13.11.2
;FLAVOR:UltiGCode
;TIME:1080      
;MATERIAL:106       
;MATERIAL2:0         

;Layer count: 2894
;LAYER:0
M107
G0 F6000 X-4.66 Y-3.61 Z0.01
;TYPE:SKIRT
G11
G1 X-0.79 Y-5.84 E0.00447
G1 X0.84 Y-5.84 E0.00610
G1 X4.71 Y-3.61 E0.01057
G1 X5.53 Y-2.19 E0.01221
G1 X5.53 Y2.28 E0.01668
G1 X4.71 Y3.69 E0.01831
G1 X0.84 Y5.93 E0.02278
G1 X-0.79 Y5.93 E0.02441
G1 X-4.66 Y3.69 E0.02888
G1 X-5.48 Y2.28 E0.03051
G1 X-5.48 Y-2.19 E0.03498
G1 X-4.66 Y-3.61 E0.03662
G0 X-4.74 Y-3.68
G1 X-0.82 Y-5.94 E0.04114
G1 X0.87 Y-5.94 E0.04283
G1 X4.79 Y-3.68 E0.04735
G1 X5.63 Y-2.22 E0.04904
G1 X5.63 Y2.31 E0.05356
G1 X4.78 Y3.77 E0.05525
G1 X0.87 Y6.03 E0.05977
G1 X-0.82 Y6.03 E0.06146
G1 X-4.74 Y3.77 E0.06598
G1 X-5.58 Y2.30 E0.06767
G1 X-5.58 Y-2.22 E0.07219
G1 X-4.74 Y-3.68 E0.07388
G0 X-4.81 Y-3.75
G1 X-0.85 Y-6.04 E0.07846
G1 X0.90 Y-6.04 E0.08020
G1 X4.86 Y-3.75 E0.08478
G1 X5.73 Y-2.24 E0.08652
G1 X5.73 Y2.33 E0.09109
G1 X4.86 Y3.84 E0.09283
G1 X0.89 Y6.13 E0.09741
G1 X-0.85 Y6.13 E0.09915
G1 X-4.81 Y3.84 E0.10373
G1 X-5.68 Y2.33 E0.10547
G1 X-5.68 Y-2.24 E0.11004
G1 X-4.81 Y-3.75 E0.11178
G0 X-4.88 Y-3.83
G1 X-0.87 Y-6.14 E0.11641
G1 X0.92 Y-6.14 E0.11821
G1 X4.93 Y-3.82 E0.12284
G1 X5.83 Y-2.27 E0.12464
G1 X5.83 Y2.36 E0.12926
G1 X4.93 Y3.91 E0.13106
G1 X0.92 Y6.23 E0.13569
G1 X-0.87 Y6.23 E0.13748
G1 X-4.88 Y3.91 E0.14211
G1 X-5.78 Y2.36 E0.14391
G1 X-5.78 Y-2.27 E0.14854
G1 X-4.88 Y-3.83 E0.15033
G0 X-2.27 Y-1.23
G0 X-2.27 Y-1.23
G0 X-2.38 Y-1.34
;TYPE:WALL-OUTER
G1 X0.03 Y-2.73 E0.15311
G1 X2.43 Y-1.34 E0.15589
G1 X2.43 Y1.43 E0.15866
G1 X0.03 Y2.82 E0.16144
G1 X-2.38 Y1.43 E0.16422
G1 X-2.38 Y-1.34 E0.16700
G0 X-2.13 Y-1.15
;LAYER:1
G0 X-2.38 Y-1.34 Z0.02
;TYPE:WALL-OUTER
G1 X0.03 Y-2.73 E0.16977
G1 X2.43 Y-1.34 E0.17255
G1 X2.43 Y1.43 E0.17533
G1 X0.03 Y2.82 E0.17810
G1 X-2.38 Y1.43 E0.18088
G1 X-2.38 Y-1.34 E0.18366
G0 X-2.13 Y-1.15
;LAYER:2
G0 X-2.38 Y-1.34 Z0.03
;TYPE:WALL-OUTER
G1 X0.03 Y-2.73 E0.18644
G1 X2.43 Y-1.34 E0.18921
G1 X2.43 Y1.43 E0.19199
G1 X0.03 Y2.82 E0.19477
G1 X-2.38 Y1.43 E0.19755
G1 X-2.38 Y-1.34 E0.20032
G0 X-2.13 Y-1.15
;LAYER:3
G0 X-2.38 Y-1.34 Z0.04
;TYPE:WALL-OUTER
G1 X0.03 Y-2.73 E0.20310
G1 X2.43 Y-1.34 E0.20588
G1 X2.43 Y1.43 E0.20865
G1 X0.03 Y2.82 E0.21143
G1 X-2.38 Y1.43 E0.21421
G1 X-2.38 Y-1.34 E0.21698
G0 X-2.13 Y-1.15
;LAYER:4
G0 X-2.38 Y-1.34 Z0.05
;TYPE:WALL-OUTER
G1 X0.03 Y-2.73 E0.21976
G1 X2.43 Y-1.34 E0.22254
G1 X2.43 Y1.43 E0.22532
G1 X0.03 Y2.82 E0.22809
G1 X-2.38 Y1.43 E0.23087
G1 X-2.38 Y-1.34 E0.23365
G0 X-2.13 Y-1.15
;LAYER:5
G0 X-2.38 Y-1.34 Z0.06
;TYPE:WALL-OUTER
G1 X0.03 Y-2.73 E0.23643
G1 X2.43 Y-1.34 E0.23920
G1 X2.43 Y1.43 E0.24198
G1 X0.03 Y2.82 E0.24476
G1 X-2.38 Y1.43 E0.24753
G1 X-2.38 Y-1.34 E0.25031
G0 X-2.13 Y-1.15
;LAYER:6
G0 X-2.38 Y-1.34 Z0.07
;TYPE:WALL-OUTER
G1 X0.03 Y-2.73 E0.25309
G1 X2.43 Y-1.34 E0.25587
G1 X2.43 Y1.43 E0.25864
G1 X0.03 Y2.82 E0.26142
G1 X-2.38 Y1.43 E0.26420
G1 X-2.38 Y-1.34 E0.26697
G0 X-2.13 Y-1.15
;LAYER:7
G0 X-2.38 Y-1.34 Z0.08
;TYPE:WALL-OUTER
G1 X0.03 Y-2.73 E0.26975
G1 X2.43 Y-1.34 E0.27253
G1 X2.43 Y1.43 E0.27531
G1 X0.03 Y2.82 E0.27808
G1 X-2.38 Y1.43 E0.28086
G1 X-2.38 Y-1.34 E0.28364
G0 X-2.13 Y-1.15
;LAYER:8
G0 X-2.38 Y-1.34 Z0.09
;TYPE:WALL-OUTER
G1 X0.03 Y-2.73 E0.28642
G1 X2.43 Y-1.34 E0.28919
G1 X2.43 Y1.43 E0.29197
G1 X0.03 Y2.82 E0.29475
G1 X-2.38 Y1.43 E0.29752
G1 X-2.38 Y-1.34 E0.30030
G0 X-2.13 Y-1.15
;LAYER:9
G0 X-2.38 Y-1.34 Z0.10
;TYPE:WALL-OUTER
G1 X0.03 Y-2.73 E0.30308
G1 X2.43 Y-1.34 E0.30586
G1 X2.43 Y1.43 E0.30863
G1 X0.03 Y2.82 E0.31141
G1 X-2.38 Y1.43 E0.31419
G1 X-2.38 Y-1.34 E0.31696
G0 X-2.13 Y-1.15
;LAYER:10
G0 X-2.38 Y-1.34 Z0.11
;TYPE:WALL-OUTER
G1 X0.03 Y-2.73 E0.31974
G1 X2.43 Y-1.34 E0.32252
G1 X2.43 Y1.43 E0.32530
G1 X0.03 Y2.82 E0.32807
G1 X-2.38 Y1.43 E0.33085
G1 X-2.38 Y-1.34 E0.33363
G0 X-2.13 Y-1.15
;LAYER:11
G0 X-2.38 Y-1.34 Z0.12
;TYPE:WALL-OUTER
G1 X0.03 Y-2.73 E0.33640
G1 X2.43 Y-1.34 E0.33918
G1 X2.43 Y1.43 E0.34196
G1 X0.03 Y2.82 E0.34474
G1 X-2.38 Y1.43 E0.34751
G1 X-2.38 Y-1.34 E0.35029
G0 X-2.13 Y-1.15
;LAYER:12
G0 X-2.38 Y-1.34 Z0.13
;TYPE:WALL-OUTER
G1 X0.03 Y-2.73 E0.35307
G1 X2.43 Y-1.34 E0.35585
G1 X2.43 Y1.43 E0.35862
G1 X0.03 Y2.82 E0.36140
G1 X-2.38 Y1.43 E0.36418
G1 X-2.38 Y-1.34 E0.36695
G0 X-2.13 Y-1.15
;LAYER:13
G0 X-2.38 Y-1.34 Z0.14
;TYPE:WALL-OUTER
G1 X0.03 Y-2.73 E0.36973
G1 X2.43 Y-1.34 E0.37251
G1 X2.43 Y1.43 E0.37528
G1 X0.03 Y2.82 E0.37806
G1 X-2.38 Y1.43 E0.38084
G1 X-2.38 Y-1.34 E0.38362
G0 X-2.13 Y-1.15
;LAYER:14
G0 X-2.38 Y-1.34 Z0.15
;TYPE:WALL-OUTER
G1 X0.03 Y-2.73 E0.38639
G1 X2.43 Y-1.34 E0.38917
G1 X2.43 Y1.43 E0.39195
G1 X0.03 Y2.82 E0.39473
G1 X-2.38 Y1.43 E0.39750
G1 X-2.38 Y-1.34 E0.40028
G0 X-2.13 Y-1.15
;LAYER:15
G0 X-2.38 Y-1.34 Z0.16
;TYPE:WALL-OUTER
G1 X0.03 Y-2.73 E0.40306
G1 X2.43 Y-1.34 E0.40583
G1 X2.43 Y1.43 E0.40861
G1 X0.03 Y2.82 E0.41139
G1 X-2.38 Y1.43 E0.41417
G1 X-2.38 Y-1.34 E0.41694
G0 X-2.13 Y-1.15
;LAYER:16
G0 X-2.38 Y-1.34 Z0.17
;TYPE:WALL-OUTER
G1 X0.03 Y-2.73 E0.41972
G1 X2.43 Y-1.34 E0.42250
G1 X2.43 Y1.43 E0.42527
G1 X0.03 Y2.82 E0.42805
G1 X-2.38 Y1.43 E0.43083
G1 X-2.38 Y-1.34 E0.43361
G0 X-2.13 Y-1.15
;LAYER:17
G0 X-2.38 Y-1.34 Z0.18
;TYPE:WALL-OUTER
G1 X0.03 Y-2.73 E0.43638
G1 X2.43 Y-1.34 E0.43916
G1 X2.43 Y1.43 E0.44194
G1 X0.03 Y2.82 E0.44472
G1 X-2.38 Y1.43 E0.44749
G1 X-2.38 Y-1.34 E0.45027
G0 X-2.13 Y-1.15
;LAYER:18
G0 X-2.38 Y-1.34 Z0.19
;TYPE:WALL-OUTER
G1 X0.03 Y-2.73 E0.45305
G1 X2.43 Y-1.34 E0.45582
G1 X2.43 Y1.43 E0.45860
G1 X0.03 Y2.82 E0.46138
G1 X-2.38 Y1.43 E0.46416
G1 X-2.38 Y-1.34 E0.46693
G0 X-2.13 Y-1.15
;LAYER:19
G0 X-2.38 Y-1.34 Z0.20
;TYPE:WALL-OUTER
G1 X0.03 Y-2.73 E0.46971
G1 X2.43 Y-1.34 E0.47249
G1 X2.43 Y1.43 E0.47526
G1 X0.03 Y2.82 E0.47804
G1 X-2.38 Y1.43 E0.48082
G1 X-2.38 Y-1.34 E0.48360
G0 X-2.13 Y-1.15
;LAYER:20
G0 X-2.38 Y-1.34 Z0.21
;TYPE:WALL-OUTER
G1 X0.03 Y-2.73 E0.48637
G1 X2.43 Y-1.34 E0.48915
G1 X2.43 Y1.43 E0.49193
G1 X0.03 Y2.82 E0.49470
G1 X-2.38 Y1.43 E0.49748
G1 X-2.38 Y-1.34 E0.50026
G0 X-2.13 Y-1.15
;LAYER:21
G0 X-2.38 Y-1.34 Z0.22
;TYPE:WALL-OUTER
G1 X0.03 Y-2.73 E0.50304
G1 X2.43 Y-1.34 E0.50581
G1 X2.43 Y1.43 E0.50859
G1 X0.03 Y2.82 E0.51137
G1 X-2.38 Y1.43 E0.51415
G1 X-2.38 Y-1.34 E0.51692
G0 X-2.13 Y-1.15
;LAYER:22
G0 X-2.38 Y-1.34 Z0.23
;TYPE:WALL-OUTER
G1 X0.03 Y-2.73 E0.51970
G1 X2.43 Y-1.34 E0.52248
G1 X2.43 Y1.43 E0.52525
G1 X0.03 Y2.82 E0.52803
G1 X-2.38 Y1.43 E0.53081
G1 X-2.38 Y-1.34 E0.53358
G0 X-2.13 Y-1.15
;LAYER:23
G0 X-2.38 Y-1.34 Z0.24
;TYPE:WALL-OUTER
G1 X0.03 Y-2.73 E0.53636
G1 X2.43 Y-1.34 E0.53914
G1 X2.43 Y1.43 E0.54192
G1 X0.03 Y2.82 E0.54469
G1 X-2.38 Y1.43 E0.54747
G1 X-2.38 Y-1.34 E0.55025
G0 X-2.13 Y-1.15
;LAYER:24
G0 X-2.38 Y-1.34 Z0.25
;TYPE:WALL-OUTER
G1 X0.03 Y-2.73 E0.55303
G1 X2.43 Y-1.34 E0.55580
G1 X2.43 Y1.43 E0.55858
G1 X0.03 Y2.82 E0.56136
G1 X-2.38 Y1.43 E0.56414
G1 X-2.38 Y-1.34 E0.56691
G0 X-2.13 Y-1.15
;LAYER:25
G0 X-2.38 Y-1.34 Z0.26
;TYPE:WALL-OUTER
G1 X0.03 Y-2.73 E0.56969
G1 X2.43 Y-1.34 E0.57247
G1 X2.43 Y1.43 E0.57524
G1 X0.03 Y2.82 E0.57802
G1 X-2.38 Y1.43 E0.58080
G1 X-2.38 Y-1.34 E0.58357
G0 X-2.13 Y-1.15
;LAYER:26
G0 X-2.38 Y-1.34 Z0.27
;TYPE:WALL-OUTER
G1 X0.03 Y-2.73 E0.58635
G1 X2.43 Y-1.34 E0.58913
G1 X2.43 Y1.43 E0.59191
G1 X0.03 Y2.82 E0.59468
G1 X-2.38 Y1.43 E0.59746
G1 X-2.38 Y-1.34 E0.60024
G0 X-2.13 Y-1.15
;LAYER:27
G0 X-2.38 Y-1.34 Z0.28
;TYPE:WALL-OUTER
G1 X0.03 Y-2.73 E0.60302
G1 X2.43 Y-1.34 E0.60579
G1 X2.43 Y1.43 E0.60857
G1 X0.03 Y2.82 E0.61135
G1 X-2.38 Y1.43 E0.61412
G1 X-2.38 Y-1.34 E0.61690
G0 X-2.13 Y-1.15
;LAYER:28
G0 X-2.38 Y-1.34 Z0.29
;TYPE:WALL-OUTER
G1 X0.03 Y-2.73 E0.61968
G1 X2.43 Y-1.34 E0.62246
G1 X2.43 Y1.43 E0.62523
G1 X0.03 Y2.82 E0.62801
G1 X-2.38 Y1.43 E0.63079
G1 X-2.38 Y-1.34 E0.63356
G0 X-2.13 Y-1.15
;LAYER:29
G0 X-2.38 Y-1.34 Z0.30
;TYPE:WALL-OUTER
G1 X0.03 Y-2.73 E0.63634
G1 X2.43 Y-1.34 E0.63912
G1 X2.43 Y1.43 E0.64190
G1 X0.03 Y2.82 E0.64467
G1 X-2.38 Y1.43 E0.64745
G1 X-2.38 Y-1.34 E0.65023
G0 X-2.13 Y-1.15
;LAYER:30
G0 X-2.38 Y-1.34 Z0.31
;TYPE:WALL-OUTER
G1 X0.03 Y-2.73 E0.65300
G1 X2.43 Y-1.34 E0.65578
G1 X2.43 Y1.43 E0.65856
G1 X0.03 Y2.82 E0.66134
G1 X-2.38 Y1.43 E0.66411
G1 X-2.38 Y-1.34 E0.66689
G0 X-2.13 Y-1.15
;LAYER:31
G0 X-2.38 Y-1.34 Z0.32
;TYPE:WALL-OUTER
G1 X0.03 Y-2.73 E0.66967
G1 X2.43 Y-1.34 E0.67245
G1 X2.43 Y1.43 E0.67522
G1 X0.03 Y2.82 E0.67800
G1 X-2.38 Y1.43 E0.68078
G1 X-2.38 Y-1.34 E0.68355
G0 X-2.13 Y-1.15
;LAYER:32
G0 X-2.38 Y-1.34 Z0.33
;TYPE:WALL-OUTER
G1 X0.03 Y-2.73 E0.68633
G1 X2.43 Y-1.34 E0.68911
G1 X2.43 Y1.43 E0.69188
G1 X0.03 Y2.82 E0.69466
G1 X-2.38 Y1.43 E0.69744
G1 X-2.38 Y-1.34 E0.70022
G0 X-2.13 Y-1.15
;LAYER:33
G0 X-2.38 Y-1.34 Z0.34
;TYPE:WALL-OUTER
G1 X0.03 Y-2.73 E0.70299
G1 X2.43 Y-1.34 E0.70577
G1 X2.43 Y1.43 E0.70855
G1 X0.03 Y2.82 E0.71133
G1 X-2.38 Y1.43 E0.71410
G1 X-2.38 Y-1.34 E0.71688
G0 X-2.13 Y-1.15
;LAYER:34
G0 X-2.38 Y-1.34 Z0.35
;TYPE:WALL-OUTER
G1 X0.03 Y-2.73 E0.71966
G1 X2.43 Y-1.34 E0.72244
G1 X2.43 Y1.43 E0.72521
G1 X0.03 Y2.82 E0.72799
G1 X-2.38 Y1.43 E0.73077
G1 X-2.38 Y-1.34 E0.73354
G0 X-2.13 Y-1.15
;LAYER:35
G0 X-2.38 Y-1.34 Z0.36
;TYPE:WALL-OUTER
G1 X0.03 Y-2.73 E0.73632
G1 X2.43 Y-1.34 E0.73910
G1 X2.43 Y1.43 E0.74187
G1 X0.03 Y2.82 E0.74465
G1 X-2.38 Y1.43 E0.74743
G1 X-2.38 Y-1.34 E0.75021
G0 X-2.13 Y-1.15
;LAYER:36
G0 X-2.38 Y-1.34 Z0.37
;TYPE:WALL-OUTER
G1 X0.03 Y-2.73 E0.75298
G1 X2.43 Y-1.34 E0.75576
G1 X2.43 Y1.43 E0.75854
G1 X0.03 Y2.82 E0.76132
G1 X-2.38 Y1.43 E0.76409
G1 X-2.38 Y-1.34 E0.76687
G0 X-2.13 Y-1.15
;LAYER:37
G0 X-2.38 Y-1.34 Z0.38
;TYPE:WALL-OUTER
G1 X0.03 Y-2.73 E0.76965
G1 X2.43 Y-1.34 E0.77242
G1 X2.43 Y1.43 E0.77520
G1 X0.03 Y2.82 E0.77798
G1 X-2.38 Y1.43 E0.78076
G1 X-2.38 Y-1.34 E0.78353
G0 X-2.13 Y-1.15
;LAYER:38
G0 X-2.38 Y-1.34 Z0.39
;TYPE:WALL-OUTER
G1 X0.03 Y-2.73 E0.78631
G1 X2.43 Y-1.34 E0.78909
G1 X2.43 Y1.43 E0.79186
G1 X0.03 Y2.82 E0.79464
G1 X-2.38 Y1.43 E0.79742
G1 X-2.38 Y-1.34 E0.80020
G0 X-2.13 Y-1.15
;LAYER:39
G0 X-2.38 Y-1.34 Z0.40
;TYPE:WALL-OUTER
G1 X0.03 Y-2.73 E0.80297
G1 X2.43 Y-1.34 E0.80575
G1 X2.43 Y1.43 E0.80853
G1 X0.03 Y2.82 E0.81130
G1 X-2.38 Y1.43 E0.81408
G1 X-2.38 Y-1.34 E0.81686
G0 X-2.13 Y-1.15
;LAYER:40
G0 X-2.38 Y-1.34 Z0.41
;TYPE:WALL-OUTER
G1 X0.03 Y-2.73 E0.81964
G1 X2.43 Y-1.34 E0.82241
G1 X2.43 Y1.43 E0.82519
G1 X0.03 Y2.82 E0.82797
G1 X-2.38 Y1.43 E0.83075
G1 X-2.38 Y-1.34 E0.83352
G0 X-2.13 Y-1.15
;LAYER:41
G0 X-2.38 Y-1.34 Z0.42
;TYPE:WALL-OUTER
G1 X0.03 Y-2.73 E0.83630
G1 X2.43 Y-1.34 E0.83908
G1 X2.43 Y1.43 E0.84185
G1 X0.03 Y2.82 E0.84463
G1 X-2.38 Y1.43 E0.84741
G1 X-2.38 Y-1.34 E0.85018
G0 X-2.13 Y-1.15
;LAYER:42
G0 X-2.38 Y-1.34 Z0.43
;TYPE:WALL-OUTER
G1 X0.03 Y-2.73 E0.85296
G1 X2.43 Y-1.34 E0.85574
G1 X2.43 Y1.43 E0.85852
G1 X0.03 Y2.82 E0.86129
G1 X-2.38 Y1.43 E0.86407
G1 X-2.38 Y-1.34 E0.86685
G0 X-2.13 Y-1.15
;LAYER:43
G0 X-2.38 Y-1.34 Z0.44
;TYPE:WALL-OUTER
G1 X0.03 Y-2.73 E0.86963
G1 X2.43 Y-1.34 E0.87240
G1 X2.43 Y1.43 E0.87518
G1 X0.03 Y2.82 E0.87796
G1 X-2.38 Y1.43 E0.88074
G1 X-2.38 Y-1.34 E0.88351
G0 X-2.13 Y-1.15
;LAYER:44
G0 X-2.38 Y-1.34 Z0.45
;TYPE:WALL-OUTER
G1 X0.03 Y-2.73 E0.88629
G1 X2.43 Y-1.34 E0.88907
G1 X2.43 Y1.43 E0.89184
G1 X0.03 Y2.82 E0.89462
G1 X-2.38 Y1.43 E0.89740
G1 X-2.38 Y-1.34 E0.90017
G0 X-2.13 Y-1.15
;LAYER:45
G0 X-2.38 Y-1.34 Z0.46
;TYPE:WALL-OUTER
G1 X0.03 Y-2.73 E0.90295
G1 X2.43 Y-1.34 E0.90573
G1 X2.43 Y1.43 E0.90851
G1 X0.03 Y2.82 E0.91128
G1 X-2.38 Y1.43 E0.91406
G1 X-2.38 Y-1.34 E0.91684
G0 X-2.13 Y-1.15
;LAYER:46
G0 X-2.38 Y-1.34 Z0.47
;TYPE:WALL-OUTER
G1 X0.03 Y-2.73 E0.91962
G1 X2.43 Y-1.34 E0.92239
G1 X2.43 Y1.43 E0.92517
G1 X0.03 Y2.82 E0.92795
G1 X-2.38 Y1.43 E0.93072
G1 X-2.38 Y-1.34 E0.93350
G0 X-2.13 Y-1.15
;LAYER:47
G0 X-2.38 Y-1.34 Z0.48
;TYPE:WALL-OUTER
G1 X0.03 Y-2.73 E0.93628
G1 X2.43 Y-1.34 E0.93906
G1 X2.43 Y1.43 E0.94183
G1 X0.03 Y2.82 E0.94461
G1 X-2.38 Y1.43 E0.94739
G1 X-2.38 Y-1.34 E0.95016
G0 X-2.13 Y-1.15
;LAYER:48
G0 X-2.38 Y-1.34 Z0.49
;TYPE:WALL-OUTER
G1 X0.03 Y-2.73 E0.95294
G1 X2.43 Y-1.34 E0.95572
G1 X2.43 Y1.43 E0.95850
G1 X0.03 Y2.82 E0.96127
G1 X-2.38 Y1.43 E0.96405
G1 X-2.38 Y-1.34 E0.96683
G0 X-2.13 Y-1.15
;LAYER:49
G0 X-2.38 Y-1.34 Z0.50
;TYPE:WALL-OUTER
G1 X0.03 Y-2.73 E0.96960
G1 X2.43 Y-1.34 E0.97238
G1 X2.43 Y1.43 E0.97516
G1 X0.03 Y2.82 E0.97794
G1 X-2.38 Y1.43 E0.98071
G1 X-2.38 Y-1.34 E0.98349
G0 X-2.13 Y-1.15
;LAYER:50
G0 X-2.38 Y-1.34 Z0.51
;TYPE:WALL-OUTER
G1 X0.03 Y-2.73 E0.98627
G1 X2.43 Y-1.34 E0.98905
G1 X2.43 Y1.43 E0.99182
G1 X0.03 Y2.82 E0.99460
G1 X-2.38 Y1.43 E0.99738
G1 X-2.38 Y-1.34 E1.00015
G0 X-2.13 Y-1.15
;LAYER:51
G0 X-2.38 Y-1.34 Z0.52
;TYPE:WALL-OUTER
G1 X0.03 Y-2.73 E1.00293
G1 X2.43 Y-1.34 E1.00571
G1 X2.43 Y1.43 E1.00848
G1 X0.03 Y2.82 E1.01126
G1 X-2.38 Y1.43 E1.01404
G1 X-2.38 Y-1.34 E1.01682
G0 X-2.13 Y-1.15
;LAYER:52
G0 X-2.38 Y-1.34 Z0.53
;TYPE:WALL-OUTER
G1 X0.03 Y-2.73 E1.01959
G1 X2.43 Y-1.34 E1.02237
G1 X2.43 Y1.43 E1.02515
G1 X0.03 Y2.82 E1.02793
G1 X-2.38 Y1.43 E1.03070
G1 X-2.38 Y-1.34 E1.03348
G0 X-2.13 Y-1.15
;LAYER:53
G0 X-2.38 Y-1.34 Z0.54
;TYPE:WALL-OUTER
G1 X0.03 Y-2.73 E1.03626
G1 X2.43 Y-1.34 E1.03904
G1 X2.43 Y1.43 E1.04181
G1 X0.03 Y2.82 E1.04459
G1 X-2.38 Y1.43 E1.04737
G1 X-2.38 Y-1.34 E1.05014
G0 X-2.13 Y-1.15
;LAYER:54
G0 X-2.38 Y-1.34 Z0.55
;TYPE:WALL-OUTER
G1 X0.03 Y-2.73 E1.05292
G1 X2.43 Y-1.34 E1.05570
G1 X2.43 Y1.43 E1.05847
G1 X0.03 Y2.82 E1.06125
G1 X-2.38 Y1.43 E1.06403
G1 X-2.38 Y-1.34 E1.06681
G0 X-2.13 Y-1.15
;LAYER:55
G0 X-2.38 Y-1.34 Z0.56
;TYPE:WALL-OUTER
G1 X0.03 Y-2.73 E1.06958
G1 X2.43 Y-1.34 E1.07236
G1 X2.43 Y1.43 E1.07514
G1 X0.03 Y2.82 E1.07792
G1 X-2.38 Y1.43 E1.08069
G1 X-2.38 Y-1.34 E1.08347
G0 X-2.13 Y-1.15
;LAYER:56
G0 X-2.38 Y-1.34 Z0.57
;TYPE:WALL-OUTER
G1 X0.03 Y-2.73 E1.08625
G1 X2.43 Y-1.34 E1.08902
G1 X2.43 Y1.43 E1.09180
G1 X0.03 Y2.82 E1.09458
G1 X-2.38 Y1.43 E1.09736
G1 X-2.38 Y-1.34 E1.10013
G0 X-2.13 Y-1.15
;LAYER:57
G0 X-2.38 Y-1.34 Z0.58
;TYPE:WALL-OUTER
G1 X0.03 Y-2.73 E1.10291
G1 X2.43 Y-1.34 E1.10569
G1 X2.43 Y1.43 E1.10846
G1 X0.03 Y2.82 E1.11124
G1 X-2.38 Y1.43 E1.11402
G1 X-2.38 Y-1.34 E1.11680
G0 X-2.13 Y-1.15
;LAYER:58
G0 X-2.38 Y-1.34 Z0.59
;TYPE:WALL-OUTER
G1 X0.03 Y-2.73 E1.11957
G1 X2.43 Y-1.34 E1.12235
G1 X2.43 Y1.43 E1.12513
G1 X0.03 Y2.82 E1.12790
G1 X-2.38 Y1.43 E1.13068
G1 X-2.38 Y-1.34 E1.13346
G0 X-2.13 Y-1.15
;LAYER:59
G0 X-2.38 Y-1.34 Z0.60
;TYPE:WALL-OUTER
G1 X0.03 Y-2.73 E1.13624
G1 X2.43 Y-1.34 E1.13901
G1 X2.43 Y1.43 E1.14179
G1 X0.03 Y2.82 E1.14457
G1 X-2.38 Y1.43 E1.14735
G1 X-2.38 Y-1.34 E1.15012
G0 X-2.13 Y-1.15
;LAYER:60
G0 X-2.38 Y-1.34 Z0.61
;TYPE:WALL-OUTER
G1 X0.03 Y-2.73 E1.15290
G1 X2.43 Y-1.34 E1.15568
G1 X2.43 Y1.43 E1.15845
G1 X0.03 Y2.82 E1.16123
G1 X-2.38 Y1.43 E1.16401
G1 X-2.38 Y-1.34 E1.16679
G0 X-2.13 Y-1.15
;LAYER:61
G0 X-2.38 Y-1.34 Z0.62
;TYPE:WALL-OUTER
G1 X0.03 Y-2.73 E1.16956
G1 X2.43 Y-1.34 E1.17234
G1 X2.43 Y1.43 E1.17512
G1 X0.03 Y2.82 E1.17789
G1 X-2.38 Y1.43 E1.18067
G1 X-2.38 Y-1.34 E1.18345
G0 X-2.13 Y-1.15
;LAYER:62
G0 X-2.38 Y-1.34 Z0.63
;TYPE:WALL-OUTER
G1 X0.03 Y-2.73 E1.18623
G1 X2.43 Y-1.34 E1.18900
G1 X2.43 Y1.43 E1.19178
G1 X0.03 Y2.82 E1.19456
G1 X-2.38 Y1.43 E1.19734
G1 X-2.38 Y-1.34 E1.20011
G0 X-2.13 Y-1.15
;LAYER:63
G0 X-2.38 Y-1.34 Z0.64
;TYPE:WALL-OUTER
G1 X0.03 Y-2.73 E1.20289
G1 X2.43 Y-1.34 E1.20567
G1 X2.43 Y1.43 E1.20844
G1 X0.03 Y2.82 E1.21122
G1 X-2.38 Y1.43 E1.21400
G1 X-2.38 Y-1.34 E1.21677
G0 X-2.13 Y-1.15
;LAYER:64
G0 X-2.38 Y-1.34 Z0.65
;TYPE:WALL-OUTER
G1 X0.03 Y-2.73 E1.21955
G1 X2.43 Y-1.34 E1.22233
G1 X2.43 Y1.43 E1.22511
G1 X0.03 Y2.82 E1.22788
G1 X-2.38 Y1.43 E1.23066
G1 X-2.38 Y-1.34 E1.23344
G0 X-2.13 Y-1.15
;LAYER:65
G0 X-2.38 Y-1.34 Z0.66
;TYPE:WALL-OUTER
G1 X0.03 Y-2.73 E1.23622
G1 X2.43 Y-1.34 E1.23899
G1 X2.43 Y1.43 E1.24177
G1 X0.03 Y2.82 E1.24455
G1 X-2.38 Y1.43 E1.24732
G1 X-2.38 Y-1.34 E1.25010
G0 X-2.13 Y-1.15
;LAYER:66
G0 X-2.38 Y-1.34 Z0.67
;TYPE:WALL-OUTER
G1 X0.03 Y-2.73 E1.25288
G1 X2.43 Y-1.34 E1.25566
G1 X2.43 Y1.43 E1.25843
G1 X0.03 Y2.82 E1.26121
G1 X-2.38 Y1.43 E1.26399
G1 X-2.38 Y-1.34 E1.26676
G0 X-2.13 Y-1.15
;LAYER:67
G0 X-2.38 Y-1.34 Z0.68
;TYPE:WALL-OUTER
