;Generated with Cura_SteamEngine 13.11.2
;FLAVOR:UltiGCode
;TIME:2140      
;MATERIAL:639       
;MATERIAL2:0         

;Layer count: 1540
;LAYER:0
M107
G0 F6000 X0.82 Y26.14 Z0.03
;TYPE:SKIRT
G11
G1 X-0.81 Y26.14 E0.00490
G1 X-22.23 Y13.78 E0.07910
G1 X-23.05 Y12.36 E0.08400
G1 X-23.05 Y-12.36 E0.15819
G1 X-22.23 Y-13.78 E0.16309
G1 X-0.82 Y-26.14 E0.23727
G1 X0.82 Y-26.14 E0.24218
G1 X22.23 Y-13.78 E0.31636
G1 X23.05 Y-12.36 E0.32126
G1 X23.05 Y12.36 E0.39545
G1 X22.23 Y13.78 E0.40035
G1 X0.82 Y26.14 E0.47451
G0 X-0.03 Y22.88
G0 X0.05 Y22.88
G0 X0.01 Y23.03
;TYPE:WALL-OUTER
G1 X-19.95 Y11.52 E0.54363
G1 X-19.95 Y-11.52 E0.61274
G1 X0.00 Y-23.04 E0.68185
G1 X19.95 Y-11.52 E0.75096
G1 X19.95 Y11.52 E0.82007
G1 X0.01 Y23.03 E0.88916
G0 X0.05 Y22.72
;LAYER:1
G0 X0.00 Y23.04 Z0.06
;TYPE:WALL-OUTER
G1 X-19.95 Y11.52 E0.95827
G1 X-19.95 Y-11.52 E1.02737
G1 X0.00 Y-23.04 E1.09648
G1 X19.95 Y-11.52 E1.16559
G1 X19.95 Y11.52 E1.23470
G1 X0.00 Y23.04 E1.30381
G0 X0.05 Y22.72
;LAYER:2
G0 X0.00 Y23.04 Z0.09
;TYPE:WALL-OUTER
G1 X-19.95 Y11.52 E1.37292
G1 X-19.95 Y-11.52 E1.44203
G1 X0.00 Y-23.04 E1.51114
G1 X19.95 Y-11.52 E1.58025
G1 X19.95 Y11.52 E1.64936
G1 X0.00 Y23.04 E1.71847
G0 X0.05 Y22.72
;LAYER:3
G0 X0.00 Y23.04 Z0.12
;TYPE:WALL-OUTER
G1 X-19.95 Y11.52 E1.78758
G1 X-19.95 Y-11.52 E1.85669
G1 X0.00 Y-23.04 E1.92580
G1 X19.95 Y-11.52 E1.99491
G1 X19.95 Y11.52 E2.06401
G1 X0.00 Y23.04 E2.13312
G0 X0.05 Y22.72
;LAYER:4
G0 X0.00 Y23.04 Z0.15
;TYPE:WALL-OUTER
G1 X-19.95 Y11.52 E2.20223
G1 X-19.95 Y-11.52 E2.27134
G1 X0.00 Y-23.04 E2.34045
G1 X19.95 Y-11.52 E2.40956
G1 X19.95 Y11.52 E2.47867
G1 X0.00 Y23.04 E2.54778
G0 X0.05 Y22.72
;LAYER:5
G0 X0.00 Y23.04 Z0.18
;TYPE:WALL-OUTER
G1 X-19.95 Y11.52 E2.61689
G1 X-19.95 Y-11.52 E2.68600
G1 X0.00 Y-23.04 E2.75511
G1 X19.95 Y-11.52 E2.82422
G1 X19.95 Y11.52 E2.89333
G1 X0.00 Y23.04 E2.96244
G0 X0.05 Y22.72
;LAYER:6
G0 X0.00 Y23.04 Z0.21
;TYPE:WALL-OUTER
G1 X-19.95 Y11.52 E3.03155
G1 X-19.95 Y-11.52 E3.10066
G1 X0.00 Y-23.04 E3.16977
G1 X19.95 Y-11.52 E3.23888
G1 X19.95 Y11.52 E3.30798
G1 X0.00 Y23.04 E3.37709
G0 X0.05 Y22.72
;LAYER:7
G0 X0.00 Y23.04 Z0.24
;TYPE:WALL-OUTER
G1 X-19.95 Y11.52 E3.44620
G1 X-19.95 Y-11.52 E3.51531
G1 X0.00 Y-23.04 E3.58442
G1 X19.95 Y-11.52 E3.65353
G1 X19.95 Y11.52 E3.72264
G1 X0.00 Y23.04 E3.79175
G0 X0.05 Y22.72
;LAYER:8
G0 X0.00 Y23.04 Z0.27
;TYPE:WALL-OUTER
G1 X-19.95 Y11.52 E3.86086
G1 X-19.95 Y-11.52 E3.92997
G1 X0.00 Y-23.04 E3.99908
G1 X19.95 Y-11.52 E4.06819
G1 X19.95 Y11.52 E4.13730
G1 X0.00 Y23.04 E4.20641
G0 X0.05 Y22.72
;LAYER:9
G0 X0.00 Y23.04 Z0.30
;TYPE:WALL-OUTER
G1 X-19.95 Y11.52 E4.27552
G1 X-19.95 Y-11.52 E4.34462
G1 X0.00 Y-23.04 E4.41374
G1 X19.95 Y-11.52 E4.48285
G1 X19.95 Y11.52 E4.55195
G1 X0.00 Y23.04 E4.62106
G0 X0.05 Y22.72
;LAYER:10
G0 X0.00 Y23.04 Z0.33
;TYPE:WALL-OUTER
G1 X-19.95 Y11.52 E4.69017
G1 X-19.95 Y-11.52 E4.75928
G1 X0.00 Y-23.04 E4.82839
G1 X19.95 Y-11.52 E4.89750
G1 X19.95 Y11.52 E4.96661
G1 X0.00 Y23.04 E5.03572
G0 X0.05 Y22.72
;LAYER:11
G0 X0.00 Y23.04 Z0.36
;TYPE:WALL-OUTER
G1 X-19.95 Y11.52 E5.10483
G1 X-19.95 Y-11.52 E5.17394
G1 X0.00 Y-23.04 E5.24305
G1 X19.95 Y-11.52 E5.31216
G1 X19.95 Y11.52 E5.38127
G1 X0.00 Y23.04 E5.45038
G0 X0.05 Y22.72
;LAYER:12
G0 X0.00 Y23.04 Z0.39
;TYPE:WALL-OUTER
G1 X-19.95 Y11.52 E5.51949
G1 X-19.95 Y-11.52 E5.58859
G1 X0.00 Y-23.04 E5.65770
G1 X19.95 Y-11.52 E5.72681
G1 X19.95 Y11.52 E5.79592
G1 X0.00 Y23.04 E5.86503
G0 X0.05 Y22.72
;LAYER:13
G0 X0.00 Y23.04 Z0.42
;TYPE:WALL-OUTER
G1 X-19.95 Y11.52 E5.93414
G1 X-19.95 Y-11.52 E6.00325
G1 X0.00 Y-23.04 E6.07236
G1 X19.95 Y-11.52 E6.14147
G1 X19.95 Y11.52 E6.21058
G1 X0.00 Y23.04 E6.27969
G0 X0.05 Y22.72
;LAYER:14
G0 X0.00 Y23.04 Z0.45
;TYPE:WALL-OUTER
G1 X-19.95 Y11.52 E6.34880
G1 X-19.95 Y-11.52 E6.41791
G1 X0.00 Y-23.04 E6.48702
G1 X19.95 Y-11.52 E6.55613
G1 X19.95 Y11.52 E6.62524
G1 X0.00 Y23.04 E6.69435
G0 X0.05 Y22.72
;LAYER:15
G0 X0.00 Y23.04 Z0.48
;TYPE:WALL-OUTER
G1 X-19.95 Y11.52 E6.76346
G1 X-19.95 Y-11.52 E6.83256
G1 X0.00 Y-23.04 E6.90167
G1 X19.95 Y-11.52 E6.97078
G1 X19.95 Y11.52 E7.03989
G1 X0.00 Y23.04 E7.10900
G0 X0.05 Y22.72
;LAYER:16
G0 X0.00 Y23.04 Z0.51
;TYPE:WALL-OUTER
G1 X-19.95 Y11.52 E7.17811
G1 X-19.95 Y-11.52 E7.24722
G1 X0.00 Y-23.04 E7.31633
G1 X19.95 Y-11.52 E7.38544
G1 X19.95 Y11.52 E7.45455
G1 X0.00 Y23.04 E7.52366
G0 X0.05 Y22.72
;LAYER:17
G0 X0.00 Y23.04 Z0.54
;TYPE:WALL-OUTER
G1 X-19.95 Y11.52 E7.59277
G1 X-19.95 Y-11.52 E7.66188
G1 X0.00 Y-23.04 E7.73099
G1 X19.95 Y-11.52 E7.80010
G1 X19.95 Y11.52 E7.86921
G1 X0.00 Y23.04 E7.93832
G0 X0.05 Y22.72
;LAYER:18
G0 X0.00 Y23.04 Z0.57
;TYPE:WALL-OUTER
G1 X-19.95 Y11.52 E8.00743
G1 X-19.95 Y-11.52 E8.07653
G1 X0.00 Y-23.04 E8.14564
G1 X19.95 Y-11.52 E8.21475
G1 X19.95 Y11.52 E8.28386
G1 X0.00 Y23.04 E8.35297
G0 X0.05 Y22.72
;LAYER:19
G0 X0.00 Y23.04 Z0.60
;TYPE:WALL-OUTER
G1 X-19.95 Y11.52 E8.42208
G1 X-19.95 Y-11.52 E8.49119
G1 X0.00 Y-23.04 E8.56030
G1 X19.95 Y-11.52 E8.62941
G1 X19.95 Y11.52 E8.69852
G1 X0.00 Y23.04 E8.76763
G0 X0.05 Y22.72
;LAYER:20
G0 X0.00 Y23.04 Z0.63
;TYPE:WALL-OUTER
G1 X-19.95 Y11.52 E8.83674
G1 X-19.95 Y-11.52 E8.90585
G1 X0.00 Y-23.04 E8.97496
G1 X19.95 Y-11.52 E9.04407
G1 X19.95 Y11.52 E9.11317
G1 X0.00 Y23.04 E9.18228
G0 X0.05 Y22.72
;LAYER:21
G0 X0.00 Y23.04 Z0.66
;TYPE:WALL-OUTER
G1 X-19.95 Y11.52 E9.25139
G1 X-19.95 Y-11.52 E9.32050
G1 X0.00 Y-23.04 E9.38961
G1 X19.95 Y-11.52 E9.45872
G1 X19.95 Y11.52 E9.52783
G1 X0.00 Y23.04 E9.59694
G0 X0.05 Y22.72
;LAYER:22
G0 X0.00 Y23.04 Z0.69
;TYPE:WALL-OUTER
G1 X-19.95 Y11.52 E9.66605
G1 X-19.95 Y-11.52 E9.73516
G1 X0.00 Y-23.04 E9.80427
G1 X19.95 Y-11.52 E9.87338
G1 X19.95 Y11.52 E9.94249
G1 X0.00 Y23.04 E10.01160
G0 X0.05 Y22.72
;LAYER:23
G0 X0.00 Y23.04 Z0.72
;TYPE:WALL-OUTER
G1 X-19.95 Y11.52 E10.08071
G1 X-19.95 Y-11.52 E10.14982
G1 X0.00 Y-23.04 E10.21893
G1 X19.95 Y-11.52 E10.28804
G1 X19.95 Y11.52 E10.35714
G1 X0.00 Y23.04 E10.42625
G0 X0.05 Y22.72
;LAYER:24
G0 X0.00 Y23.04 Z0.75
;TYPE:WALL-OUTER
G1 X-19.95 Y11.52 E10.49536
G1 X-19.95 Y-11.52 E10.56447
G1 X0.00 Y-23.04 E10.63358
G1 X19.95 Y-11.52 E10.70269
G1 X19.95 Y11.52 E10.77180
G1 X0.00 Y23.04 E10.84091
G0 X0.05 Y22.72
;LAYER:25
G0 X0.00 Y23.04 Z0.78
;TYPE:WALL-OUTER
G1 X-19.95 Y11.52 E10.91002
G1 X-19.95 Y-11.52 E10.97913
G1 X0.00 Y-23.04 E11.04824
G1 X19.95 Y-11.52 E11.11735
G1 X19.95 Y11.52 E11.18646
G1 X0.00 Y23.04 E11.25557
G0 X0.05 Y22.72
;LAYER:26
G0 X0.00 Y23.04 Z0.81
;TYPE:WALL-OUTER
G1 X-19.95 Y11.52 E11.32468
G1 X-19.95 Y-11.52 E11.39379
G1 X0.00 Y-23.04 E11.46290
G1 X19.95 Y-11.52 E11.53201
G1 X19.95 Y11.52 E11.60111
G1 X0.00 Y23.04 E11.67022
G0 X0.05 Y22.72
;LAYER:27
G0 X0.00 Y23.04 Z0.84
;TYPE:WALL-OUTER
G1 X-19.95 Y11.52 E11.73933
G1 X-19.95 Y-11.52 E11.80844
G1 X0.00 Y-23.04 E11.87755
G1 X19.95 Y-11.52 E11.94666
G1 X19.95 Y11.52 E12.01577
G1 X0.00 Y23.04 E12.08488
G0 X0.05 Y22.72
;LAYER:28
G0 X0.00 Y23.04 Z0.87
;TYPE:WALL-OUTER
G1 X-19.95 Y11.52 E12.15399
G1 X-19.95 Y-11.52 E12.22310
G1 X0.00 Y-23.04 E12.29221
G1 X19.95 Y-11.52 E12.36132
G1 X19.95 Y11.52 E12.43043
G1 X0.00 Y23.04 E12.49954
G0 X0.05 Y22.72
;LAYER:29
G0 X0.00 Y23.04 Z0.90
;TYPE:WALL-OUTER
G1 X-19.95 Y11.52 E12.56865
G1 X-19.95 Y-11.52 E12.63775
G1 X0.00 Y-23.04 E12.70686
G1 X19.95 Y-11.52 E12.77597
G1 X19.95 Y11.52 E12.84508
G1 X0.00 Y23.04 E12.91419
G0 X0.05 Y22.72
;LAYER:30
G0 X0.00 Y23.04 Z0.93
;TYPE:WALL-OUTER
G1 X-19.95 Y11.52 E12.98330
G1 X-19.95 Y-11.52 E13.05241
G1 X0.00 Y-23.04 E13.12152
G1 X19.95 Y-11.52 E13.19063
G1 X19.95 Y11.52 E13.25974
G1 X0.00 Y23.04 E13.32885
G0 X0.05 Y22.72
;LAYER:31
G0 X0.00 Y23.04 Z0.96
;TYPE:WALL-OUTER
G1 X-19.95 Y11.52 E13.39796
G1 X-19.95 Y-11.52 E13.46707
G1 X0.00 Y-23.04 E13.53618
G1 X19.95 Y-11.52 E13.60529
G1 X19.95 Y11.52 E13.67440
G1 X0.00 Y23.04 E13.74351
G0 X0.05 Y22.72
;LAYER:32
G0 X0.00 Y23.04 Z0.99
;TYPE:WALL-OUTER
G1 X-19.95 Y11.52 E13.81262
G1 X-19.95 Y-11.52 E13.88172
G1 X0.00 Y-23.04 E13.95083
G1 X19.95 Y-11.52 E14.01994
G1 X19.95 Y11.52 E14.08905
G1 X0.00 Y23.04 E14.15816
G0 X0.05 Y22.72
;LAYER:33
G0 X0.00 Y23.04 Z1.02
;TYPE:WALL-OUTER
G1 X-19.95 Y11.52 E14.22727
G1 X-19.95 Y-11.52 E14.29638
G1 X0.00 Y-23.04 E14.36549
G1 X19.95 Y-11.52 E14.43460
G1 X19.95 Y11.52 E14.50371
G1 X0.00 Y23.04 E14.57282
G0 X0.05 Y22.72
;LAYER:34
G0 X0.00 Y23.04 Z1.05
;TYPE:WALL-OUTER
G1 X-19.95 Y11.52 E14.64193
G1 X-19.95 Y-11.52 E14.71104
G1 X0.00 Y-23.04 E14.78015
G1 X19.95 Y-11.52 E14.84926
G1 X19.95 Y11.52 E14.91837
G1 X0.00 Y23.04 E14.98748
G0 X0.05 Y22.72
;LAYER:35
G0 X0.00 Y23.04 Z1.08
;TYPE:WALL-OUTER
G1 X-19.95 Y11.52 E15.05659
G1 X-19.95 Y-11.52 E15.12569
G1 X0.00 Y-23.04 E15.19480
G1 X19.95 Y-11.52 E15.26391
G1 X19.95 Y11.52 E15.33302
G1 X0.00 Y23.04 E15.40213
G0 X0.05 Y22.72
;LAYER:36
G0 X0.00 Y23.04 Z1.11
;TYPE:WALL-OUTER
G1 X-19.95 Y11.52 E15.47124
G1 X-19.95 Y-11.52 E15.54035
G1 X0.00 Y-23.04 E15.60946
G1 X19.95 Y-11.52 E15.67857
G1 X19.95 Y11.52 E15.74768
G1 X0.00 Y23.04 E15.81679
G0 X0.05 Y22.72
;LAYER:37
G0 X0.00 Y23.04 Z1.14
;TYPE:WALL-OUTER
G1 X-19.95 Y11.52 E15.88590
G1 X-19.95 Y-11.52 E15.95501
G1 X0.00 Y-23.04 E16.02412
G1 X19.95 Y-11.52 E16.09323
G1 X19.95 Y11.52 E16.16233
G1 X0.00 Y23.04 E16.23144
G0 X0.05 Y22.72
;LAYER:38
G0 X0.00 Y23.04 Z1.17
;TYPE:WALL-OUTER
G1 X-19.95 Y11.52 E16.30055
G1 X-19.95 Y-11.52 E16.36966
G1 X0.00 Y-23.04 E16.43877
G1 X19.95 Y-11.52 E16.50788
G1 X19.95 Y11.52 E16.57699
G1 X0.00 Y23.04 E16.64610
G0 X0.05 Y22.72
;LAYER:39
G0 X0.00 Y23.04 Z1.20
;TYPE:WALL-OUTER
G1 X-19.95 Y11.52 E16.71521
G1 X-19.95 Y-11.52 E16.78432
G1 X0.00 Y-23.04 E16.85343
G1 X19.95 Y-11.52 E16.92254
G1 X19.95 Y11.52 E16.99165
G1 X0.00 Y23.04 E17.06076
G0 X0.05 Y22.72
;LAYER:40
G0 X0.00 Y23.04 Z1.23
;TYPE:WALL-OUTER
G1 X-19.95 Y11.52 E17.12987
G1 X-19.95 Y-11.52 E17.19898
G1 X0.00 Y-23.04 E17.26809
G1 X19.95 Y-11.52 E17.33720
G1 X19.95 Y11.52 E17.40630
G1 X0.00 Y23.04 E17.47541
G0 X0.05 Y22.72
;LAYER:41
G0 X0.00 Y23.04 Z1.26
;TYPE:WALL-OUTER
G1 X-19.95 Y11.52 E17.54452
G1 X-19.95 Y-11.52 E17.61363
G1 X0.00 Y-23.04 E17.68274
G1 X19.95 Y-11.52 E17.75185
G1 X19.95 Y11.52 E17.82096
G1 X0.00 Y23.04 E17.89007
G0 X0.05 Y22.72
;LAYER:42
G0 X0.00 Y23.04 Z1.29
;TYPE:WALL-OUTER
G1 X-19.95 Y11.52 E17.95918
G1 X-19.95 Y-11.52 E18.02829
G1 X0.00 Y-23.04 E18.09740
G1 X19.95 Y-11.52 E18.16651
G1 X19.95 Y11.52 E18.23562
G1 X0.00 Y23.04 E18.30473
G0 X0.05 Y22.72
;LAYER:43
G0 X0.00 Y23.04 Z1.32
;TYPE:WALL-OUTER
G1 X-19.95 Y11.52 E18.37384
G1 X-19.95 Y-11.52 E18.44295
G1 X0.00 Y-23.04 E18.51206
G1 X19.95 Y-11.52 E18.58117
G1 X19.95 Y11.52 E18.65027
G1 X0.00 Y23.04 E18.71938
G0 X0.05 Y22.72
;LAYER:44
G0 X0.00 Y23.04 Z1.35
;TYPE:WALL-OUTER
G1 X-19.95 Y11.52 E18.78849
G1 X-19.95 Y-11.52 E18.85760
G1 X0.00 Y-23.04 E18.92671
G1 X19.95 Y-11.52 E18.99582
G1 X19.95 Y11.52 E19.06493
G1 X0.00 Y23.04 E19.13404
G0 X0.05 Y22.72
;LAYER:45
G0 X0.00 Y23.04 Z1.38
;TYPE:WALL-OUTER
G1 X-19.95 Y11.52 E19.20315
G1 X-19.95 Y-11.52 E19.27226
G1 X0.00 Y-23.04 E19.34137
G1 X19.95 Y-11.52 E19.41048
G1 X19.95 Y11.52 E19.47959
G1 X0.00 Y23.04 E19.54870
G0 X0.05 Y22.72
;LAYER:46
G0 X0.00 Y23.04 Z1.41
;TYPE:WALL-OUTER
G1 X-19.95 Y11.52 E19.61781
G1 X-19.95 Y-11.52 E19.68691
G1 X0.00 Y-23.04 E19.75602
G1 X19.95 Y-11.52 E19.82514
G1 X19.95 Y11.52 E19.89424
G1 X0.00 Y23.04 E19.96335
G0 X0.05 Y22.72
;LAYER:47
G0 X0.00 Y23.04 Z1.44
;TYPE:WALL-OUTER
G1 X-19.95 Y11.52 E20.03246
G1 X-19.95 Y-11.52 E20.10157
G1 X0.00 Y-23.04 E20.17068
G1 X19.95 Y-11.52 E20.23979
G1 X19.95 Y11.52 E20.30890
G1 X0.00 Y23.04 E20.37801
G0 X0.05 Y22.72
;LAYER:48
G0 X0.00 Y23.04 Z1.47
;TYPE:WALL-OUTER
G1 X-19.95 Y11.52 E20.44712
G1 X-19.95 Y-11.52 E20.51623
G1 X0.00 Y-23.04 E20.58534
G1 X19.95 Y-11.52 E20.65445
G1 X19.95 Y11.52 E20.72356
G1 X0.00 Y23.04 E20.79267
G0 X0.05 Y22.72
;LAYER:49
G0 X0.00 Y23.04 Z1.50
;TYPE:WALL-OUTER
G1 X-19.95 Y11.52 E20.86178
G1 X-19.95 Y-11.52 E20.93088
G1 X0.00 Y-23.04 E20.99999
G1 X19.95 Y-11.52 E21.06910
G1 X19.95 Y11.52 E21.13821
G1 X0.00 Y23.04 E21.20732
G0 X0.05 Y22.72
;LAYER:50
G0 X0.00 Y23.04 Z1.53
;TYPE:WALL-OUTER
G1 X-19.95 Y11.52 E21.27643
G1 X-19.95 Y-11.52 E21.34554
G1 X0.00 Y-23.04 E21.41465
G1 X19.95 Y-11.52 E21.48376
G1 X19.95 Y11.52 E21.55287
G1 X0.00 Y23.04 E21.62198
G0 X0.05 Y22.72
;LAYER:51
G0 X0.00 Y23.04 Z1.56
;TYPE:WALL-OUTER
G1 X-19.95 Y11.52 E21.69109
G1 X-19.95 Y-11.52 E21.76020
G1 X0.00 Y-23.04 E21.82931
G1 X19.95 Y-11.52 E21.89842
G1 X19.95 Y11.52 E21.96753
G1 X0.00 Y23.04 E22.03664
G0 X0.05 Y22.72
;LAYER:52
G0 X0.00 Y23.04 Z1.59
;TYPE:WALL-OUTER
G1 X-19.95 Y11.52 E22.10575
G1 X-19.95 Y-11.52 E22.17485
G1 X0.00 Y-23.04 E22.24396
G1 X19.95 Y-11.52 E22.31307
G1 X19.95 Y11.52 E22.38218
G1 X0.00 Y23.04 E22.45129
G0 X0.05 Y22.72
;LAYER:53
G0 X0.00 Y23.04 Z1.62
;TYPE:WALL-OUTER
G1 X-19.95 Y11.52 E22.52040
G1 X-19.95 Y-11.52 E22.58951
G1 X0.00 Y-23.04 E22.65862
G1 X19.95 Y-11.52 E22.72773
G1 X19.95 Y11.52 E22.79684
G1 X0.00 Y23.04 E22.86595
G0 X0.05 Y22.72
;LAYER:54
G0 X0.00 Y23.04 Z1.65
;TYPE:WALL-OUTER
G1 X-19.95 Y11.52 E22.93506
G1 X-19.95 Y-11.52 E23.00417
G1 X0.00 Y-23.04 E23.07328
G1 X19.95 Y-11.52 E23.14239
G1 X19.95 Y11.52 E23.21149
G1 X0.00 Y23.04 E23.28061
G0 X0.05 Y22.72
;LAYER:55
G0 X0.00 Y23.04 Z1.68
;TYPE:WALL-OUTER
G1 X-19.95 Y11.52 E23.34972
G1 X-19.95 Y-11.52 E23.41882
G1 X0.00 Y-23.04 E23.48793
G1 X19.95 Y-11.52 E23.55704
G1 X19.95 Y11.52 E23.62615
G1 X0.00 Y23.04 E23.69526
G0 X0.05 Y22.72
;LAYER:56
G0 X0.00 Y23.04 Z1.71
;TYPE:WALL-OUTER
G1 X-19.95 Y11.52 E23.76437
G1 X-19.95 Y-11.52 E23.83348
G1 X0.00 Y-23.04 E23.90259
G1 X19.95 Y-11.52 E23.97170
G1 X19.95 Y11.52 E24.04081
G1 X0.00 Y23.04 E24.10992
G0 X0.05 Y22.72
;LAYER:57
G0 X0.00 Y23.04 Z1.74
;TYPE:WALL-OUTER
G1 X-19.95 Y11.52 E24.17903
G1 X-19.95 Y-11.52 E24.24814
G1 X0.00 Y-23.04 E24.31725
G1 X19.95 Y-11.52 E24.38636
G1 X19.95 Y11.52 E24.45546
G1 X0.00 Y23.04 E24.52457
G0 X0.05 Y22.72
;LAYER:58
G0 X0.00 Y23.04 Z1.77
;TYPE:WALL-OUTER
G1 X-19.95 Y11.52 E24.59368
G1 X-19.95 Y-11.52 E24.66279
G1 X0.00 Y-23.04 E24.73190
G1 X19.95 Y-11.52 E24.80101
G1 X19.95 Y11.52 E24.87012
G1 X0.00 Y23.04 E24.93923
G0 X0.05 Y22.72
;LAYER:59
G0 X0.00 Y23.04 Z1.80
;TYPE:WALL-OUTER
G1 X-19.95 Y11.52 E25.00834
G1 X-19.95 Y-11.52 E25.07745
G1 X0.00 Y-23.04 E25.14656
G1 X19.95 Y-11.52 E25.21567
G1 X19.95 Y11.52 E25.28478
G1 X0.00 Y23.04 E25.35389
G0 X0.05 Y22.72
;LAYER:60
G0 X0.00 Y23.04 Z1.83
;TYPE:WALL-OUTER
G1 X-19.95 Y11.52 E25.42300
G1 X-19.95 Y-11.52 E25.49211
G1 X0.00 Y-23.04 E25.56122
G1 X19.95 Y-11.52 E25.63033
G1 X19.95 Y11.52 E25.69943
G1 X0.00 Y23.04 E25.76854
G0 X0.05 Y22.72
;LAYER:61
G0 X0.00 Y23.04 Z1.86
;TYPE:WALL-OUTER
G1 X-19.95 Y11.52 E25.83765
G1 X-19.95 Y-11.52 E25.90676
G1 X0.00 Y-23.04 E25.97587
G1 X19.95 Y-11.52 E26.04498
G1 X19.95 Y11.52 E26.11409
G1 X0.00 Y23.04 E26.18320
G0 X0.05 Y22.72
;LAYER:62
G0 X0.00 Y23.04 Z1.89
;TYPE:WALL-OUTER
G1 X-19.95 Y11.52 E26.25231
G1 X-19.95 Y-11.52 E26.32142
G1 X0.00 Y-23.04 E26.39053
G1 X19.95 Y-11.52 E26.45964
G1 X19.95 Y11.52 E26.52875
G1 X0.00 Y23.04 E26.59786
G0 X0.05 Y22.72
;LAYER:63
G0 X0.00 Y23.04 Z1.92
;TYPE:WALL-OUTER
G1 X-19.95 Y11.52 E26.66697
G1 X-19.95 Y-11.52 E26.73607
G1 X0.00 Y-23.04 E26.80519
G1 X19.95 Y-11.52 E26.87430
G1 X19.95 Y11.52 E26.94340
G1 X0.00 Y23.04 E27.01251
G0 X0.05 Y22.72
;LAYER:64
G0 X0.00 Y23.04 Z1.95
;TYPE:WALL-OUTER
G1 X-19.95 Y11.52 E27.08162
G1 X-19.95 Y-11.52 E27.15073
G1 X0.00 Y-23.04 E27.21984
G1 X19.95 Y-11.52 E27.28895
G1 X19.95 Y11.52 E27.35806
G1 X0.00 Y23.04 E27.42717
G0 X0.05 Y22.72
;LAYER:65
G0 X0.00 Y23.04 Z1.98
;TYPE:WALL-OUTER
G1 X-19.95 Y11.52 E27.49628
G1 X-19.95 Y-11.52 E27.56539
G1 X0.00 Y-23.04 E27.63450
G1 X19.95 Y-11.52 E27.70361
G1 X19.95 Y11.52 E27.77272
G1 X0.00 Y23.04 E27.84183
G0 X0.05 Y22.72
;LAYER:66
G0 X0.00 Y23.04 Z2.01
;TYPE:WALL-OUTER
G1 X-19.95 Y11.52 E27.91094
G1 X-19.95 Y-11.52 E27.98004
G1 X0.00 Y-23.04 E28.04915
G1 X19.95 Y-11.52 E28.11826
G1 X19.95 Y11.52 E28.18737
G1 X0.00 Y23.04 E28.25648
G0 X0.05 Y22.72
;LAYER:67
G0 X0.00 Y23.04 Z2.04
;TYPE:WALL-OUTER
G1 X-19.95 Y11.52 E28.32559
G1 X-19.95 Y-11.52 E28.39470
G1 X0.00 Y-23.04 E28.46381
G1 X19.95 Y-11.52 E28.53292
G1 X19.95 Y11.52 E28.60203
