;Generated with Cura_SteamEngine 13.11.2


;Layer count: 236
;LAYER:0
M107
G0 F6000 X3.56 Y-0.82 Z0.06
;TYPE:SKIRT
G1 F6000 E0.00000
G1 X3.56 Y0.82 E0.00154
G1 X2.05 Y3.43 E0.00438
G1 X0.63 Y4.25 E0.00591
G1 X-2.38 Y4.25 E0.00875
G1 X-3.80 Y3.43 E0.01029
G1 X-5.31 Y0.82 E0.01313
G1 X-5.31 Y-0.82 E0.01467
G1 X-3.80 Y-3.43 E0.01751
G1 X-2.38 Y-4.25 E0.01904
G1 X0.63 Y-4.25 E0.02188
G1 X2.05 Y-3.43 E0.02342
G1 X3.56 Y-0.82 E0.02626
G0 X3.66 Y-0.84
G1 X3.66 Y0.84 E0.02785
G1 X2.12 Y3.51 E0.03074
G1 X0.66 Y4.35 E0.03232
G1 X-2.41 Y4.35 E0.03521
G1 X-3.87 Y3.51 E0.03680
G1 X-5.41 Y0.85 E0.03969
G1 X-5.41 Y-0.84 E0.04128
G1 X-3.87 Y-3.51 E0.04417
G1 X-2.41 Y-4.35 E0.04575
G1 X0.66 Y-4.35 E0.04864
G1 X2.12 Y-3.51 E0.05023
G1 X3.66 Y-0.84 E0.05312
G0 X3.76 Y-0.87
G1 X3.76 Y0.87 E0.05476
G1 X2.19 Y3.58 E0.05770
G1 X0.69 Y4.45 E0.05934
G1 X-2.43 Y4.45 E0.06227
G1 X-3.94 Y3.58 E0.06391
G1 X-5.51 Y0.87 E0.06685
G1 X-5.51 Y-0.87 E0.06849
G1 X-3.94 Y-3.58 E0.07143
G1 X-2.44 Y-4.45 E0.07307
G1 X0.69 Y-4.45 E0.07601
G1 X2.19 Y-3.58 E0.07765
G1 X3.76 Y-0.87 E0.08059
G0 X3.86 Y-0.90
G1 X3.86 Y0.90 E0.08228
G1 X2.27 Y3.65 E0.08527
G1 X0.71 Y4.55 E0.08696
G1 X-2.46 Y4.55 E0.08994
G1 X-4.01 Y3.65 E0.09163
G1 X-5.61 Y0.90 E0.09462
G1 X-5.61 Y-0.90 E0.09631
G1 X-4.02 Y-3.65 E0.09930
G1 X-2.46 Y-4.55 E0.10099
G1 X0.71 Y-4.55 E0.10398
G1 X2.27 Y-3.65 E0.10567
G1 X3.86 Y-0.90 E0.10866
G0 X3.96 Y-0.92
G1 X3.96 Y0.92 E0.11040
G1 X2.34 Y3.72 E0.11344
G1 X0.74 Y4.65 E0.11518
G1 X-2.49 Y4.65 E0.11821
G1 X-4.09 Y3.73 E0.11995
G1 X-5.71 Y0.93 E0.12299
G1 X-5.71 Y-0.92 E0.12473
G1 X-4.09 Y-3.72 E0.12778
G1 X-2.49 Y-4.65 E0.12951
G1 X0.74 Y-4.65 E0.13255
G1 X2.34 Y-3.72 E0.13429
G1 X3.96 Y-0.92 E0.13733
G0 X4.06 Y-0.95
G1 X4.06 Y0.95 E0.13912
G1 X2.41 Y3.80 E0.14221
G1 X0.77 Y4.75 E0.14400
G1 X-2.52 Y4.75 E0.14709
G1 X-4.16 Y3.80 E0.14888
G1 X-5.81 Y0.95 E0.15197
G1 X-5.81 Y-0.95 E0.15376
G1 X-4.16 Y-3.80 E0.15686
G1 X-2.52 Y-4.75 E0.15865
G1 X0.77 Y-4.75 E0.16173
G1 X2.41 Y-3.80 E0.16352
G1 X4.06 Y-0.95 E0.16662
G0 X0.30 Y0.04
G0 X0.30 Y-0.04
G0 X0.45 Y0.00
;TYPE:WALL-OUTER
G1 X-0.21 Y1.15 E0.16786
G1 X-1.54 Y1.15 E0.16911
G1 X-2.20 Y0.00 E0.17036
G1 X-1.54 Y-1.15 E0.17161
G1 X-0.21 Y-1.15 E0.17286
G1 X0.45 Y0.00 E0.17410
G0 X0.14 Y-0.05
;LAYER:1
G0 X0.45 Y0.00 Z0.12
;TYPE:WALL-OUTER
G1 X-0.21 Y1.15 E0.17535
G1 X-1.54 Y1.15 E0.17660
G1 X-2.20 Y0.00 E0.17785
G1 X-1.54 Y-1.15 E0.17910
G1 X-0.21 Y-1.15 E0.18034
G1 X0.45 Y0.00 E0.18159
G0 X0.14 Y-0.05
;LAYER:2
G0 X0.45 Y0.00 Z0.18
;TYPE:WALL-OUTER
G1 X-0.21 Y1.15 E0.18284
G1 X-1.54 Y1.15 E0.18409
G1 X-2.20 Y0.00 E0.18534
G1 X-1.54 Y-1.15 E0.18658
G1 X-0.21 Y-1.15 E0.18783
G1 X0.45 Y0.00 E0.18908
G0 X0.14 Y-0.05
;LAYER:3
G0 X0.45 Y0.00 Z0.24
;TYPE:WALL-OUTER
G1 X-0.21 Y1.15 E0.19033
G1 X-1.54 Y1.15 E0.19158
G1 X-2.20 Y0.00 E0.19282
G1 X-1.54 Y-1.15 E0.19407
G1 X-0.21 Y-1.15 E0.19532
G1 X0.45 Y0.00 E0.19657
G0 X0.14 Y-0.05
;LAYER:4
G0 X0.45 Y0.00 Z0.30
;TYPE:WALL-OUTER
G1 X-0.21 Y1.15 E0.19782
G1 X-1.54 Y1.15 E0.19906
G1 X-2.20 Y0.00 E0.20031
G1 X-1.54 Y-1.15 E0.20156
G1 X-0.21 Y-1.15 E0.20281
G1 X0.45 Y0.00 E0.20406
G0 X0.14 Y-0.05
;LAYER:5
G0 X0.45 Y0.00 Z0.36
;TYPE:WALL-OUTER
G1 X-0.21 Y1.15 E0.20531
G1 X-1.54 Y1.15 E0.20655
G1 X-2.20 Y0.00 E0.20780
G1 X-1.54 Y-1.15 E0.20905
G1 X-0.21 Y-1.15 E0.21030
G1 X0.45 Y0.00 E0.21155
G0 X0.14 Y-0.05
;LAYER:6
G0 X0.45 Y0.00 Z0.42
;TYPE:WALL-OUTER
G1 X-0.21 Y1.15 E0.21279
G1 X-1.54 Y1.15 E0.21404
G1 X-2.20 Y0.00 E0.21529
G1 X-1.54 Y-1.15 E0.21654
G1 X-0.21 Y-1.15 E0.21779
G1 X0.45 Y0.00 E0.21903
G0 X0.14 Y-0.05
;LAYER:7
G0 X0.45 Y0.00 Z0.48
;TYPE:WALL-OUTER
G1 X-0.21 Y1.15 E0.22028
G1 X-1.54 Y1.15 E0.22153
G1 X-2.20 Y0.00 E0.22278
G1 X-1.54 Y-1.15 E0.22403
G1 X-0.21 Y-1.15 E0.22527
G1 X0.45 Y0.00 E0.22652
G0 X0.14 Y-0.05
;LAYER:8
G0 X0.45 Y0.00 Z0.54
;TYPE:WALL-OUTER
G1 X-0.21 Y1.15 E0.22777
G1 X-1.54 Y1.15 E0.22902
G1 X-2.20 Y0.00 E0.23026
G1 X-1.54 Y-1.15 E0.23151
G1 X-0.21 Y-1.15 E0.23276
G1 X0.45 Y0.00 E0.23401
G0 X0.14 Y-0.05
;LAYER:9
G0 X0.45 Y0.00 Z0.60
;TYPE:WALL-OUTER
G1 X-0.21 Y1.15 E0.23526
G1 X-1.54 Y1.15 E0.23650
G1 X-2.20 Y0.00 E0.23775
G1 X-1.54 Y-1.15 E0.23900
G1 X-0.21 Y-1.15 E0.24025
G1 X0.45 Y0.00 E0.24150
G0 X0.14 Y-0.05
;LAYER:10
G0 X0.45 Y0.00 Z0.66
;TYPE:WALL-OUTER
G1 X-0.21 Y1.15 E0.24275
G1 X-1.54 Y1.15 E0.24399
G1 X-2.20 Y0.00 E0.24524
G1 X-1.54 Y-1.15 E0.24649
G1 X-0.21 Y-1.15 E0.24774
G1 X0.45 Y0.00 E0.24898
G0 X0.14 Y-0.05
;LAYER:11
G0 X0.45 Y0.00 Z0.72
;TYPE:WALL-OUTER
G1 X-0.21 Y1.15 E0.25023
G1 X-1.54 Y1.15 E0.25148
G1 X-2.20 Y0.00 E0.25273
G1 X-1.54 Y-1.15 E0.25398
G1 X-0.21 Y-1.15 E0.25522
G1 X0.45 Y0.00 E0.25647
G0 X0.14 Y-0.05
;LAYER:12
G0 X0.45 Y0.00 Z0.78
;TYPE:WALL-OUTER
G1 X-0.21 Y1.15 E0.25772
G1 X-1.54 Y1.15 E0.25897
G1 X-2.20 Y0.00 E0.26022
G1 X-1.54 Y-1.15 E0.26146
G1 X-0.21 Y-1.15 E0.26271
G1 X0.45 Y0.00 E0.26396
G0 X0.14 Y-0.05
;LAYER:13
G0 X0.45 Y0.00 Z0.84
;TYPE:WALL-OUTER
G1 X-0.21 Y1.15 E0.26521
G1 X-1.54 Y1.15 E0.26645
G1 X-2.20 Y0.00 E0.26770
G1 X-1.54 Y-1.15 E0.26895
G1 X-0.21 Y-1.15 E0.27020
G1 X0.45 Y0.00 E0.27145
G0 X0.14 Y-0.05
;LAYER:14
G0 X0.45 Y0.00 Z0.90
;TYPE:WALL-OUTER
G1 X-0.21 Y1.15 E0.27270
G1 X-1.54 Y1.15 E0.27394
G1 X-2.20 Y0.00 E0.27519
G1 X-1.54 Y-1.15 E0.27644
G1 X-0.21 Y-1.15 E0.27769
G1 X0.45 Y0.00 E0.27894
G0 X0.14 Y-0.05
;LAYER:15
G0 X0.45 Y0.00 Z0.96
;TYPE:WALL-OUTER
G1 X-0.21 Y1.15 E0.28018
G1 X-1.54 Y1.15 E0.28143
G1 X-2.20 Y0.00 E0.28268
G1 X-1.54 Y-1.15 E0.28393
G1 X-0.21 Y-1.15 E0.28518
G1 X0.45 Y0.00 E0.28642
G0 X0.14 Y-0.05
;LAYER:16
G0 X0.45 Y0.00 Z1.02
;TYPE:WALL-OUTER
G1 X-0.21 Y1.15 E0.28767
G1 X-1.54 Y1.15 E0.28892
G1 X-2.20 Y0.00 E0.29017
G1 X-1.54 Y-1.15 E0.29142
G1 X-0.21 Y-1.15 E0.29266
G1 X0.45 Y0.00 E0.29391
G0 X0.14 Y-0.05
;LAYER:17
G0 X0.45 Y0.00 Z1.08
;TYPE:WALL-OUTER
G1 X-0.21 Y1.15 E0.29516
G1 X-1.54 Y1.15 E0.29641
G1 X-2.20 Y0.00 E0.29765
G1 X-1.54 Y-1.15 E0.29890
G1 X-0.21 Y-1.15 E0.30015
G1 X0.45 Y0.00 E0.30140
G0 X0.14 Y-0.05
;LAYER:18
G0 X0.45 Y0.00 Z1.14
;TYPE:WALL-OUTER
G1 X-0.21 Y1.15 E0.30265
G1 X-1.54 Y1.15 E0.30389
G1 X-2.20 Y0.00 E0.30514
G1 X-1.54 Y-1.15 E0.30639
G1 X-0.21 Y-1.15 E0.30764
G1 X0.45 Y0.00 E0.30889
G0 X0.14 Y-0.05
;LAYER:19
G0 X0.45 Y0.00 Z1.20
;TYPE:WALL-OUTER
G1 X-0.21 Y1.15 E0.31014
G1 X-1.54 Y1.15 E0.31138
G1 X-2.20 Y0.00 E0.31263
G1 X-1.54 Y-1.15 E0.31388
G1 X-0.21 Y-1.15 E0.31513
G1 X0.45 Y0.00 E0.31637
G0 X0.14 Y-0.05
;LAYER:20
G0 X0.45 Y0.00 Z1.26
;TYPE:WALL-OUTER
G1 X-0.21 Y1.15 E0.31762
G1 X-1.53 Y1.15 E0.31887
G1 X-2.20 Y0.00 E0.32012
G1 X-1.54 Y-1.15 E0.32137
G1 X-0.21 Y-1.15 E0.32261
G1 X0.45 Y0.00 E0.32386
G0 X0.14 Y-0.05
;LAYER:21
G0 X0.45 Y0.00 Z1.32
;TYPE:WALL-OUTER
G1 X-0.21 Y1.15 E0.32511
G1 X-1.53 Y1.15 E0.32636
G1 X-2.20 Y0.00 E0.32761
G1 X-1.54 Y-1.15 E0.32885
G1 X-0.21 Y-1.15 E0.33010
G1 X0.45 Y0.00 E0.33135
G0 X0.14 Y-0.05
;LAYER:22
G0 X0.45 Y0.00 Z1.38
;TYPE:WALL-OUTER
G1 X-0.21 Y1.15 E0.33260
G1 X-1.53 Y1.15 E0.33384
G1 X-2.20 Y0.00 E0.33509
G1 X-1.54 Y-1.15 E0.33634
G1 X-0.21 Y-1.15 E0.33759
G1 X0.45 Y0.00 E0.33884
G0 X0.14 Y-0.05
;LAYER:23
G0 X0.45 Y0.00 Z1.44
;TYPE:WALL-OUTER
G1 X-0.21 Y1.15 E0.34009
G1 X-1.53 Y1.15 E0.34133
G1 X-2.20 Y0.00 E0.34258
G1 X-1.54 Y-1.15 E0.34383
G1 X-0.21 Y-1.15 E0.34508
G1 X0.45 Y0.00 E0.34632
G0 X0.14 Y-0.05
;LAYER:24
G0 X0.45 Y0.00 Z1.50
;TYPE:WALL-OUTER
G1 X-0.21 Y1.15 E0.34757
G1 X-1.53 Y1.15 E0.34882
G1 X-2.20 Y0.00 E0.35007
G1 X-1.54 Y-1.15 E0.35132
G1 X-0.21 Y-1.15 E0.35256
G1 X0.45 Y0.00 E0.35381
G0 X0.14 Y-0.05
;LAYER:25
G0 X0.45 Y0.00 Z1.56
;TYPE:WALL-OUTER
G1 X-0.21 Y1.15 E0.35506
G1 X-1.53 Y1.15 E0.35630
G1 X-2.20 Y0.00 E0.35755
G1 X-1.54 Y-1.15 E0.35880
G1 X-0.21 Y-1.15 E0.36005
G1 X0.45 Y0.00 E0.36130
G0 X0.14 Y-0.05
;LAYER:26
G0 X0.45 Y0.00 Z1.62
;TYPE:WALL-OUTER
G1 X-0.21 Y1.15 E0.36255
G1 X-1.53 Y1.15 E0.36379
G1 X-2.20 Y0.00 E0.36504
G1 X-1.54 Y-1.15 E0.36629
G1 X-0.21 Y-1.15 E0.36754
G1 X0.45 Y0.00 E0.36878
G0 X0.14 Y-0.05
;LAYER:27
G0 X0.45 Y0.00 Z1.68
;TYPE:WALL-OUTER
G1 X-0.21 Y1.15 E0.37003
G1 X-1.53 Y1.15 E0.37128
G1 X-2.20 Y0.00 E0.37253
G1 X-1.54 Y-1.15 E0.37377
G1 X-0.21 Y-1.15 E0.37502
G1 X0.45 Y0.00 E0.37627
G0 X0.14 Y-0.05
;LAYER:28
G0 X0.45 Y0.00 Z1.74
;TYPE:WALL-OUTER
G1 X-0.21 Y1.15 E0.37752
G1 X-1.53 Y1.15 E0.37876
G1 X-2.20 Y0.00 E0.38001
G1 X-1.54 Y-1.15 E0.38126
G1 X-0.21 Y-1.15 E0.38251
G1 X0.45 Y0.00 E0.38376
G0 X0.14 Y-0.05
;LAYER:29
G0 X0.45 Y0.00 Z1.80
;TYPE:WALL-OUTER
G1 X-0.21 Y1.15 E0.38501
G1 X-1.53 Y1.15 E0.38625
G1 X-2.20 Y0.00 E0.38750
G1 X-1.54 Y-1.15 E0.38875
G1 X-0.21 Y-1.15 E0.38999
G1 X0.45 Y0.00 E0.39124
G0 X0.14 Y-0.05
;LAYER:30
G0 X0.45 Y0.00 Z1.86
;TYPE:WALL-OUTER
G1 X-0.21 Y1.15 E0.39249
G1 X-1.53 Y1.15 E0.39373
G1 X-2.20 Y0.00 E0.39498
G1 X-1.54 Y-1.15 E0.39623
G1 X-0.21 Y-1.15 E0.39748
G1 X0.45 Y0.00 E0.39873
G0 X0.14 Y-0.05
;LAYER:31
G0 X0.45 Y0.00 Z1.92
;TYPE:WALL-OUTER
G1 X-0.21 Y1.15 E0.39998
G1 X-1.53 Y1.15 E0.40122
G1 X-2.20 Y0.00 E0.40247
G1 X-1.54 Y-1.15 E0.40372
G1 X-0.21 Y-1.15 E0.40497
G1 X0.45 Y0.00 E0.40621
G0 X0.14 Y-0.05
;LAYER:32
G0 X0.45 Y0.00 Z1.98
;TYPE:WALL-OUTER
G1 X-0.21 Y1.15 E0.40746
G1 X-1.53 Y1.15 E0.40871
G1 X-2.20 Y0.00 E0.40996
G1 X-1.54 Y-1.15 E0.41120
G1 X-0.21 Y-1.15 E0.41245
G1 X0.45 Y0.00 E0.41370
G0 X0.14 Y-0.05
;LAYER:33
G0 X0.45 Y0.00 Z2.04
;TYPE:WALL-OUTER
G1 X-0.21 Y1.15 E0.41495
G1 X-1.53 Y1.15 E0.41619
G1 X-2.20 Y0.00 E0.41744
G1 X-1.54 Y-1.15 E0.41869
G1 X-0.21 Y-1.15 E0.41994
G1 X0.45 Y0.00 E0.42119
G0 X0.14 Y-0.05
;LAYER:34
G0 X0.45 Y0.00 Z2.10
;TYPE:WALL-OUTER
G1 X-0.21 Y1.15 E0.42243
G1 X-1.53 Y1.15 E0.42368
G1 X-2.20 Y0.00 E0.42493
G1 X-1.54 Y-1.15 E0.42618
G1 X-0.21 Y-1.15 E0.42742
G1 X0.45 Y0.00 E0.42867
G0 X0.14 Y-0.05
;LAYER:35
G0 X0.45 Y0.00 Z2.16
;TYPE:WALL-OUTER
G1 X-0.21 Y1.15 E0.42992
G1 X-1.53 Y1.15 E0.43116
G1 X-2.20 Y0.00 E0.43241
G1 X-1.54 Y-1.15 E0.43366
G1 X-0.21 Y-1.15 E0.43491
G1 X0.45 Y0.00 E0.43616
G0 X0.14 Y-0.05
;LAYER:36
G0 X0.45 Y0.00 Z2.22
;TYPE:WALL-OUTER
G1 X-0.21 Y1.15 E0.43741
G1 X-1.53 Y1.15 E0.43865
G1 X-2.20 Y0.00 E0.43990
G1 X-1.54 Y-1.15 E0.44115
G1 X-0.21 Y-1.15 E0.44239
G1 X0.45 Y0.00 E0.44364
G0 X0.14 Y-0.05
;LAYER:37
G0 X0.45 Y0.00 Z2.28
;TYPE:WALL-OUTER
G1 X-0.21 Y1.15 E0.44489
G1 X-1.53 Y1.15 E0.44613
G1 X-2.20 Y0.00 E0.44738
G1 X-1.54 Y-1.15 E0.44863
G1 X-0.21 Y-1.15 E0.44988
G1 X0.45 Y0.00 E0.45113
G0 X0.14 Y-0.05
;LAYER:38
G0 X0.45 Y0.00 Z2.34
;TYPE:WALL-OUTER
G1 X-0.21 Y1.15 E0.45238
G1 X-1.53 Y1.15 E0.45362
G1 X-2.20 Y0.00 E0.45487
G1 X-1.54 Y-1.15 E0.45612
G1 X-0.21 Y-1.15 E0.45736
G1 X0.45 Y0.00 E0.45861
G0 X0.14 Y-0.05
;LAYER:39
G0 X0.45 Y0.00 Z2.40
;TYPE:WALL-OUTER
G1 X-0.21 Y1.15 E0.45986
G1 X-1.53 Y1.15 E0.46110
G1 X-2.20 Y0.00 E0.46235
G1 X-1.54 Y-1.15 E0.46360
G1 X-0.21 Y-1.15 E0.46485
G1 X0.45 Y0.00 E0.46610
G0 X0.14 Y-0.05
;LAYER:40
G0 X0.45 Y0.00 Z2.46
;TYPE:WALL-OUTER
G1 X-0.21 Y1.15 E0.46735
G1 X-1.53 Y1.15 E0.46859
G1 X-2.20 Y0.00 E0.46984
G1 X-1.54 Y-1.15 E0.47109
G1 X-0.21 Y-1.15 E0.47233
G1 X0.45 Y0.00 E0.47358
G0 X0.14 Y-0.05
;LAYER:41
G0 X0.45 Y0.00 Z2.52
;TYPE:WALL-OUTER
G1 X-0.21 Y1.15 E0.47483
G1 X-1.53 Y1.15 E0.47607
G1 X-2.20 Y0.00 E0.47732
G1 X-1.54 Y-1.15 E0.47857
G1 X-0.21 Y-1.15 E0.47982
G1 X0.45 Y0.00 E0.48107
G0 X0.14 Y-0.05
;LAYER:42
G0 X0.45 Y0.00 Z2.58
;TYPE:WALL-OUTER
G1 X-0.21 Y1.15 E0.48232
G1 X-1.53 Y1.15 E0.48356
G1 X-2.20 Y0.00 E0.48481
G1 X-1.54 Y-1.15 E0.48606
G1 X-0.21 Y-1.15 E0.48730
G1 X0.45 Y0.00 E0.48855
G0 X0.14 Y-0.05
;LAYER:43
G0 X0.45 Y0.00 Z2.64
;TYPE:WALL-OUTER
G1 X-0.21 Y1.15 E0.48980
G1 X-1.53 Y1.15 E0.49104
G1 X-2.20 Y0.00 E0.49229
G1 X-1.54 Y-1.15 E0.49354
G1 X-0.21 Y-1.15 E0.49479
G1 X0.45 Y0.00 E0.49604
G0 X0.14 Y-0.05
;LAYER:44
G0 X0.45 Y0.00 Z2.70
;TYPE:WALL-OUTER
G1 X-0.21 Y1.15 E0.49729
G1 X-1.53 Y1.15 E0.49853
G1 X-2.20 Y0.00 E0.49978
G1 X-1.54 Y-1.15 E0.50103
G1 X-0.21 Y-1.15 E0.50227
G1 X0.45 Y0.00 E0.50352
G0 X0.14 Y-0.05
;LAYER:45
G0 X0.45 Y0.00 Z2.76
;TYPE:WALL-OUTER
G1 X-0.21 Y1.15 E0.50477
G1 X-1.53 Y1.15 E0.50601
G1 X-2.20 Y0.00 E0.50726
G1 X-1.54 Y-1.15 E0.50851
G1 X-0.21 Y-1.15 E0.50976
G1 X0.45 Y0.00 E0.51101
G0 X0.14 Y-0.05
;LAYER:46
G0 X0.45 Y0.00 Z2.82
;TYPE:WALL-OUTER
G1 X-0.21 Y1.15 E0.51226
G1 X-1.53 Y1.15 E0.51350
G1 X-2.20 Y0.00 E0.51475
G1 X-1.54 Y-1.15 E0.51600
G1 X-0.21 Y-1.15 E0.51724
G1 X0.45 Y0.00 E0.51849
G0 X0.14 Y-0.05
;LAYER:47
G0 X0.45 Y0.00 Z2.88
;TYPE:WALL-OUTER
G1 X-0.21 Y1.15 E0.51974
G1 X-1.53 Y1.15 E0.52098
G1 X-2.20 Y0.00 E0.52223
G1 X-1.54 Y-1.15 E0.52348
G1 X-0.21 Y-1.15 E0.52473
G1 X0.45 Y0.00 E0.52598
G0 X0.14 Y-0.05
;LAYER:48
G0 X0.45 Y0.00 Z2.94
;TYPE:WALL-OUTER
G1 X-0.21 Y1.15 E0.52723
G1 X-1.53 Y1.15 E0.52847
G1 X-2.20 Y0.00 E0.52972
G1 X-1.54 Y-1.15 E0.53097
G1 X-0.21 Y-1.15 E0.53221
G1 X0.45 Y0.00 E0.53346
G0 X0.14 Y-0.05
;LAYER:49
G0 X0.45 Y0.00 Z3.00
;TYPE:WALL-OUTER
G1 X-0.21 Y1.15 E0.53471
G1 X-1.53 Y1.15 E0.53595
G1 X-2.20 Y0.00 E0.53720
G1 X-1.54 Y-1.15 E0.53845
G1 X-0.21 Y-1.15 E0.53970
G1 X0.45 Y0.00 E0.54095
G0 X0.14 Y-0.05
;LAYER:50
G0 X0.45 Y0.00 Z3.06
;TYPE:WALL-OUTER
G1 X-0.21 Y1.15 E0.54219
G1 X-1.53 Y1.15 E0.54344
G1 X-2.20 Y0.00 E0.54469
G1 X-1.54 Y-1.15 E0.54593
G1 X-0.21 Y-1.15 E0.54718
G1 X0.45 Y0.00 E0.54843
G0 X0.14 Y-0.05
;LAYER:51
G0 X0.45 Y0.00 Z3.12
;TYPE:WALL-OUTER
G1 X-0.21 Y1.15 E0.54968
G1 X-1.53 Y1.15 E0.55092
G1 X-2.20 Y0.00 E0.55217
G1 X-1.54 Y-1.15 E0.55342
G1 X-0.21 Y-1.15 E0.55467
G1 X0.45 Y0.00 E0.55592
G0 X0.14 Y-0.05
;LAYER:52
G0 X0.45 Y0.00 Z3.18
;TYPE:WALL-OUTER
G1 X-0.21 Y1.15 E0.55716
G1 X-1.53 Y1.15 E0.55840
G1 X-2.20 Y0.00 E0.55966
G1 X-1.54 Y-1.15 E0.56090
G1 X-0.21 Y-1.15 E0.56215
G1 X0.45 Y0.00 E0.56340
G0 X0.14 Y-0.05
;LAYER:53
G0 X0.45 Y0.00 Z3.24
;TYPE:WALL-OUTER
G1 X-0.21 Y1.15 E0.56465
G1 X-1.53 Y1.15 E0.56589
G1 X-1.54 Y1.14 E0.56591
G1 X-2.20 Y0.00 E0.56715
G1 X-1.54 Y-1.15 E0.56839
G1 X-0.21 Y-1.15 E0.56964
G1 X0.45 Y0.00 E0.57089
G0 X0.14 Y-0.05
;LAYER:54
G0 X0.42 Y-0.06 Z3.30
;TYPE:WALL-OUTER
G1 X0.53 Y0.00 E0.57101
G1 X0.41 Y0.07 E0.57114
G1 X-0.21 Y1.15 E0.57231
G1 X-1.45 Y1.15 E0.57347
G1 X-1.57 Y1.23 E0.57361
G1 X-1.58 Y1.07 E0.57377
G1 X-2.20 Y0.00 E0.57493
G1 X-1.58 Y-1.08 E0.57610
G1 X-1.57 Y-1.21 E0.57622
G1 X-1.48 Y-1.15 E0.57632
G1 X-0.21 Y-1.15 E0.57751
G1 X0.42 Y-0.06 E0.57869
G0 X0.13 Y0.06
;LAYER:55
G0 X0.37 Y0.15 Z3.36
;TYPE:WALL-OUTER
G1 X-0.21 Y1.15 E0.57978
G1 X-1.36 Y1.15 E0.58086
G1 X-1.62 Y1.30 E0.58114
G1 X-1.62 Y0.99 E0.58143
G1 X-2.20 Y0.00 E0.58251
G1 X-1.62 Y-1.01 E0.58360
G1 X-1.61 Y-1.28 E0.58386
G1 X-1.39 Y-1.15 E0.58410
G1 X-0.21 Y-1.15 E0.58521
G1 X0.38 Y-0.14 E0.58631
G1 X0.61 Y0.00 E0.58657
G1 X0.37 Y0.15 E0.58684
G0 X0.15 Y-0.03
;LAYER:56
G0 X0.33 Y-0.21 Z3.42
;TYPE:WALL-OUTER
G1 X0.70 Y-0.00 E0.58724
G1 X0.32 Y0.22 E0.58765
G1 X-0.21 Y1.15 E0.58865
G1 X-1.28 Y1.15 E0.58966
G1 X-1.66 Y1.37 E0.59007
G1 X-1.66 Y0.92 E0.59050
G1 X-2.20 Y0.00 E0.59150
G1 X-1.66 Y-0.94 E0.59252
G1 X-1.66 Y-1.35 E0.59291
G1 X-1.31 Y-1.15 E0.59329
G1 X-0.21 Y-1.15 E0.59432
G1 X0.33 Y-0.21 E0.59534
G0 X0.21 Y-0.01
;LAYER:57
G0 X0.29 Y-0.28 Z3.48
;TYPE:WALL-OUTER
G1 X0.78 Y0.00 E0.59587
G1 X0.28 Y0.29 E0.59642
G1 X-0.21 Y1.15 E0.59735
G1 X-1.19 Y1.15 E0.59827
G1 X-1.70 Y1.45 E0.59882
G1 X-1.71 Y0.85 E0.59939
G1 X-2.20 Y0.00 E0.60031
G1 X-1.70 Y-0.86 E0.60125
G1 X-1.70 Y-1.43 E0.60178
G1 X-1.22 Y-1.15 E0.60230
G1 X-0.21 Y-1.15 E0.60324
G1 X0.29 Y-0.28 E0.60419
G0 X0.17 Y-0.07
;LAYER:58
G0 X0.25 Y-0.36 Z3.54
;TYPE:WALL-OUTER
G1 X0.87 Y-0.00 E0.60486
G1 X0.24 Y0.37 E0.60555
G1 X-0.21 Y1.15 E0.60640
G1 X-1.11 Y1.15 E0.60724
G1 X-1.74 Y1.52 E0.60793
G1 X-1.75 Y0.77 E0.60863
G1 X-2.20 Y0.00 E0.60948
G1 X-1.75 Y-0.79 E0.61033
G1 X-1.74 Y-1.50 E0.61100
G1 X-1.14 Y-1.15 E0.61166
G1 X-0.21 Y-1.15 E0.61253
G1 X0.25 Y-0.36 E0.61339
G0 X0.13 Y-0.14
;LAYER:59
G0 X0.21 Y-0.43 Z3.60
;TYPE:WALL-OUTER
G1 X0.96 Y-0.00 E0.61420
G1 X0.20 Y0.44 E0.61503
G1 X-0.21 Y1.15 E0.61580
G1 X-1.02 Y1.15 E0.61656
G1 X-1.78 Y1.60 E0.61739
G1 X-1.79 Y0.70 E0.61823
G1 X-2.20 Y0.00 E0.61899
G1 X-1.79 Y-0.71 E0.61977
G1 X-1.79 Y-1.57 E0.62058
G1 X-1.05 Y-1.15 E0.62138
G1 X-0.21 Y-1.15 E0.62217
G1 X0.21 Y-0.43 E0.62295
G0 X0.08 Y-0.21
;LAYER:60
G0 X0.16 Y-0.50 Z3.66
;TYPE:WALL-OUTER
G1 X1.04 Y-0.00 E0.62390
G1 X0.15 Y0.52 E0.62487
G1 X-0.21 Y1.15 E0.62555
