;Generated with Cura_SteamEngine 13.11.2


;Layer count: 707
;LAYER:0
M107
G0 F6000 X4.58 Y-0.82 Z0.06
;TYPE:SKIRT
G1 F6000 E0.00000
G1 X4.58 Y0.82 E0.00154
G1 X1.68 Y5.83 E0.00698
G1 X0.27 Y6.65 E0.00852
G1 X-5.52 Y6.65 E0.01397
G1 X-6.93 Y5.83 E0.01550
G1 X-9.83 Y0.82 E0.02095
G1 X-9.83 Y-0.82 E0.02248
G1 X-6.93 Y-5.83 E0.02793
G1 X-5.52 Y-6.65 E0.02947
G1 X0.29 Y-6.65 E0.03493
G1 X1.73 Y-5.79 E0.03651
G1 X2.13 Y-5.07 E0.03729
G1 X4.58 Y-0.82 E0.04190
G0 X4.68 Y-0.84
G1 X4.68 Y0.84 E0.04349
G1 X1.76 Y5.90 E0.04898
G1 X0.30 Y6.75 E0.05057
G1 X-5.55 Y6.75 E0.05607
G1 X-7.01 Y5.90 E0.05765
G1 X-9.93 Y0.84 E0.06315
G1 X-9.93 Y-0.84 E0.06474
G1 X-7.01 Y-5.90 E0.07023
G1 X-5.55 Y-6.75 E0.07182
G1 X0.32 Y-6.75 E0.07734
G1 X1.80 Y-5.86 E0.07896
G1 X2.19 Y-5.16 E0.07972
G1 X4.68 Y-0.84 E0.08441
G0 X4.78 Y-0.87
G1 X4.78 Y0.87 E0.08604
G1 X1.83 Y5.98 E0.09159
G1 X0.32 Y6.85 E0.09323
G1 X-5.57 Y6.85 E0.09878
G1 X-7.08 Y5.98 E0.10041
G1 X-10.03 Y0.87 E0.10596
G1 X-10.03 Y-0.87 E0.10760
G1 X-7.08 Y-5.98 E0.11315
G1 X-5.57 Y-6.85 E0.11478
G1 X0.34 Y-6.85 E0.12035
G1 X1.88 Y-5.94 E0.12203
G1 X2.30 Y-5.17 E0.12285
G1 X4.78 Y-0.87 E0.12752
G0 X4.88 Y-0.90
G1 X4.88 Y0.90 E0.12921
G1 X1.90 Y6.05 E0.13480
G1 X0.35 Y6.95 E0.13649
G1 X-5.60 Y6.95 E0.14209
G1 X-7.16 Y6.05 E0.14378
G1 X-10.13 Y0.90 E0.14938
G1 X-10.13 Y-0.90 E0.15106
G1 X-7.16 Y-6.05 E0.15666
G1 X-5.60 Y-6.95 E0.15835
G1 X0.37 Y-6.95 E0.16397
G1 X1.95 Y-6.01 E0.16570
G1 X2.38 Y-5.22 E0.16654
G1 X4.88 Y-0.90 E0.17124
G0 X1.32 Y0.04
G0 X1.32 Y-0.04
G0 X1.47 Y0.00
;TYPE:WALL-OUTER
G1 X-0.58 Y3.55 E0.17509
G1 X-4.67 Y3.55 E0.17895
G1 X-6.72 Y0.00 E0.18280
G1 X-4.67 Y-3.55 E0.18666
G1 X-0.58 Y-3.55 E0.19051
G1 X1.47 Y0.00 E0.19436
G0 X1.16 Y-0.05
;LAYER:1
G0 X1.47 Y0.00 Z0.12
;TYPE:WALL-OUTER
G1 X-0.58 Y3.55 E0.19822
G1 X-4.67 Y3.55 E0.20207
G1 X-6.72 Y0.00 E0.20593
G1 X-4.67 Y-3.55 E0.20978
G1 X-0.57 Y-3.55 E0.21364
G1 X-0.57 Y-3.54 E0.21365
G1 X1.47 Y0.00 E0.21749
G0 X1.16 Y-0.05
;LAYER:2
G0 X1.47 Y0.00 Z0.18
;TYPE:WALL-OUTER
G1 X-0.58 Y3.55 E0.22135
G1 X-4.67 Y3.55 E0.22520
G1 X-6.72 Y0.00 E0.22906
G1 X-4.67 Y-3.55 E0.23291
G1 X-0.58 Y-3.55 E0.23677
G1 X-0.56 Y-3.52 E0.23680
G1 X1.47 Y0.00 E0.24062
G0 X1.16 Y-0.05
;LAYER:3
G0 X1.47 Y0.00 Z0.24
;TYPE:WALL-OUTER
G1 X-0.58 Y3.55 E0.24447
G1 X-4.67 Y3.55 E0.24833
G1 X-6.72 Y0.00 E0.25218
G1 X-4.67 Y-3.55 E0.25604
G1 X-0.58 Y-3.55 E0.25989
G1 X-0.54 Y-3.49 E0.25995
G1 X1.47 Y0.00 E0.26375
G0 X1.16 Y-0.05
;LAYER:4
G0 X1.47 Y0.00 Z0.30
;TYPE:WALL-OUTER
G1 X-0.58 Y3.55 E0.26760
G1 X-4.67 Y3.55 E0.27146
G1 X-6.72 Y0.00 E0.27531
G1 X-4.67 Y-3.55 E0.27917
G1 X-0.58 Y-3.55 E0.28302
G1 X-0.53 Y-3.47 E0.28310
G1 X1.47 Y0.00 E0.28688
G0 X1.16 Y-0.05
;LAYER:5
G0 X1.47 Y0.00 Z0.36
;TYPE:WALL-OUTER
G1 X-0.58 Y3.55 E0.29073
G1 X-4.67 Y3.55 E0.29458
G1 X-6.72 Y0.00 E0.29844
G1 X-4.67 Y-3.55 E0.30229
G1 X-0.58 Y-3.55 E0.30615
G1 X-0.52 Y-3.45 E0.30626
G1 X1.47 Y0.00 E0.31000
G0 X1.16 Y-0.05
;LAYER:6
G0 X1.47 Y0.00 Z0.42
;TYPE:WALL-OUTER
G1 X-0.58 Y3.55 E0.31386
G1 X-4.67 Y3.55 E0.31771
G1 X-6.72 Y0.00 E0.32157
G1 X-4.67 Y-3.55 E0.32542
G1 X-0.58 Y-3.55 E0.32928
G1 X-0.50 Y-3.43 E0.32941
G1 X1.47 Y0.00 E0.33313
G0 X1.16 Y-0.05
;LAYER:7
G0 X1.47 Y0.00 Z0.48
;TYPE:WALL-OUTER
G1 X-0.58 Y3.55 E0.33699
G1 X-4.67 Y3.55 E0.34084
G1 X-6.72 Y0.00 E0.34469
G1 X-4.67 Y-3.55 E0.34855
G1 X-0.58 Y-3.55 E0.35240
G1 X-0.49 Y-3.40 E0.35256
G1 X1.47 Y0.00 E0.35626
G0 X1.16 Y-0.05
;LAYER:8
G0 X1.47 Y0.00 Z0.54
;TYPE:WALL-OUTER
G1 X-0.58 Y3.55 E0.36011
G1 X-4.67 Y3.55 E0.36397
G1 X-6.72 Y0.00 E0.36782
G1 X-4.67 Y-3.55 E0.37168
G1 X-0.58 Y-3.55 E0.37553
G1 X-0.48 Y-3.38 E0.37571
G1 X1.47 Y0.00 E0.37939
G0 X1.16 Y-0.05
;LAYER:9
G0 X1.47 Y0.00 Z0.60
;TYPE:WALL-OUTER
G1 X-0.58 Y3.55 E0.38324
G1 X-4.67 Y3.55 E0.38710
G1 X-6.72 Y0.00 E0.39095
G1 X-4.67 Y-3.55 E0.39480
G1 X-0.58 Y-3.55 E0.39866
G1 X-0.47 Y-3.36 E0.39887
G1 X1.47 Y0.00 E0.40251
G0 X1.16 Y-0.05
;LAYER:10
G0 X1.47 Y0.00 Z0.66
;TYPE:WALL-OUTER
G1 X-0.58 Y3.55 E0.40637
G1 X-4.67 Y3.55 E0.41022
G1 X-6.72 Y0.00 E0.41408
G1 X-4.67 Y-3.55 E0.41793
G1 X-0.58 Y-3.55 E0.42179
G1 X-0.45 Y-3.34 E0.42202
G1 X1.47 Y0.00 E0.42564
G0 X1.16 Y-0.05
;LAYER:11
G0 X1.47 Y0.00 Z0.72
;TYPE:WALL-OUTER
G1 X-0.58 Y3.55 E0.42950
G1 X-4.67 Y3.55 E0.43335
G1 X-6.72 Y0.00 E0.43721
G1 X-4.67 Y-3.55 E0.44106
G1 X-0.58 Y-3.55 E0.44491
G1 X-0.44 Y-3.31 E0.44517
G1 X1.47 Y0.00 E0.44877
G0 X1.16 Y-0.05
;LAYER:12
G0 X1.47 Y0.00 Z0.78
;TYPE:WALL-OUTER
G1 X-0.58 Y3.55 E0.45262
G1 X-4.67 Y3.55 E0.45648
G1 X-6.72 Y0.00 E0.46033
G1 X-4.67 Y-3.55 E0.46419
G1 X-0.58 Y-3.55 E0.46804
G1 X-0.43 Y-3.29 E0.46832
G1 X1.47 Y0.00 E0.47190
G0 X1.16 Y-0.05
;LAYER:13
G0 X1.47 Y0.00 Z0.84
;TYPE:WALL-OUTER
G1 X-0.58 Y3.55 E0.47575
G1 X-4.67 Y3.55 E0.47961
G1 X-6.72 Y0.00 E0.48346
G1 X-4.67 Y-3.55 E0.48732
G1 X-0.58 Y-3.55 E0.49117
G1 X1.47 Y0.00 E0.49502
G0 X1.16 Y-0.05
;LAYER:14
G0 X1.47 Y0.00 Z0.90
;TYPE:WALL-OUTER
G1 X-0.58 Y3.55 E0.49888
G1 X-4.67 Y3.55 E0.50273
G1 X-6.72 Y0.00 E0.50659
G1 X-4.67 Y-3.55 E0.51044
G1 X-0.58 Y-3.55 E0.51430
G1 X1.47 Y0.00 E0.51815
G0 X1.16 Y-0.05
;LAYER:15
G0 X1.47 Y0.00 Z0.96
;TYPE:WALL-OUTER
G1 X-0.58 Y3.55 E0.52201
G1 X-4.67 Y3.55 E0.52586
G1 X-6.72 Y0.00 E0.52972
G1 X-4.67 Y-3.55 E0.53357
G1 X-0.58 Y-3.55 E0.53743
G1 X-0.39 Y-3.22 E0.53778
G1 X1.47 Y0.00 E0.54128
G0 X1.16 Y-0.05
;LAYER:16
G0 X1.47 Y0.00 Z1.02
;TYPE:WALL-OUTER
G1 X-0.58 Y3.55 E0.54513
G1 X-4.67 Y3.55 E0.54899
G1 X-6.72 Y0.00 E0.55284
G1 X-4.67 Y-3.55 E0.55670
G1 X-0.58 Y-3.55 E0.56055
G1 X1.47 Y0.00 E0.56441
G0 X1.16 Y-0.05
;LAYER:17
G0 X1.47 Y0.00 Z1.08
;TYPE:WALL-OUTER
G1 X-0.58 Y3.55 E0.56826
G1 X-4.67 Y3.55 E0.57212
G1 X-6.72 Y0.00 E0.57597
G1 X-4.67 Y-3.55 E0.57983
G1 X-0.58 Y-3.55 E0.58368
G1 X-0.36 Y-3.18 E0.58408
G1 X1.47 Y0.00 E0.58754
G0 X1.16 Y-0.05
;LAYER:18
G0 X1.47 Y0.00 Z1.14
;TYPE:WALL-OUTER
G1 X-0.58 Y3.55 E0.59139
G1 X-4.67 Y3.55 E0.59524
G1 X-6.72 Y0.00 E0.59910
G1 X-4.67 Y-3.55 E0.60295
G1 X-0.58 Y-3.55 E0.60681
G1 X1.47 Y0.00 E0.61066
G0 X1.16 Y-0.05
;LAYER:19
G0 X1.47 Y0.00 Z1.20
;TYPE:WALL-OUTER
G1 X-0.58 Y3.55 E0.61452
G1 X-4.67 Y3.55 E0.61837
G1 X-6.72 Y0.00 E0.62223
G1 X-4.67 Y-3.55 E0.62608
G1 X-0.58 Y-3.55 E0.62994
G1 X-0.34 Y-3.13 E0.63039
G1 X1.47 Y0.00 E0.63379
G0 X1.16 Y-0.05
;LAYER:20
G0 X1.47 Y0.00 Z1.26
;TYPE:WALL-OUTER
G1 X-0.58 Y3.55 E0.63765
G1 X-4.67 Y3.55 E0.64150
G1 X-6.72 Y0.00 E0.64535
G1 X-4.68 Y-3.55 E0.64920
G1 X-0.58 Y-3.55 E0.65306
G1 X-0.32 Y-3.11 E0.65354
G1 X1.47 Y0.00 E0.65692
G0 X1.16 Y-0.05
;LAYER:21
G0 X1.47 Y0.00 Z1.32
;TYPE:WALL-OUTER
G1 X-0.58 Y3.55 E0.66077
G1 X-4.67 Y3.55 E0.66463
G1 X-6.72 Y0.00 E0.66848
G1 X-4.68 Y-3.55 E0.67233
G1 X-0.58 Y-3.55 E0.67619
G1 X-0.31 Y-3.09 E0.67669
G1 X1.47 Y0.00 E0.68004
G0 X1.16 Y-0.05
;LAYER:22
G0 X1.47 Y0.00 Z1.38
;TYPE:WALL-OUTER
G1 X-0.58 Y3.55 E0.68390
G1 X-4.67 Y3.55 E0.68775
G1 X-6.72 Y0.00 E0.69161
G1 X-4.67 Y-3.55 E0.69546
G1 X-0.58 Y-3.55 E0.69932
G1 X-0.30 Y-3.07 E0.69984
G1 X1.47 Y0.00 E0.70317
G0 X1.16 Y-0.05
;LAYER:23
G0 X1.47 Y0.00 Z1.44
;TYPE:WALL-OUTER
G1 X-0.58 Y3.55 E0.70702
G1 X-4.67 Y3.55 E0.71088
G1 X-6.72 Y0.00 E0.71473
G1 X-4.67 Y-3.55 E0.71859
G1 X-0.58 Y-3.55 E0.72244
G1 X-0.28 Y-3.04 E0.72299
G1 X1.47 Y0.00 E0.72630
G0 X1.16 Y-0.05
;LAYER:24
G0 X1.47 Y0.00 Z1.50
;TYPE:WALL-OUTER
G1 X-0.58 Y3.55 E0.73015
G1 X-4.67 Y3.55 E0.73401
G1 X-6.72 Y0.00 E0.73786
G1 X-4.67 Y-3.55 E0.74172
G1 X-0.58 Y-3.55 E0.74557
G1 X-0.27 Y-3.02 E0.74615
G1 X1.47 Y0.00 E0.74943
G0 X1.16 Y-0.05
;LAYER:25
G0 X1.47 Y0.00 Z1.56
;TYPE:WALL-OUTER
G1 X-0.58 Y3.55 E0.75328
G1 X-4.67 Y3.55 E0.75713
G1 X-6.72 Y0.00 E0.76099
G1 X-4.67 Y-3.55 E0.76484
G1 X-0.58 Y-3.55 E0.76870
G1 X1.47 Y0.00 E0.77255
G0 X1.16 Y-0.05
;LAYER:26
G0 X1.47 Y0.00 Z1.62
;TYPE:WALL-OUTER
G1 X-0.58 Y3.55 E0.77641
G1 X-4.67 Y3.55 E0.78026
G1 X-6.72 Y0.00 E0.78412
G1 X-4.67 Y-3.55 E0.78797
G1 X-0.58 Y-3.55 E0.79183
G1 X-0.24 Y-2.97 E0.79245
G1 X1.47 Y0.00 E0.79568
G0 X1.16 Y-0.05
;LAYER:27
G0 X1.47 Y0.00 Z1.68
;TYPE:WALL-OUTER
G1 X-0.58 Y3.55 E0.79954
G1 X-4.67 Y3.55 E0.80339
G1 X-6.72 Y0.00 E0.80724
G1 X-4.67 Y-3.55 E0.81110
G1 X-0.58 Y-3.55 E0.81495
G1 X-0.23 Y-2.95 E0.81560
G1 X1.47 Y0.00 E0.81881
G0 X1.16 Y-0.05
;LAYER:28
G0 X1.47 Y0.00 Z1.74
;TYPE:WALL-OUTER
G1 X-0.58 Y3.55 E0.82266
G1 X-4.67 Y3.55 E0.82652
G1 X-6.72 Y0.00 E0.83037
G1 X-4.67 Y-3.55 E0.83423
G1 X-0.58 Y-3.55 E0.83808
G1 X-0.22 Y-2.93 E0.83875
G1 X1.47 Y0.00 E0.84194
G0 X1.16 Y-0.05
;LAYER:29
G0 X1.47 Y0.00 Z1.80
;TYPE:WALL-OUTER
G1 X-0.58 Y3.55 E0.84579
G1 X-4.67 Y3.55 E0.84964
G1 X-6.72 Y0.00 E0.85350
G1 X-4.67 Y-3.55 E0.85735
G1 X-0.58 Y-3.55 E0.86121
G1 X-0.20 Y-2.91 E0.86191
G1 X1.47 Y0.00 E0.86506
G0 X1.16 Y-0.05
;LAYER:30
G0 X1.47 Y0.00 Z1.86
;TYPE:WALL-OUTER
G1 X-0.58 Y3.55 E0.86892
G1 X-4.67 Y3.55 E0.87277
G1 X-6.72 Y0.00 E0.87663
G1 X-4.67 Y-3.55 E0.88048
G1 X-0.58 Y-3.55 E0.88434
G1 X-0.19 Y-2.88 E0.88506
G1 X1.47 Y0.00 E0.88819
G0 X1.16 Y-0.05
;LAYER:31
G0 X1.47 Y0.00 Z1.92
;TYPE:WALL-OUTER
G1 X-0.58 Y3.55 E0.89205
G1 X-4.67 Y3.55 E0.89590
G1 X-6.72 Y0.00 E0.89976
G1 X-4.67 Y-3.55 E0.90361
G1 X-0.58 Y-3.55 E0.90746
G1 X-0.18 Y-2.86 E0.90821
G1 X1.47 Y0.00 E0.91132
G0 X1.16 Y-0.05
;LAYER:32
G0 X1.47 Y0.00 Z1.98
;TYPE:WALL-OUTER
G1 X-0.58 Y3.55 E0.91517
G1 X-4.67 Y3.55 E0.91903
G1 X-6.72 Y0.00 E0.92288
G1 X-4.67 Y-3.55 E0.92674
G1 X-0.58 Y-3.55 E0.93059
G1 X-0.17 Y-2.84 E0.93136
G1 X1.47 Y0.00 E0.93445
G0 X1.16 Y-0.05
;LAYER:33
G0 X1.47 Y0.00 Z2.04
;TYPE:WALL-OUTER
G1 X-0.58 Y3.55 E0.93830
G1 X-4.67 Y3.55 E0.94216
G1 X-6.72 Y0.00 E0.94601
G1 X-4.67 Y-3.55 E0.94987
G1 X-0.58 Y-3.55 E0.95372
G1 X1.47 Y0.00 E0.95757
G0 X1.16 Y-0.05
;LAYER:34
G0 X1.47 Y0.00 Z2.10
;TYPE:WALL-OUTER
G1 X-0.58 Y3.55 E0.96143
G1 X-4.67 Y3.55 E0.96528
G1 X-6.72 Y0.00 E0.96914
G1 X-4.67 Y-3.55 E0.97299
G1 X-0.58 Y-3.55 E0.97685
G1 X-0.14 Y-2.79 E0.97767
G1 X1.47 Y0.00 E0.98070
G0 X1.16 Y-0.05
;LAYER:35
G0 X1.47 Y0.00 Z2.16
;TYPE:WALL-OUTER
G1 X-0.58 Y3.55 E0.98456
G1 X-4.67 Y3.55 E0.98841
G1 X-6.72 Y0.00 E0.99227
G1 X-4.67 Y-3.55 E0.99612
G1 X-0.58 Y-3.55 E0.99997
G1 X1.47 Y0.00 E1.00383
G0 X1.16 Y-0.05
;LAYER:36
G0 X1.47 Y0.00 Z2.22
;TYPE:WALL-OUTER
G1 X-0.58 Y3.55 E1.00768
G1 X-4.67 Y3.55 E1.01154
G1 X-6.72 Y0.00 E1.01539
G1 X-4.67 Y-3.55 E1.01925
G1 X-0.58 Y-3.55 E1.02310
G1 X-0.11 Y-2.75 E1.02397
G1 X1.47 Y0.00 E1.02696
G0 X1.16 Y-0.05
;LAYER:37
G0 X1.47 Y0.00 Z2.28
;TYPE:WALL-OUTER
G1 X-0.58 Y3.55 E1.03081
G1 X-4.67 Y3.55 E1.03467
G1 X-6.72 Y0.00 E1.03852
G1 X-4.67 Y-3.55 E1.04238
G1 X-0.58 Y-3.55 E1.04623
G1 X1.47 Y0.00 E1.05008
G0 X1.16 Y-0.05
;LAYER:38
G0 X1.47 Y0.00 Z2.34
;TYPE:WALL-OUTER
G1 X-0.58 Y3.55 E1.05394
G1 X-4.67 Y3.55 E1.05779
G1 X-6.72 Y0.00 E1.06165
G1 X-4.67 Y-3.55 E1.06550
G1 X-0.58 Y-3.55 E1.06936
G1 X1.47 Y0.00 E1.07321
G0 X1.16 Y-0.05
;LAYER:39
G0 X1.47 Y0.00 Z2.40
;TYPE:WALL-OUTER
G1 X-0.58 Y3.55 E1.07707
G1 X-4.67 Y3.55 E1.08092
G1 X-6.72 Y0.00 E1.08478
G1 X-4.67 Y-3.55 E1.08863
G1 X-0.58 Y-3.55 E1.09249
G1 X-0.08 Y-2.68 E1.09343
G1 X1.47 Y0.00 E1.09634
G0 X1.16 Y-0.05
;LAYER:40
G0 X1.47 Y0.00 Z2.46
;TYPE:WALL-OUTER
G1 X-0.58 Y3.55 E1.10020
G1 X-4.67 Y3.55 E1.10405
G1 X-6.72 Y0.00 E1.10790
G1 X-4.67 Y-3.55 E1.11176
G1 X-0.58 Y-3.55 E1.11561
G1 X1.47 Y0.00 E1.11947
G0 X1.16 Y-0.05
;LAYER:41
G0 X1.47 Y0.00 Z2.52
;TYPE:WALL-OUTER
G1 X-0.58 Y3.55 E1.12332
G1 X-4.67 Y3.55 E1.12718
G1 X-6.72 Y0.00 E1.13103
G1 X-4.67 Y-3.55 E1.13489
G1 X-0.58 Y-3.55 E1.13874
G1 X-0.05 Y-2.64 E1.13973
G1 X1.47 Y0.00 E1.14260
G0 X1.16 Y-0.05
;LAYER:42
G0 X1.47 Y0.00 Z2.58
;TYPE:WALL-OUTER
G1 X-0.58 Y3.55 E1.14645
G1 X-4.67 Y3.55 E1.15030
G1 X-6.72 Y0.00 E1.15416
G1 X-4.67 Y-3.55 E1.15801
G1 X-0.58 Y-3.55 E1.16187
G1 X1.47 Y0.00 E1.16572
G0 X1.16 Y-0.05
;LAYER:43
G0 X1.47 Y0.00 Z2.64
;TYPE:WALL-OUTER
G1 X-0.58 Y3.55 E1.16958
G1 X-4.67 Y3.55 E1.17343
G1 X-6.72 Y0.00 E1.17729
G1 X-4.67 Y-3.55 E1.18114
G1 X-0.58 Y-3.55 E1.18500
G1 X1.47 Y0.00 E1.18885
G0 X1.16 Y-0.05
;LAYER:44
G0 X1.47 Y0.00 Z2.70
;TYPE:WALL-OUTER
G1 X-0.58 Y3.55 E1.19271
G1 X-4.67 Y3.55 E1.19656
G1 X-6.72 Y0.00 E1.20041
G1 X-4.67 Y-3.55 E1.20427
G1 X-0.58 Y-3.55 E1.20812
G1 X-0.01 Y-2.57 E1.20919
G1 X1.47 Y0.00 E1.21198
G0 X1.16 Y-0.05
;LAYER:45
G0 X1.47 Y0.00 Z2.76
;TYPE:WALL-OUTER
G1 X-0.58 Y3.55 E1.21583
G1 X-4.67 Y3.55 E1.21969
G1 X-6.72 Y0.00 E1.22354
G1 X-4.67 Y-3.55 E1.22740
G1 X-0.58 Y-3.55 E1.23125
G1 X1.47 Y0.00 E1.23511
G0 X1.16 Y-0.05
;LAYER:46
G0 X1.47 Y0.00 Z2.82
;TYPE:WALL-OUTER
G1 X-0.58 Y3.55 E1.23896
G1 X-4.67 Y3.55 E1.24282
G1 X-6.72 Y0.00 E1.24667
G1 X-4.67 Y-3.55 E1.25052
G1 X-0.58 Y-3.55 E1.25438
G1 X0.02 Y-2.52 E1.25549
G1 X1.47 Y0.00 E1.25823
G0 X1.16 Y-0.05
;LAYER:47
G0 X1.47 Y0.00 Z2.88
;TYPE:WALL-OUTER
G1 X-0.58 Y3.55 E1.26209
G1 X-4.67 Y3.55 E1.26594
G1 X-6.72 Y0.00 E1.26980
G1 X-4.67 Y-3.55 E1.27365
G1 X-0.58 Y-3.55 E1.27751
G1 X1.47 Y0.00 E1.28136
G0 X1.16 Y-0.05
;LAYER:48
G0 X1.47 Y0.00 Z2.94
;TYPE:WALL-OUTER
G1 X-0.58 Y3.55 E1.28522
G1 X-4.67 Y3.55 E1.28907
G1 X-6.72 Y0.00 E1.29293
G1 X-4.67 Y-3.55 E1.29678
G1 X-0.58 Y-3.55 E1.30063
G1 X0.04 Y-2.48 E1.30180
G1 X1.47 Y0.00 E1.30449
G0 X1.16 Y-0.05
;LAYER:49
G0 X1.47 Y0.00 Z3.00
;TYPE:WALL-OUTER
G1 X-0.58 Y3.55 E1.30834
G1 X-4.67 Y3.55 E1.31220
G1 X-6.72 Y0.00 E1.31605
G1 X-4.67 Y-3.55 E1.31991
G1 X-0.58 Y-3.55 E1.32376
G1 X0.05 Y-2.45 E1.32495
G1 X1.47 Y0.00 E1.32762
G0 X1.16 Y-0.05
;LAYER:50
G0 X1.47 Y0.00 Z3.06
;TYPE:WALL-OUTER
G1 X-0.58 Y3.55 E1.33147
G1 X-4.67 Y3.55 E1.33533
G1 X-6.72 Y0.00 E1.33918
G1 X-4.67 Y-3.55 E1.34304
G1 X-0.58 Y-3.55 E1.34689
G1 X0.07 Y-2.43 E1.34810
G1 X1.47 Y0.00 E1.35074
G0 X1.16 Y-0.05
;LAYER:51
G0 X1.47 Y0.00 Z3.12
;TYPE:WALL-OUTER
G1 X-0.58 Y3.55 E1.35460
G1 X-4.67 Y3.55 E1.35845
G1 X-6.72 Y0.00 E1.36231
G1 X-4.67 Y-3.55 E1.36616
G1 X-0.58 Y-3.55 E1.37002
G1 X0.08 Y-2.41 E1.37125
G1 X1.47 Y0.00 E1.37387
G0 X1.16 Y-0.05
;LAYER:52
G0 X1.47 Y0.00 Z3.18
;TYPE:WALL-OUTER
G1 X-0.58 Y3.55 E1.37773
G1 X-4.67 Y3.55 E1.38158
G1 X-6.72 Y0.00 E1.38544
G1 X-4.67 Y-3.55 E1.38929
G1 X-0.58 Y-3.55 E1.39315
G1 X1.47 Y0.00 E1.39700
G0 X1.16 Y-0.05
;LAYER:53
G0 X1.47 Y0.00 Z3.24
;TYPE:WALL-OUTER
G1 X-0.58 Y3.55 E1.40085
G1 X-4.67 Y3.55 E1.40471
G1 X-6.72 Y0.00 E1.40856
G1 X-4.67 Y-3.55 E1.41242
G1 X-0.58 Y-3.55 E1.41627
G1 X1.47 Y0.00 E1.42013
G0 X1.16 Y-0.05
;LAYER:54
G0 X1.47 Y0.00 Z3.30
;TYPE:WALL-OUTER
G1 X-0.58 Y3.55 E1.42398
G1 X-4.67 Y3.55 E1.42784
G1 X-6.72 Y0.00 E1.43169
G1 X-4.67 Y-3.55 E1.43555
G1 X-0.58 Y-3.55 E1.43940
G1 X1.47 Y0.00 E1.44326
G0 X1.16 Y-0.05
;LAYER:55
G0 X1.47 Y0.00 Z3.36
;TYPE:WALL-OUTER
G1 X-0.58 Y3.55 E1.44711
G1 X-4.67 Y3.55 E1.45096
G1 X-6.72 Y0.00 E1.45482
G1 X-4.67 Y-3.55 E1.45867
G1 X-0.58 Y-3.55 E1.46253
G1 X1.47 Y0.00 E1.46638
G0 X1.16 Y-0.05
;LAYER:56
G0 X1.47 Y0.00 Z3.42
;TYPE:WALL-OUTER
G1 X-0.58 Y3.55 E1.47024
G1 X-4.67 Y3.55 E1.47409
G1 X-6.72 Y0.00 E1.47795
G1 X-4.67 Y-3.55 E1.48180
G1 X-0.58 Y-3.55 E1.48566
G1 X0.15 Y-2.30 E1.48702
G1 X1.47 Y0.00 E1.48951
G0 X1.16 Y-0.05
;LAYER:57
G0 X1.47 Y0.00 Z3.48
;TYPE:WALL-OUTER
G1 X-0.58 Y3.55 E1.49337
G1 X-4.67 Y3.55 E1.49722
G1 X-6.72 Y0.00 E1.50107
G1 X-4.67 Y-3.55 E1.50493
G1 X-0.58 Y-3.55 E1.50878
G1 X1.47 Y0.00 E1.51264
G0 X1.16 Y-0.05
;LAYER:58
G0 X1.47 Y0.00 Z3.54
;TYPE:WALL-OUTER
G1 X-0.58 Y3.55 E1.51649
G1 X-4.67 Y3.55 E1.52035
G1 X-6.72 Y0.00 E1.52420
G1 X-4.67 Y-3.55 E1.52806
G1 X-0.58 Y-3.55 E1.53191
G1 X1.47 Y0.00 E1.53577
G0 X1.16 Y-0.05
;LAYER:59
G0 X1.47 Y0.00 Z3.60
;TYPE:WALL-OUTER
G1 X-0.58 Y3.55 E1.53962
G1 X-4.67 Y3.55 E1.54348
G1 X-6.72 Y0.00 E1.54733
G1 X-4.67 Y-3.55 E1.55118
G1 X-0.58 Y-3.55 E1.55504
G1 X1.47 Y0.00 E1.55889
G0 X1.16 Y-0.05
;LAYER:60
G0 X1.47 Y0.00 Z3.66
;TYPE:WALL-OUTER
G1 X-0.58 Y3.55 E1.56275
G1 X-4.67 Y3.55 E1.56660
G1 X-6.72 Y0.00 E1.57046
G1 X-4.67 Y-3.55 E1.57431
G1 X-0.58 Y-3.55 E1.57817
G1 X1.47 Y0.00 E1.58202
G0 X1.16 Y-0.05
;LAYER:61
G0 X1.47 Y0.00 Z3.72
;TYPE:WALL-OUTER
G1 X-0.58 Y3.55 E1.58588
G1 X-4.67 Y3.55 E1.58973
G1 X-6.72 Y0.00 E1.59359
G1 X-4.67 Y-3.55 E1.59744
G1 X-0.58 Y-3.55 E1.60129
G1 X0.21 Y-2.18 E1.60278
G1 X1.47 Y0.00 E1.60515
G0 X1.16 Y-0.05
;LAYER:62
G0 X1.47 Y0.00 Z3.78
;TYPE:WALL-OUTER
G1 X-0.58 Y3.55 E1.60900
G1 X-4.67 Y3.55 E1.61286
G1 X-6.72 Y0.00 E1.61671
G1 X-4.67 Y-3.55 E1.62057
