;Generated with Cura_SteamEngine 13.11.2


;Layer count: 1414
;LAYER:0
M107
G0 F6000 X4.58 Y-0.82 Z0.03
;TYPE:SKIRT
G1 F6000 E0.00000
G1 X4.58 Y0.82 E0.00077
G1 X1.68 Y5.83 E0.00349
G1 X0.27 Y6.65 E0.00426
G1 X-5.52 Y6.65 E0.00698
G1 X-6.93 Y5.83 E0.00775
G1 X-9.83 Y0.82 E0.01047
G1 X-9.83 Y-0.82 E0.01124
G1 X-6.93 Y-5.83 E0.01397
G1 X-5.52 Y-6.65 E0.01473
G1 X0.27 Y-6.65 E0.01746
G1 X1.68 Y-5.83 E0.01823
G1 X4.58 Y-0.82 E0.02095
G0 X4.68 Y-0.84
G1 X4.68 Y0.84 E0.02174
G1 X1.76 Y5.90 E0.02449
G1 X0.30 Y6.75 E0.02528
G1 X-5.55 Y6.75 E0.02803
G1 X-7.01 Y5.90 E0.02883
G1 X-9.93 Y0.84 E0.03157
G1 X-9.93 Y-0.84 E0.03237
G1 X-7.01 Y-5.90 E0.03512
G1 X-5.55 Y-6.75 E0.03591
G1 X0.30 Y-6.75 E0.03866
G1 X1.76 Y-5.90 E0.03945
G1 X4.68 Y-0.84 E0.04220
G0 X4.78 Y-0.87
G1 X4.78 Y0.87 E0.04302
G1 X1.83 Y5.98 E0.04579
G1 X0.32 Y6.85 E0.04661
G1 X-5.57 Y6.85 E0.04938
G1 X-7.08 Y5.98 E0.05020
G1 X-10.03 Y0.87 E0.05298
G1 X-10.03 Y-0.87 E0.05379
G1 X-7.08 Y-5.98 E0.05657
G1 X-5.57 Y-6.85 E0.05739
G1 X0.32 Y-6.85 E0.06016
G1 X1.83 Y-5.98 E0.06098
G1 X4.78 Y-0.87 E0.06375
G0 X4.88 Y-0.90
G1 X4.88 Y0.90 E0.06460
G1 X1.90 Y6.05 E0.06739
G1 X0.35 Y6.95 E0.06824
G1 X-5.60 Y6.95 E0.07104
G1 X-7.16 Y6.05 E0.07188
G1 X-10.13 Y0.90 E0.07468
G1 X-10.13 Y-0.90 E0.07552
G1 X-7.16 Y-6.05 E0.07832
G1 X-5.60 Y-6.95 E0.07917
G1 X0.35 Y-6.95 E0.08197
G1 X1.90 Y-6.05 E0.08281
G1 X4.88 Y-0.90 E0.08561
G0 X1.32 Y0.04
G0 X1.32 Y-0.04
G0 X1.47 Y0.00
;TYPE:WALL-OUTER
G1 X-0.58 Y3.55 E0.08754
G1 X-4.67 Y3.55 E0.08946
G1 X-6.72 Y0.00 E0.09139
G1 X-4.67 Y-3.55 E0.09332
G1 X-0.58 Y-3.55 E0.09524
G1 X1.47 Y0.00 E0.09717
G0 X1.16 Y-0.05
;LAYER:1
G0 X1.47 Y0.00 Z0.06
;TYPE:WALL-OUTER
G1 X-0.58 Y3.55 E0.09910
G1 X-4.67 Y3.55 E0.10103
G1 X-6.72 Y0.00 E0.10295
G1 X-4.67 Y-3.55 E0.10488
G1 X-0.58 Y-3.55 E0.10681
G1 X1.47 Y0.00 E0.10874
G0 X1.16 Y-0.05
;LAYER:2
G0 X1.47 Y0.00 Z0.09
;TYPE:WALL-OUTER
G1 X-0.58 Y3.55 E0.11066
G1 X-4.67 Y3.55 E0.11259
G1 X-6.72 Y0.00 E0.11452
G1 X-4.67 Y-3.55 E0.11645
G1 X-0.57 Y-3.55 E0.11837
G1 X1.47 Y0.00 E0.12030
G0 X1.16 Y-0.05
;LAYER:3
G0 X1.47 Y0.00 Z0.12
;TYPE:WALL-OUTER
G1 X-0.58 Y3.55 E0.12223
G1 X-4.67 Y3.55 E0.12415
G1 X-6.72 Y0.00 E0.12608
G1 X-4.67 Y-3.55 E0.12801
G1 X-0.58 Y-3.55 E0.12994
G1 X-0.57 Y-3.53 E0.12994
G1 X1.47 Y0.00 E0.13186
G0 X1.16 Y-0.05
;LAYER:4
G0 X1.47 Y0.00 Z0.15
;TYPE:WALL-OUTER
G1 X-0.58 Y3.55 E0.13379
G1 X-4.67 Y3.55 E0.13572
G1 X-6.72 Y0.00 E0.13765
G1 X-4.67 Y-3.55 E0.13957
G1 X-0.57 Y-3.55 E0.14150
G1 X1.47 Y0.00 E0.14343
G0 X1.16 Y-0.05
;LAYER:5
G0 X1.47 Y0.00 Z0.18
;TYPE:WALL-OUTER
G1 X-0.58 Y3.55 E0.14535
G1 X-4.67 Y3.55 E0.14728
G1 X-6.72 Y0.00 E0.14921
G1 X-4.67 Y-3.55 E0.15114
G1 X-0.58 Y-3.55 E0.15306
G1 X-0.56 Y-3.51 E0.15308
G1 X1.47 Y0.00 E0.15499
G0 X1.16 Y-0.05
;LAYER:6
G0 X1.47 Y0.00 Z0.21
;TYPE:WALL-OUTER
G1 X-0.58 Y3.55 E0.15692
G1 X-4.67 Y3.55 E0.15885
G1 X-6.72 Y0.00 E0.16077
G1 X-4.67 Y-3.55 E0.16270
G1 X-0.57 Y-3.55 E0.16463
G1 X-0.55 Y-3.50 E0.16465
G1 X1.47 Y0.00 E0.16656
G0 X1.16 Y-0.05
;LAYER:7
G0 X1.47 Y0.00 Z0.24
;TYPE:WALL-OUTER
G1 X-0.58 Y3.55 E0.16848
G1 X-4.67 Y3.55 E0.17041
G1 X-6.72 Y0.00 E0.17234
G1 X-4.67 Y-3.55 E0.17426
G1 X-0.58 Y-3.55 E0.17619
G1 X-0.54 Y-3.49 E0.17622
G1 X1.47 Y0.00 E0.17812
G0 X1.16 Y-0.05
;LAYER:8
G0 X1.47 Y0.00 Z0.27
;TYPE:WALL-OUTER
G1 X-0.58 Y3.55 E0.18005
G1 X-4.67 Y3.55 E0.18197
G1 X-6.72 Y0.00 E0.18390
G1 X-4.67 Y-3.55 E0.18583
G1 X-0.58 Y-3.55 E0.18776
G1 X1.47 Y0.00 E0.18968
G0 X1.16 Y-0.05
;LAYER:9
G0 X1.47 Y0.00 Z0.30
;TYPE:WALL-OUTER
G1 X-0.58 Y3.55 E0.19161
G1 X-4.67 Y3.55 E0.19354
G1 X-6.72 Y0.00 E0.19546
G1 X-4.67 Y-3.55 E0.19739
G1 X-0.58 Y-3.55 E0.19932
G1 X-0.53 Y-3.47 E0.19936
G1 X1.47 Y0.00 E0.20125
G0 X1.16 Y-0.05
;LAYER:10
G0 X1.47 Y0.00 Z0.33
;TYPE:WALL-OUTER
G1 X-0.58 Y3.55 E0.20317
G1 X-4.67 Y3.55 E0.20510
G1 X-6.72 Y0.00 E0.20703
G1 X-4.67 Y-3.55 E0.20896
G1 X-0.58 Y-3.55 E0.21088
G1 X-0.52 Y-3.45 E0.21093
G1 X1.47 Y0.00 E0.21281
G0 X1.16 Y-0.05
;LAYER:11
G0 X1.47 Y0.00 Z0.36
;TYPE:WALL-OUTER
G1 X-0.58 Y3.55 E0.21474
G1 X-4.67 Y3.55 E0.21667
G1 X-6.72 Y0.00 E0.21859
G1 X-4.67 Y-3.55 E0.22052
G1 X-0.58 Y-3.55 E0.22245
G1 X-0.51 Y-3.44 E0.22250
G1 X1.47 Y0.00 E0.22437
G0 X1.16 Y-0.05
;LAYER:12
G0 X1.47 Y0.00 Z0.39
;TYPE:WALL-OUTER
G1 X-0.58 Y3.55 E0.22630
G1 X-4.67 Y3.55 E0.22823
G1 X-6.72 Y0.00 E0.23016
G1 X-4.67 Y-3.55 E0.23208
G1 X-0.58 Y-3.55 E0.23401
G1 X-0.51 Y-3.43 E0.23407
G1 X1.47 Y0.00 E0.23594
G0 X1.16 Y-0.05
;LAYER:13
G0 X1.47 Y0.00 Z0.42
;TYPE:WALL-OUTER
G1 X-0.58 Y3.55 E0.23787
G1 X-4.67 Y3.55 E0.23979
G1 X-6.72 Y0.00 E0.24172
G1 X-4.67 Y-3.55 E0.24365
G1 X-0.58 Y-3.55 E0.24557
G1 X-0.50 Y-3.42 E0.24564
G1 X1.47 Y0.00 E0.24750
G0 X1.16 Y-0.05
;LAYER:14
G0 X1.47 Y0.00 Z0.45
;TYPE:WALL-OUTER
G1 X-0.58 Y3.55 E0.24943
G1 X-4.67 Y3.55 E0.25136
G1 X-6.72 Y0.00 E0.25328
G1 X-4.67 Y-3.55 E0.25521
G1 X-0.58 Y-3.55 E0.25714
G1 X-0.50 Y-3.41 E0.25721
G1 X1.47 Y0.00 E0.25907
G0 X1.16 Y-0.05
;LAYER:15
G0 X1.47 Y0.00 Z0.48
;TYPE:WALL-OUTER
G1 X-0.58 Y3.55 E0.26099
G1 X-4.67 Y3.55 E0.26292
G1 X-6.72 Y0.00 E0.26485
G1 X-4.67 Y-3.55 E0.26678
G1 X-0.58 Y-3.55 E0.26870
G1 X-0.49 Y-3.40 E0.26878
G1 X1.47 Y0.00 E0.27063
G0 X1.16 Y-0.05
;LAYER:16
G0 X1.47 Y0.00 Z0.51
;TYPE:WALL-OUTER
G1 X-0.58 Y3.55 E0.27256
G1 X-4.67 Y3.55 E0.27448
G1 X-6.72 Y0.00 E0.27641
G1 X-4.67 Y-3.55 E0.27834
G1 X-0.58 Y-3.55 E0.28027
G1 X-0.48 Y-3.39 E0.28035
G1 X1.47 Y0.00 E0.28219
G0 X1.16 Y-0.05
;LAYER:17
G0 X1.47 Y0.00 Z0.54
;TYPE:WALL-OUTER
G1 X-0.58 Y3.55 E0.28412
G1 X-4.67 Y3.55 E0.28605
G1 X-6.72 Y0.00 E0.28798
G1 X-4.67 Y-3.55 E0.28990
G1 X-0.58 Y-3.55 E0.29183
G1 X1.47 Y0.00 E0.29376
G0 X1.16 Y-0.05
;LAYER:18
G0 X1.47 Y0.00 Z0.57
;TYPE:WALL-OUTER
G1 X-0.58 Y3.55 E0.29568
G1 X-4.67 Y3.55 E0.29761
G1 X-6.72 Y0.00 E0.29954
G1 X-4.67 Y-3.55 E0.30147
G1 X-0.58 Y-3.55 E0.30339
G1 X-0.47 Y-3.37 E0.30349
G1 X1.47 Y0.00 E0.30532
G0 X1.16 Y-0.05
;LAYER:19
G0 X1.47 Y0.00 Z0.60
;TYPE:WALL-OUTER
G1 X-0.58 Y3.55 E0.30725
G1 X-4.67 Y3.55 E0.30918
G1 X-6.72 Y0.00 E0.31110
G1 X-4.67 Y-3.55 E0.31303
G1 X-0.58 Y-3.55 E0.31496
G1 X-0.46 Y-3.35 E0.31506
G1 X1.47 Y0.00 E0.31689
G0 X1.16 Y-0.05
;LAYER:20
G0 X1.47 Y0.00 Z0.63
;TYPE:WALL-OUTER
G1 X-0.58 Y3.55 E0.31881
G1 X-4.67 Y3.55 E0.32074
G1 X-6.72 Y0.00 E0.32267
G1 X-4.67 Y-3.55 E0.32459
G1 X-0.58 Y-3.55 E0.32652
G1 X-0.46 Y-3.34 E0.32663
G1 X1.47 Y0.00 E0.32845
G0 X1.16 Y-0.05
;LAYER:21
G0 X1.47 Y0.00 Z0.66
;TYPE:WALL-OUTER
G1 X-0.58 Y3.55 E0.33038
G1 X-4.67 Y3.55 E0.33230
G1 X-6.72 Y0.00 E0.33423
G1 X-4.67 Y-3.55 E0.33616
G1 X-0.58 Y-3.55 E0.33809
G1 X1.47 Y0.00 E0.34001
G0 X1.16 Y-0.05
;LAYER:22
G0 X1.47 Y0.00 Z0.69
;TYPE:WALL-OUTER
G1 X-0.58 Y3.55 E0.34194
G1 X-4.67 Y3.55 E0.34387
G1 X-6.72 Y0.00 E0.34579
G1 X-4.67 Y-3.55 E0.34772
G1 X-0.58 Y-3.55 E0.34965
G1 X-0.44 Y-3.32 E0.34977
G1 X1.47 Y0.00 E0.35158
G0 X1.16 Y-0.05
;LAYER:23
G0 X1.47 Y0.00 Z0.72
;TYPE:WALL-OUTER
G1 X-0.58 Y3.55 E0.35350
G1 X-4.67 Y3.55 E0.35543
G1 X-6.72 Y0.00 E0.35736
G1 X-4.67 Y-3.55 E0.35929
G1 X-0.58 Y-3.55 E0.36121
G1 X-0.44 Y-3.31 E0.36134
G1 X1.47 Y0.00 E0.36314
G0 X1.16 Y-0.05
;LAYER:24
G0 X1.47 Y0.00 Z0.75
;TYPE:WALL-OUTER
G1 X-0.58 Y3.55 E0.36507
G1 X-4.67 Y3.55 E0.36699
G1 X-6.72 Y0.00 E0.36892
G1 X-4.67 Y-3.55 E0.37085
G1 X-0.58 Y-3.55 E0.37278
G1 X-0.43 Y-3.30 E0.37291
G1 X1.47 Y0.00 E0.37470
G0 X1.16 Y-0.05
;LAYER:25
G0 X1.47 Y0.00 Z0.78
;TYPE:WALL-OUTER
G1 X-0.58 Y3.55 E0.37663
G1 X-4.67 Y3.55 E0.37856
G1 X-6.72 Y0.00 E0.38049
G1 X-4.67 Y-3.55 E0.38241
G1 X-0.58 Y-3.55 E0.38434
G1 X1.47 Y0.00 E0.38627
G0 X1.16 Y-0.05
;LAYER:26
G0 X1.47 Y0.00 Z0.81
;TYPE:WALL-OUTER
G1 X-0.58 Y3.55 E0.38820
G1 X-4.67 Y3.55 E0.39012
G1 X-6.72 Y0.00 E0.39205
G1 X-4.67 Y-3.55 E0.39398
G1 X-0.58 Y-3.55 E0.39590
G1 X-0.42 Y-3.27 E0.39605
G1 X1.47 Y0.00 E0.39783
G0 X1.16 Y-0.05
;LAYER:27
G0 X1.47 Y0.00 Z0.84
;TYPE:WALL-OUTER
G1 X-0.58 Y3.55 E0.39976
G1 X-4.67 Y3.55 E0.40169
G1 X-6.72 Y0.00 E0.40361
G1 X-4.67 Y-3.55 E0.40554
G1 X-0.58 Y-3.55 E0.40747
G1 X1.47 Y0.00 E0.40940
G0 X1.16 Y-0.05
;LAYER:28
G0 X1.47 Y0.00 Z0.87
;TYPE:WALL-OUTER
G1 X-0.58 Y3.55 E0.41132
G1 X-4.67 Y3.55 E0.41325
G1 X-6.72 Y0.00 E0.41518
G1 X-4.67 Y-3.55 E0.41711
G1 X-0.58 Y-3.55 E0.41903
G1 X-0.40 Y-3.25 E0.41919
G1 X1.47 Y0.00 E0.42096
G0 X1.16 Y-0.05
;LAYER:29
G0 X1.47 Y0.00 Z0.90
;TYPE:WALL-OUTER
G1 X-0.58 Y3.55 E0.42289
G1 X-4.67 Y3.55 E0.42481
G1 X-6.72 Y0.00 E0.42674
G1 X-4.67 Y-3.55 E0.42867
G1 X-0.58 Y-3.55 E0.43060
G1 X-0.40 Y-3.24 E0.43076
G1 X1.47 Y0.00 E0.43252
G0 X1.16 Y-0.05
;LAYER:30
G0 X1.47 Y0.00 Z0.93
;TYPE:WALL-OUTER
G1 X-0.58 Y3.55 E0.43445
G1 X-4.67 Y3.55 E0.43638
G1 X-6.72 Y0.00 E0.43831
G1 X-4.67 Y-3.55 E0.44023
G1 X-0.58 Y-3.55 E0.44216
G1 X-0.39 Y-3.23 E0.44233
G1 X1.47 Y0.00 E0.44409
G0 X1.16 Y-0.05
;LAYER:31
G0 X1.47 Y0.00 Z0.96
;TYPE:WALL-OUTER
G1 X-0.58 Y3.55 E0.44601
G1 X-4.67 Y3.55 E0.44794
G1 X-6.72 Y0.00 E0.44987
G1 X-4.67 Y-3.55 E0.45180
G1 X-0.58 Y-3.55 E0.45372
G1 X1.47 Y0.00 E0.45565
G0 X1.16 Y-0.05
;LAYER:32
G0 X1.47 Y0.00 Z0.99
;TYPE:WALL-OUTER
G1 X-0.58 Y3.55 E0.45758
G1 X-4.67 Y3.55 E0.45951
G1 X-6.72 Y0.00 E0.46143
G1 X-4.67 Y-3.55 E0.46336
G1 X-0.58 Y-3.55 E0.46529
G1 X-0.38 Y-3.21 E0.46547
G1 X1.47 Y0.00 E0.46721
G0 X1.16 Y-0.05
;LAYER:33
G0 X1.47 Y0.00 Z1.02
;TYPE:WALL-OUTER
G1 X-0.58 Y3.55 E0.46914
G1 X-4.67 Y3.55 E0.47107
G1 X-6.72 Y0.00 E0.47300
G1 X-4.67 Y-3.55 E0.47492
G1 X-0.58 Y-3.55 E0.47685
G1 X-0.37 Y-3.19 E0.47704
G1 X1.47 Y0.00 E0.47878
G0 X1.16 Y-0.05
;LAYER:34
G0 X1.47 Y0.00 Z1.05
;TYPE:WALL-OUTER
G1 X-0.58 Y3.55 E0.48071
G1 X-4.67 Y3.55 E0.48263
G1 X-6.72 Y0.00 E0.48456
G1 X-4.67 Y-3.55 E0.48649
G1 X-0.58 Y-3.55 E0.48842
G1 X-0.37 Y-3.18 E0.48861
G1 X1.47 Y0.00 E0.49034
G0 X1.16 Y-0.05
;LAYER:35
G0 X1.47 Y0.00 Z1.08
;TYPE:WALL-OUTER
G1 X-0.58 Y3.55 E0.49227
G1 X-4.67 Y3.55 E0.49420
G1 X-6.72 Y0.00 E0.49612
G1 X-4.67 Y-3.55 E0.49805
G1 X-0.58 Y-3.55 E0.49998
G1 X1.47 Y0.00 E0.50191
G0 X1.16 Y-0.05
;LAYER:36
G0 X1.47 Y0.00 Z1.11
;TYPE:WALL-OUTER
G1 X-0.58 Y3.55 E0.50383
G1 X-4.67 Y3.55 E0.50576
G1 X-6.72 Y0.00 E0.50769
G1 X-4.67 Y-3.55 E0.50962
G1 X-0.58 Y-3.55 E0.51154
G1 X-0.35 Y-3.16 E0.51175
G1 X1.47 Y0.00 E0.51347
G0 X1.16 Y-0.05
;LAYER:37
G0 X1.47 Y0.00 Z1.14
;TYPE:WALL-OUTER
G1 X-0.58 Y3.55 E0.51540
G1 X-4.67 Y3.55 E0.51732
G1 X-6.72 Y0.00 E0.51925
G1 X-4.67 Y-3.55 E0.52118
G1 X-0.58 Y-3.55 E0.52311
G1 X-0.34 Y-3.15 E0.52332
G1 X1.47 Y0.00 E0.52503
G0 X1.16 Y-0.05
;LAYER:38
G0 X1.47 Y0.00 Z1.17
;TYPE:WALL-OUTER
G1 X-0.58 Y3.55 E0.52696
G1 X-4.67 Y3.55 E0.52889
G1 X-6.72 Y0.00 E0.53082
G1 X-4.67 Y-3.55 E0.53274
G1 X-0.58 Y-3.55 E0.53467
G1 X1.47 Y0.00 E0.53660
G0 X1.16 Y-0.05
;LAYER:39
G0 X1.47 Y0.00 Z1.20
;TYPE:WALL-OUTER
G1 X-0.58 Y3.55 E0.53853
G1 X-4.67 Y3.55 E0.54045
G1 X-6.72 Y0.00 E0.54238
G1 X-4.67 Y-3.55 E0.54431
G1 X-0.58 Y-3.55 E0.54623
G1 X-0.33 Y-3.13 E0.54646
G1 X1.47 Y0.00 E0.54816
G0 X1.16 Y-0.05
;LAYER:40
G0 X1.47 Y0.00 Z1.23
;TYPE:WALL-OUTER
G1 X-0.58 Y3.55 E0.55009
G1 X-4.67 Y3.55 E0.55202
G1 X-6.72 Y0.00 E0.55394
G1 X-4.68 Y-3.55 E0.55587
G1 X-0.58 Y-3.55 E0.55780
G1 X-0.33 Y-3.12 E0.55803
G1 X1.47 Y0.00 E0.55972
G0 X1.16 Y-0.05
;LAYER:41
G0 X1.47 Y0.00 Z1.26
;TYPE:WALL-OUTER
G1 X-0.58 Y3.55 E0.56165
G1 X-4.67 Y3.55 E0.56358
G1 X-6.72 Y0.00 E0.56551
G1 X-4.68 Y-3.55 E0.56743
G1 X-0.58 Y-3.55 E0.56936
G1 X-0.32 Y-3.11 E0.56960
G1 X1.47 Y0.00 E0.57129
G0 X1.16 Y-0.05
;LAYER:42
G0 X1.47 Y0.00 Z1.29
;TYPE:WALL-OUTER
G1 X-0.58 Y3.55 E0.57321
G1 X-4.67 Y3.55 E0.57514
G1 X-6.72 Y0.00 E0.57707
G1 X-4.68 Y-3.55 E0.57899
G1 X-0.58 Y-3.55 E0.58092
G1 X1.47 Y0.00 E0.58285
G0 X1.16 Y-0.05
;LAYER:43
G0 X1.47 Y0.00 Z1.32
;TYPE:WALL-OUTER
G1 X-0.58 Y3.55 E0.58478
G1 X-4.67 Y3.55 E0.58671
G1 X-6.72 Y0.00 E0.58863
G1 X-4.68 Y-3.55 E0.59056
G1 X-0.58 Y-3.55 E0.59249
G1 X-0.31 Y-3.08 E0.59274
G1 X1.47 Y0.00 E0.59441
G0 X1.16 Y-0.05
;LAYER:44
G0 X1.47 Y0.00 Z1.35
;TYPE:WALL-OUTER
G1 X-0.58 Y3.55 E0.59634
G1 X-4.67 Y3.55 E0.59827
G1 X-6.72 Y0.00 E0.60020
G1 X-4.67 Y-3.55 E0.60212
G1 X-0.58 Y-3.55 E0.60405
G1 X1.47 Y0.00 E0.60598
G0 X1.16 Y-0.05
;LAYER:45
G0 X1.47 Y0.00 Z1.38
;TYPE:WALL-OUTER
G1 X-0.58 Y3.55 E0.60790
G1 X-4.67 Y3.55 E0.60983
G1 X-6.72 Y0.00 E0.61176
G1 X-4.67 Y-3.55 E0.61369
G1 X-0.58 Y-3.55 E0.61561
G1 X-0.29 Y-3.06 E0.61588
G1 X1.47 Y0.00 E0.61754
G0 X1.16 Y-0.05
;LAYER:46
G0 X1.47 Y0.00 Z1.41
;TYPE:WALL-OUTER
G1 X-0.58 Y3.55 E0.61947
G1 X-4.67 Y3.55 E0.62140
G1 X-6.72 Y0.00 E0.62332
G1 X-4.67 Y-3.55 E0.62525
G1 X-0.58 Y-3.55 E0.62718
G1 X-0.29 Y-3.05 E0.62745
G1 X1.47 Y0.00 E0.62910
G0 X1.16 Y-0.05
;LAYER:47
G0 X1.47 Y0.00 Z1.44
;TYPE:WALL-OUTER
G1 X-0.58 Y3.55 E0.63103
G1 X-4.67 Y3.55 E0.63296
G1 X-6.72 Y0.00 E0.63489
G1 X-4.67 Y-3.55 E0.63681
G1 X-0.58 Y-3.55 E0.63874
G1 X-0.28 Y-3.04 E0.63902
G1 X1.47 Y0.00 E0.64067
G0 X1.16 Y-0.05
;LAYER:48
G0 X1.47 Y0.00 Z1.47
;TYPE:WALL-OUTER
G1 X-0.58 Y3.55 E0.64260
G1 X-4.67 Y3.55 E0.64452
G1 X-6.72 Y0.00 E0.64645
G1 X-4.67 Y-3.55 E0.64838
G1 X-0.58 Y-3.55 E0.65031
G1 X1.47 Y0.00 E0.65223
G0 X1.16 Y-0.05
;LAYER:49
G0 X1.47 Y0.00 Z1.50
;TYPE:WALL-OUTER
G1 X-0.58 Y3.55 E0.65416
G1 X-4.67 Y3.55 E0.65609
G1 X-6.72 Y0.00 E0.65801
G1 X-4.67 Y-3.55 E0.65994
G1 X-0.58 Y-3.55 E0.66187
G1 X-0.27 Y-3.01 E0.66216
G1 X1.47 Y0.00 E0.66380
G0 X1.16 Y-0.05
;LAYER:50
G0 X1.47 Y0.00 Z1.53
;TYPE:WALL-OUTER
G1 X-0.58 Y3.55 E0.66572
G1 X-4.67 Y3.55 E0.66765
G1 X-6.72 Y0.00 E0.66958
G1 X-4.67 Y-3.55 E0.67151
G1 X-0.58 Y-3.55 E0.67343
G1 X-0.26 Y-3.00 E0.67373
G1 X1.47 Y0.00 E0.67536
G0 X1.16 Y-0.05
;LAYER:51
G0 X1.47 Y0.00 Z1.56
;TYPE:WALL-OUTER
G1 X-0.58 Y3.55 E0.67729
G1 X-4.67 Y3.55 E0.67921
G1 X-6.72 Y0.00 E0.68114
G1 X-4.67 Y-3.55 E0.68307
G1 X-0.58 Y-3.55 E0.68500
G1 X-0.25 Y-2.99 E0.68530
G1 X1.47 Y0.00 E0.68692
G0 X1.16 Y-0.05
;LAYER:52
G0 X1.47 Y0.00 Z1.59
;TYPE:WALL-OUTER
G1 X-0.58 Y3.55 E0.68885
G1 X-4.67 Y3.55 E0.69078
G1 X-6.72 Y0.00 E0.69271
G1 X-4.67 Y-3.55 E0.69463
G1 X-0.58 Y-3.55 E0.69656
G1 X1.47 Y0.00 E0.69849
G0 X1.16 Y-0.05
;LAYER:53
G0 X1.47 Y0.00 Z1.62
;TYPE:WALL-OUTER
G1 X-0.58 Y3.55 E0.70042
G1 X-4.67 Y3.55 E0.70234
G1 X-6.72 Y0.00 E0.70427
G1 X-4.67 Y-3.55 E0.70620
G1 X-0.58 Y-3.55 E0.70812
G1 X-0.24 Y-2.97 E0.70844
G1 X1.47 Y0.00 E0.71005
G0 X1.16 Y-0.05
;LAYER:54
G0 X1.47 Y0.00 Z1.65
;TYPE:WALL-OUTER
G1 X-0.58 Y3.55 E0.71198
G1 X-4.67 Y3.55 E0.71391
G1 X-6.72 Y0.00 E0.71583
G1 X-4.67 Y-3.55 E0.71776
G1 X-0.58 Y-3.55 E0.71969
G1 X-0.23 Y-2.96 E0.72001
G1 X1.47 Y0.00 E0.72162
G0 X1.16 Y-0.05
;LAYER:55
G0 X1.47 Y0.00 Z1.68
;TYPE:WALL-OUTER
G1 X-0.58 Y3.55 E0.72354
G1 X-4.67 Y3.55 E0.72547
G1 X-6.72 Y0.00 E0.72740
G1 X-4.67 Y-3.55 E0.72932
G1 X-0.58 Y-3.55 E0.73125
G1 X1.47 Y0.00 E0.73318
G0 X1.16 Y-0.05
;LAYER:56
G0 X1.47 Y0.00 Z1.71
;TYPE:WALL-OUTER
G1 X-0.58 Y3.55 E0.73511
G1 X-4.67 Y3.55 E0.73703
G1 X-6.72 Y0.00 E0.73896
G1 X-4.67 Y-3.55 E0.74089
G1 X-0.58 Y-3.55 E0.74282
G1 X-0.22 Y-2.93 E0.74315
G1 X1.47 Y0.00 E0.74474
G0 X1.16 Y-0.05
;LAYER:57
G0 X1.47 Y0.00 Z1.74
;TYPE:WALL-OUTER
G1 X-0.58 Y3.55 E0.74667
G1 X-4.67 Y3.55 E0.74860
G1 X-6.72 Y0.00 E0.75053
G1 X-4.67 Y-3.55 E0.75245
G1 X-0.58 Y-3.55 E0.75438
G1 X-0.22 Y-2.92 E0.75472
G1 X1.47 Y0.00 E0.75631
G0 X1.16 Y-0.05
;LAYER:58
G0 X1.47 Y0.00 Z1.77
;TYPE:WALL-OUTER
G1 X-0.58 Y3.55 E0.75823
G1 X-4.67 Y3.55 E0.76016
G1 X-6.72 Y0.00 E0.76209
G1 X-4.67 Y-3.55 E0.76402
G1 X-0.58 Y-3.55 E0.76594
G1 X-0.21 Y-2.91 E0.76629
G1 X1.47 Y0.00 E0.76787
G0 X1.16 Y-0.05
;LAYER:59
G0 X1.47 Y0.00 Z1.80
;TYPE:WALL-OUTER
G1 X-0.58 Y3.55 E0.76980
G1 X-4.67 Y3.55 E0.77173
G1 X-6.72 Y0.00 E0.77365
G1 X-4.67 Y-3.55 E0.77558
G1 X-0.58 Y-3.55 E0.77751
G1 X1.47 Y0.00 E0.77943
G0 X1.16 Y-0.05
;LAYER:60
G0 X1.47 Y0.00 Z1.83
;TYPE:WALL-OUTER
G1 X-0.58 Y3.55 E0.78136
G1 X-4.67 Y3.55 E0.78329
G1 X-6.72 Y0.00 E0.78522
G1 X-4.67 Y-3.55 E0.78714
G1 X-0.58 Y-3.55 E0.78907
G1 X-0.19 Y-2.89 E0.78943
G1 X1.47 Y0.00 E0.79100
G0 X1.16 Y-0.05
;LAYER:61
G0 X1.47 Y0.00 Z1.86
;TYPE:WALL-OUTER
G1 X-0.58 Y3.55 E0.79293
G1 X-4.67 Y3.55 E0.79485
G1 X-6.72 Y0.00 E0.79678
G1 X-4.67 Y-3.55 E0.79871
G1 X-0.58 Y-3.55 E0.80064
G1 X-0.19 Y-2.88 E0.80100
G1 X1.47 Y0.00 E0.80256
G0 X1.16 Y-0.05
;LAYER:62
G0 X1.47 Y0.00 Z1.89
;TYPE:WALL-OUTER
G1 X-0.58 Y3.55 E0.80449
G1 X-4.67 Y3.55 E0.80642
G1 X-6.72 Y0.00 E0.80834
