;Generated with Cura_SteamEngine 13.11.2


;Layer count: 942
;LAYER:0
M107
G0 F6000 X5.09 Y-0.82 Z0.06
;TYPE:SKIRT
G1 F6000 E0.00000
G1 X5.09 Y0.82 E0.00154
G1 X1.50 Y7.03 E0.00829
G1 X0.09 Y7.85 E0.00982
G1 X-7.09 Y7.85 E0.01657
G1 X-8.50 Y7.03 E0.01811
G1 X-12.09 Y0.82 E0.02486
G1 X-12.09 Y-0.82 E0.02639
G1 X-8.50 Y-7.03 E0.03314
G1 X-7.09 Y-7.85 E0.03468
G1 X0.09 Y-7.85 E0.04143
G1 X1.50 Y-7.03 E0.04296
G1 X5.09 Y-0.82 E0.04971
G0 X5.19 Y-0.84
G1 X5.19 Y0.84 E0.05130
G1 X1.58 Y7.10 E0.05810
G1 X0.11 Y7.95 E0.05969
G1 X-7.11 Y7.95 E0.06648
G1 X-8.57 Y7.10 E0.06807
G1 X-12.19 Y0.84 E0.07487
G1 X-12.19 Y-0.84 E0.07646
G1 X-8.57 Y-7.10 E0.08326
G1 X-7.11 Y-7.95 E0.08484
G1 X0.11 Y-7.95 E0.09164
G1 X1.58 Y-7.10 E0.09323
G1 X5.19 Y-0.84 E0.10003
G0 X5.29 Y-0.87
G1 X5.29 Y0.87 E0.10167
G1 X1.65 Y7.18 E0.10852
G1 X0.14 Y8.05 E0.11016
G1 X-7.14 Y8.05 E0.11700
G1 X-8.65 Y7.18 E0.11864
G1 X-12.29 Y0.87 E0.12549
G1 X-12.29 Y-0.87 E0.12713
G1 X-8.65 Y-7.18 E0.13398
G1 X-7.14 Y-8.05 E0.13562
G1 X0.14 Y-8.05 E0.14247
G1 X1.65 Y-7.18 E0.14410
G1 X5.29 Y-0.87 E0.15096
G0 X1.83 Y0.04
G0 X1.83 Y-0.04
G0 X1.98 Y0.00
;TYPE:WALL-OUTER
G1 X-0.76 Y4.75 E0.15611
G1 X-6.24 Y4.75 E0.16127
G1 X-8.98 Y0.00 E0.16643
G1 X-6.24 Y-4.75 E0.17159
G1 X-0.76 Y-4.75 E0.17674
G1 X1.98 Y0.00 E0.18190
G0 X1.67 Y-0.05
;LAYER:1
G0 X1.98 Y0.00 Z0.12
;TYPE:WALL-OUTER
G1 X-0.76 Y4.75 E0.18706
G1 X-6.24 Y4.75 E0.19221
G1 X-8.98 Y0.00 E0.19737
G1 X-6.24 Y-4.75 E0.20253
G1 X-0.76 Y-4.75 E0.20769
G1 X1.98 Y0.00 E0.21284
G0 X1.67 Y-0.05
;LAYER:2
G0 X1.98 Y0.00 Z0.18
;TYPE:WALL-OUTER
G1 X-0.76 Y4.75 E0.21800
G1 X-6.24 Y4.75 E0.22316
G1 X-8.98 Y0.00 E0.22832
G1 X-6.24 Y-4.75 E0.23347
G1 X-0.76 Y-4.75 E0.23863
G1 X1.98 Y0.00 E0.24379
G0 X1.67 Y-0.05
;LAYER:3
G0 X1.98 Y0.00 Z0.24
;TYPE:WALL-OUTER
G1 X-0.76 Y4.75 E0.24895
G1 X-6.24 Y4.75 E0.25410
G1 X-8.98 Y0.00 E0.25926
G1 X-6.24 Y-4.75 E0.26442
G1 X-0.76 Y-4.75 E0.26957
G1 X1.98 Y0.00 E0.27473
G0 X1.67 Y-0.05
;LAYER:4
G0 X1.98 Y0.00 Z0.30
;TYPE:WALL-OUTER
G1 X-0.76 Y4.75 E0.27989
G1 X-6.24 Y4.75 E0.28505
G1 X-8.98 Y0.00 E0.29020
G1 X-6.24 Y-4.75 E0.29536
G1 X-0.76 Y-4.75 E0.30052
G1 X1.98 Y0.00 E0.30568
G0 X1.67 Y-0.05
;LAYER:5
G0 X1.98 Y0.00 Z0.36
;TYPE:WALL-OUTER
G1 X-0.76 Y4.75 E0.31083
G1 X-6.24 Y4.75 E0.31599
G1 X-8.98 Y0.00 E0.32115
G1 X-6.24 Y-4.75 E0.32631
G1 X-0.76 Y-4.75 E0.33146
G1 X1.98 Y0.00 E0.33662
G0 X1.67 Y-0.05
;LAYER:6
G0 X1.98 Y0.00 Z0.42
;TYPE:WALL-OUTER
G1 X-0.76 Y4.75 E0.34178
G1 X-6.24 Y4.75 E0.34694
G1 X-8.98 Y0.00 E0.35209
G1 X-6.24 Y-4.75 E0.35725
G1 X-0.76 Y-4.75 E0.36241
G1 X1.98 Y0.00 E0.36757
G0 X1.67 Y-0.05
;LAYER:7
G0 X1.98 Y0.00 Z0.48
;TYPE:WALL-OUTER
G1 X-0.76 Y4.75 E0.37272
G1 X-6.24 Y4.75 E0.37788
G1 X-8.98 Y0.00 E0.38304
G1 X-6.24 Y-4.75 E0.38820
G1 X-0.76 Y-4.75 E0.39335
G1 X1.98 Y0.00 E0.39851
G0 X1.67 Y-0.05
;LAYER:8
G0 X1.98 Y0.00 Z0.54
;TYPE:WALL-OUTER
G1 X-0.76 Y4.75 E0.40367
G1 X-6.24 Y4.75 E0.40882
G1 X-8.98 Y0.00 E0.41398
G1 X-6.24 Y-4.75 E0.41914
G1 X-0.76 Y-4.75 E0.42430
G1 X1.98 Y0.00 E0.42945
G0 X1.67 Y-0.05
;LAYER:9
G0 X1.98 Y0.00 Z0.60
;TYPE:WALL-OUTER
G1 X-0.76 Y4.75 E0.43461
G1 X-6.24 Y4.75 E0.43977
G1 X-8.98 Y0.00 E0.44493
G1 X-6.24 Y-4.75 E0.45008
G1 X-0.76 Y-4.75 E0.45524
G1 X1.98 Y0.00 E0.46040
G0 X1.67 Y-0.05
;LAYER:10
G0 X1.98 Y0.00 Z0.66
;TYPE:WALL-OUTER
G1 X-0.76 Y4.75 E0.46556
G1 X-6.24 Y4.75 E0.47071
G1 X-8.98 Y0.00 E0.47587
G1 X-6.24 Y-4.75 E0.48103
G1 X-0.76 Y-4.75 E0.48618
G1 X1.98 Y0.00 E0.49134
G0 X1.67 Y-0.05
;LAYER:11
G0 X1.98 Y0.00 Z0.72
;TYPE:WALL-OUTER
G1 X-0.76 Y4.75 E0.49650
G1 X-6.24 Y4.75 E0.50166
G1 X-8.98 Y0.00 E0.50681
G1 X-6.24 Y-4.75 E0.51197
G1 X-0.76 Y-4.75 E0.51713
G1 X1.98 Y0.00 E0.52229
G0 X1.67 Y-0.05
;LAYER:12
G0 X1.98 Y0.00 Z0.78
;TYPE:WALL-OUTER
G1 X-0.76 Y4.75 E0.52744
G1 X-6.24 Y4.75 E0.53260
G1 X-8.98 Y0.00 E0.53776
G1 X-6.24 Y-4.75 E0.54292
G1 X-0.76 Y-4.75 E0.54807
G1 X1.98 Y0.00 E0.55323
G0 X1.67 Y-0.05
;LAYER:13
G0 X1.98 Y0.00 Z0.84
;TYPE:WALL-OUTER
G1 X-0.76 Y4.75 E0.55839
G1 X-6.24 Y4.75 E0.56355
G1 X-8.98 Y0.00 E0.56870
G1 X-6.24 Y-4.75 E0.57386
G1 X-0.76 Y-4.75 E0.57902
G1 X1.98 Y0.00 E0.58418
G0 X1.67 Y-0.05
;LAYER:14
G0 X1.98 Y0.00 Z0.90
;TYPE:WALL-OUTER
G1 X-0.76 Y4.75 E0.58933
G1 X-6.24 Y4.75 E0.59449
G1 X-8.98 Y0.00 E0.59965
G1 X-6.24 Y-4.75 E0.60481
G1 X-0.76 Y-4.75 E0.60996
G1 X1.98 Y0.00 E0.61512
G0 X1.67 Y-0.05
;LAYER:15
G0 X1.98 Y0.00 Z0.96
;TYPE:WALL-OUTER
G1 X-0.76 Y4.75 E0.62028
G1 X-6.24 Y4.75 E0.62543
G1 X-8.98 Y0.00 E0.63059
G1 X-6.24 Y-4.75 E0.63575
G1 X-0.76 Y-4.75 E0.64091
G1 X1.98 Y0.00 E0.64606
G0 X1.67 Y-0.05
;LAYER:16
G0 X1.98 Y0.00 Z1.02
;TYPE:WALL-OUTER
G1 X-0.76 Y4.75 E0.65122
G1 X-6.24 Y4.75 E0.65638
G1 X-8.98 Y0.00 E0.66154
G1 X-6.24 Y-4.75 E0.66669
G1 X-0.76 Y-4.75 E0.67185
G1 X1.98 Y0.00 E0.67701
G0 X1.67 Y-0.05
;LAYER:17
G0 X1.98 Y0.00 Z1.08
;TYPE:WALL-OUTER
G1 X-0.76 Y4.75 E0.68217
G1 X-6.24 Y4.75 E0.68732
G1 X-8.98 Y0.00 E0.69248
G1 X-6.24 Y-4.75 E0.69764
G1 X-0.76 Y-4.75 E0.70279
G1 X1.98 Y0.00 E0.70795
G0 X1.67 Y-0.05
;LAYER:18
G0 X1.98 Y0.00 Z1.14
;TYPE:WALL-OUTER
G1 X-0.76 Y4.75 E0.71311
G1 X-6.24 Y4.75 E0.71827
G1 X-8.98 Y0.00 E0.72342
G1 X-6.24 Y-4.74 E0.72858
G1 X-0.76 Y-4.75 E0.73374
G1 X1.98 Y0.00 E0.73890
G0 X1.67 Y-0.05
;LAYER:19
G0 X1.98 Y0.00 Z1.20
;TYPE:WALL-OUTER
G1 X-0.76 Y4.75 E0.74405
G1 X-6.24 Y4.75 E0.74921
G1 X-8.98 Y0.00 E0.75437
G1 X-6.24 Y-4.74 E0.75952
G1 X-0.76 Y-4.75 E0.76468
G1 X1.98 Y0.00 E0.76984
G0 X1.67 Y-0.05
;LAYER:20
G0 X1.98 Y0.00 Z1.26
;TYPE:WALL-OUTER
G1 X-0.76 Y4.75 E0.77500
G1 X-6.24 Y4.75 E0.78015
G1 X-8.98 Y0.00 E0.78531
G1 X-6.24 Y-4.74 E0.79046
G1 X-0.76 Y-4.75 E0.79562
G1 X1.98 Y0.00 E0.80078
G0 X1.67 Y-0.05
;LAYER:21
G0 X1.98 Y0.00 Z1.32
;TYPE:WALL-OUTER
G1 X-0.76 Y4.75 E0.80594
G1 X-6.24 Y4.75 E0.81109
G1 X-8.98 Y0.00 E0.81625
G1 X-6.24 Y-4.74 E0.82141
G1 X-0.76 Y-4.75 E0.82656
G1 X1.98 Y0.00 E0.83172
G0 X1.67 Y-0.05
;LAYER:22
G0 X1.98 Y0.00 Z1.38
;TYPE:WALL-OUTER
G1 X-0.76 Y4.75 E0.83688
G1 X-6.24 Y4.75 E0.84204
G1 X-8.98 Y0.00 E0.84719
G1 X-6.24 Y-4.75 E0.85235
G1 X-0.76 Y-4.75 E0.85751
G1 X1.98 Y0.00 E0.86267
G0 X1.67 Y-0.05
;LAYER:23
G0 X1.98 Y0.00 Z1.44
;TYPE:WALL-OUTER
G1 X-0.76 Y4.75 E0.86783
G1 X-6.24 Y4.75 E0.87298
G1 X-8.98 Y0.00 E0.87814
G1 X-6.24 Y-4.75 E0.88330
G1 X-0.76 Y-4.75 E0.88845
G1 X1.98 Y0.00 E0.89361
G0 X1.67 Y-0.05
;LAYER:24
G0 X1.98 Y0.00 Z1.50
;TYPE:WALL-OUTER
G1 X-0.76 Y4.75 E0.89877
G1 X-6.24 Y4.75 E0.90393
G1 X-8.98 Y0.00 E0.90908
G1 X-6.24 Y-4.75 E0.91424
G1 X-0.76 Y-4.75 E0.91940
G1 X1.98 Y0.00 E0.92456
G0 X1.67 Y-0.05
;LAYER:25
G0 X1.98 Y0.00 Z1.56
;TYPE:WALL-OUTER
G1 X-0.76 Y4.75 E0.92971
G1 X-6.24 Y4.75 E0.93487
G1 X-8.98 Y0.00 E0.94003
G1 X-6.24 Y-4.75 E0.94519
G1 X-0.76 Y-4.75 E0.95034
G1 X1.98 Y0.00 E0.95550
G0 X1.67 Y-0.05
;LAYER:26
G0 X1.98 Y0.00 Z1.62
;TYPE:WALL-OUTER
G1 X-0.76 Y4.75 E0.96066
G1 X-6.24 Y4.75 E0.96581
G1 X-8.98 Y0.00 E0.97097
G1 X-6.24 Y-4.75 E0.97613
G1 X-0.76 Y-4.75 E0.98129
G1 X1.98 Y0.00 E0.98644
G0 X1.67 Y-0.05
;LAYER:27
G0 X1.98 Y0.00 Z1.68
;TYPE:WALL-OUTER
G1 X-0.76 Y4.75 E0.99160
G1 X-6.24 Y4.75 E0.99676
G1 X-8.98 Y0.00 E1.00192
G1 X-6.24 Y-4.75 E1.00707
G1 X-0.76 Y-4.75 E1.01223
G1 X1.98 Y0.00 E1.01739
G0 X1.67 Y-0.05
;LAYER:28
G0 X1.98 Y0.00 Z1.74
;TYPE:WALL-OUTER
G1 X-0.76 Y4.75 E1.02255
G1 X-6.24 Y4.75 E1.02770
G1 X-8.98 Y0.00 E1.03286
G1 X-6.24 Y-4.75 E1.03802
G1 X-0.76 Y-4.75 E1.04317
G1 X1.98 Y0.00 E1.04833
G0 X1.67 Y-0.05
;LAYER:29
G0 X1.98 Y0.00 Z1.80
;TYPE:WALL-OUTER
G1 X-0.76 Y4.75 E1.05349
G1 X-6.24 Y4.75 E1.05865
G1 X-8.98 Y0.00 E1.06381
G1 X-6.24 Y-4.75 E1.06896
G1 X-0.76 Y-4.75 E1.07412
G1 X1.98 Y0.00 E1.07928
G0 X1.67 Y-0.05
;LAYER:30
G0 X1.98 Y0.00 Z1.86
;TYPE:WALL-OUTER
G1 X-0.76 Y4.75 E1.08444
G1 X-6.24 Y4.75 E1.08959
G1 X-8.98 Y0.00 E1.09475
G1 X-6.24 Y-4.75 E1.09991
G1 X-0.76 Y-4.75 E1.10506
G1 X1.98 Y0.00 E1.11022
G0 X1.67 Y-0.05
;LAYER:31
G0 X1.98 Y0.00 Z1.92
;TYPE:WALL-OUTER
G1 X-0.76 Y4.75 E1.11538
G1 X-6.24 Y4.75 E1.12054
G1 X-8.98 Y0.00 E1.12569
G1 X-6.24 Y-4.75 E1.13085
G1 X-0.76 Y-4.75 E1.13601
G1 X1.98 Y0.00 E1.14117
G0 X1.67 Y-0.05
;LAYER:32
G0 X1.98 Y0.00 Z1.98
;TYPE:WALL-OUTER
G1 X-0.76 Y4.75 E1.14632
G1 X-6.24 Y4.75 E1.15148
G1 X-8.98 Y0.00 E1.15664
G1 X-6.24 Y-4.75 E1.16180
G1 X-0.76 Y-4.75 E1.16695
G1 X1.98 Y0.00 E1.17211
G0 X1.67 Y-0.05
;LAYER:33
G0 X1.98 Y0.00 Z2.04
;TYPE:WALL-OUTER
G1 X-0.76 Y4.75 E1.17727
G1 X-6.24 Y4.75 E1.18242
G1 X-8.98 Y0.00 E1.18758
G1 X-6.24 Y-4.75 E1.19274
G1 X-0.76 Y-4.75 E1.19790
G1 X1.98 Y0.00 E1.20305
G0 X1.67 Y-0.05
;LAYER:34
G0 X1.98 Y0.00 Z2.10
;TYPE:WALL-OUTER
G1 X-0.76 Y4.75 E1.20821
G1 X-6.24 Y4.75 E1.21337
G1 X-8.98 Y0.00 E1.21853
G1 X-6.24 Y-4.75 E1.22368
G1 X-0.76 Y-4.75 E1.22884
G1 X1.98 Y0.00 E1.23400
G0 X1.67 Y-0.05
;LAYER:35
G0 X1.98 Y0.00 Z2.16
;TYPE:WALL-OUTER
G1 X-0.76 Y4.75 E1.23916
G1 X-6.24 Y4.75 E1.24431
G1 X-8.98 Y0.00 E1.24947
G1 X-6.24 Y-4.75 E1.25463
G1 X-0.76 Y-4.75 E1.25979
G1 X1.98 Y0.00 E1.26494
G0 X1.67 Y-0.05
;LAYER:36
G0 X1.98 Y0.00 Z2.22
;TYPE:WALL-OUTER
G1 X-0.76 Y4.75 E1.27010
G1 X-6.24 Y4.75 E1.27526
G1 X-8.98 Y0.00 E1.28042
G1 X-6.24 Y-4.75 E1.28557
G1 X-0.76 Y-4.75 E1.29073
G1 X1.98 Y0.00 E1.29589
G0 X1.67 Y-0.05
;LAYER:37
G0 X1.98 Y0.00 Z2.28
;TYPE:WALL-OUTER
G1 X-0.76 Y4.75 E1.30105
G1 X-6.24 Y4.75 E1.30620
G1 X-8.98 Y0.00 E1.31136
G1 X-6.24 Y-4.75 E1.31652
G1 X-0.76 Y-4.75 E1.32167
G1 X1.98 Y0.00 E1.32683
G0 X1.67 Y-0.05
;LAYER:38
G0 X1.98 Y0.00 Z2.34
;TYPE:WALL-OUTER
G1 X-0.76 Y4.75 E1.33199
G1 X-6.24 Y4.75 E1.33715
G1 X-8.98 Y0.00 E1.34230
G1 X-6.24 Y-4.75 E1.34746
G1 X-0.76 Y-4.75 E1.35262
G1 X1.98 Y0.00 E1.35778
G0 X1.67 Y-0.05
;LAYER:39
G0 X1.98 Y0.00 Z2.40
;TYPE:WALL-OUTER
G1 X-0.76 Y4.75 E1.36293
G1 X-6.24 Y4.75 E1.36809
G1 X-8.98 Y0.00 E1.37325
G1 X-6.24 Y-4.75 E1.37841
G1 X-0.76 Y-4.75 E1.38356
G1 X1.98 Y0.00 E1.38872
G0 X1.67 Y-0.05
;LAYER:40
G0 X1.98 Y0.00 Z2.46
;TYPE:WALL-OUTER
G1 X-0.76 Y4.75 E1.39388
G1 X-6.24 Y4.75 E1.39903
G1 X-8.98 Y0.00 E1.40419
G1 X-6.24 Y-4.75 E1.40935
G1 X-0.76 Y-4.75 E1.41451
G1 X1.98 Y0.00 E1.41966
G0 X1.67 Y-0.05
;LAYER:41
G0 X1.98 Y0.00 Z2.52
;TYPE:WALL-OUTER
G1 X-0.76 Y4.75 E1.42482
G1 X-6.24 Y4.75 E1.42998
G1 X-8.98 Y0.00 E1.43514
G1 X-6.24 Y-4.75 E1.44030
G1 X-0.76 Y-4.75 E1.44545
G1 X1.98 Y0.00 E1.45061
G0 X1.67 Y-0.05
;LAYER:42
G0 X1.98 Y0.00 Z2.58
;TYPE:WALL-OUTER
G1 X-0.76 Y4.75 E1.45577
G1 X-6.24 Y4.75 E1.46092
G1 X-8.98 Y0.00 E1.46608
G1 X-6.24 Y-4.75 E1.47124
G1 X-0.76 Y-4.75 E1.47640
G1 X1.98 Y0.00 E1.48155
G0 X1.67 Y-0.05
;LAYER:43
G0 X1.98 Y0.00 Z2.64
;TYPE:WALL-OUTER
G1 X-0.76 Y4.75 E1.48671
G1 X-6.24 Y4.75 E1.49187
G1 X-8.98 Y0.00 E1.49703
G1 X-6.24 Y-4.75 E1.50218
G1 X-0.76 Y-4.75 E1.50734
G1 X1.98 Y0.00 E1.51250
G0 X1.67 Y-0.05
;LAYER:44
G0 X1.98 Y0.00 Z2.70
;TYPE:WALL-OUTER
G1 X-0.76 Y4.75 E1.51766
G1 X-6.24 Y4.75 E1.52281
G1 X-8.98 Y0.00 E1.52797
G1 X-6.24 Y-4.75 E1.53313
G1 X-0.76 Y-4.75 E1.53828
G1 X1.98 Y0.00 E1.54344
G0 X1.67 Y-0.05
;LAYER:45
G0 X1.98 Y0.00 Z2.76
;TYPE:WALL-OUTER
G1 X-0.76 Y4.75 E1.54860
G1 X-6.24 Y4.75 E1.55376
G1 X-8.98 Y0.00 E1.55891
G1 X-6.24 Y-4.75 E1.56407
G1 X-0.76 Y-4.75 E1.56923
G1 X1.98 Y0.00 E1.57439
G0 X1.67 Y-0.05
;LAYER:46
G0 X1.98 Y0.00 Z2.82
;TYPE:WALL-OUTER
G1 X-0.76 Y4.75 E1.57954
G1 X-6.24 Y4.75 E1.58470
G1 X-8.98 Y0.00 E1.58986
G1 X-6.24 Y-4.75 E1.59502
G1 X-0.76 Y-4.75 E1.60017
G1 X1.98 Y0.00 E1.60533
G0 X1.67 Y-0.05
;LAYER:47
G0 X1.98 Y0.00 Z2.88
;TYPE:WALL-OUTER
G1 X-0.76 Y4.75 E1.61049
G1 X-6.24 Y4.75 E1.61564
G1 X-8.98 Y0.00 E1.62080
G1 X-6.24 Y-4.75 E1.62596
G1 X-0.76 Y-4.75 E1.63112
G1 X1.98 Y0.00 E1.63628
G0 X1.67 Y-0.05
;LAYER:48
G0 X1.98 Y0.00 Z2.94
;TYPE:WALL-OUTER
G1 X-0.76 Y4.75 E1.64143
G1 X-6.24 Y4.75 E1.64659
G1 X-8.98 Y0.00 E1.65175
G1 X-6.24 Y-4.75 E1.65691
G1 X-0.76 Y-4.75 E1.66206
G1 X1.98 Y0.00 E1.66722
G0 X1.67 Y-0.05
;LAYER:49
G0 X1.98 Y0.00 Z3.00
;TYPE:WALL-OUTER
G1 X-0.76 Y4.75 E1.67238
G1 X-6.24 Y4.75 E1.67753
G1 X-8.98 Y0.00 E1.68269
G1 X-6.24 Y-4.75 E1.68785
G1 X-0.76 Y-4.75 E1.69301
G1 X1.98 Y0.00 E1.69816
G0 X1.67 Y-0.05
;LAYER:50
G0 X1.98 Y0.00 Z3.06
;TYPE:WALL-OUTER
G1 X-0.76 Y4.75 E1.70332
G1 X-6.24 Y4.75 E1.70848
G1 X-8.98 Y0.00 E1.71364
G1 X-6.24 Y-4.75 E1.71879
G1 X-0.76 Y-4.75 E1.72395
G1 X1.98 Y0.00 E1.72911
G0 X1.67 Y-0.05
;LAYER:51
G0 X1.98 Y0.00 Z3.12
;TYPE:WALL-OUTER
G1 X-0.76 Y4.75 E1.73427
G1 X-6.24 Y4.75 E1.73942
G1 X-8.98 Y0.00 E1.74458
G1 X-6.24 Y-4.75 E1.74974
G1 X-0.76 Y-4.75 E1.75489
G1 X1.98 Y0.00 E1.76005
G0 X1.67 Y-0.05
;LAYER:52
G0 X1.98 Y0.00 Z3.18
;TYPE:WALL-OUTER
G1 X-0.76 Y4.75 E1.76521
G1 X-6.24 Y4.75 E1.77037
G1 X-8.98 Y0.00 E1.77552
G1 X-6.24 Y-4.75 E1.78068
G1 X-0.76 Y-4.75 E1.78584
G1 X1.98 Y0.00 E1.79100
G0 X1.67 Y-0.05
;LAYER:53
G0 X1.98 Y0.00 Z3.24
;TYPE:WALL-OUTER
G1 X-0.76 Y4.75 E1.79615
G1 X-6.24 Y4.75 E1.80131
G1 X-8.98 Y0.00 E1.80647
G1 X-6.24 Y-4.75 E1.81163
G1 X-0.76 Y-4.75 E1.81678
G1 X1.98 Y0.00 E1.82194
G0 X1.67 Y-0.05
;LAYER:54
G0 X1.98 Y0.00 Z3.30
;TYPE:WALL-OUTER
G1 X-0.76 Y4.75 E1.82710
G1 X-6.24 Y4.75 E1.83226
G1 X-8.98 Y0.00 E1.83741
G1 X-6.24 Y-4.75 E1.84257
G1 X-0.76 Y-4.75 E1.84773
G1 X1.98 Y0.00 E1.85289
G0 X1.67 Y-0.05
;LAYER:55
G0 X1.98 Y0.00 Z3.36
;TYPE:WALL-OUTER
G1 X-0.76 Y4.75 E1.85804
G1 X-6.24 Y4.75 E1.86320
G1 X-8.98 Y0.00 E1.86836
G1 X-6.24 Y-4.75 E1.87352
G1 X-0.76 Y-4.75 E1.87867
G1 X1.98 Y0.00 E1.88383
G0 X1.67 Y-0.05
;LAYER:56
G0 X1.98 Y0.00 Z3.42
;TYPE:WALL-OUTER
G1 X-0.76 Y4.75 E1.88899
G1 X-6.24 Y4.75 E1.89414
G1 X-8.98 Y0.00 E1.89930
G1 X-6.24 Y-4.75 E1.90446
G1 X-0.76 Y-4.75 E1.90962
G1 X1.98 Y0.00 E1.91477
G0 X1.67 Y-0.05
;LAYER:57
G0 X1.98 Y0.00 Z3.48
;TYPE:WALL-OUTER
G1 X-0.76 Y4.75 E1.91993
G1 X-6.24 Y4.75 E1.92509
G1 X-8.98 Y0.00 E1.93025
G1 X-6.24 Y-4.75 E1.93540
G1 X-0.76 Y-4.75 E1.94056
G1 X1.98 Y0.00 E1.94572
G0 X1.67 Y-0.05
;LAYER:58
G0 X1.98 Y0.00 Z3.54
;TYPE:WALL-OUTER
G1 X-0.76 Y4.75 E1.95088
G1 X-6.24 Y4.75 E1.95603
G1 X-8.98 Y0.00 E1.96119
G1 X-6.24 Y-4.75 E1.96635
G1 X-0.76 Y-4.75 E1.97150
G1 X1.98 Y0.00 E1.97666
G0 X1.67 Y-0.05
;LAYER:59
G0 X1.98 Y0.00 Z3.60
;TYPE:WALL-OUTER
G1 X-0.76 Y4.75 E1.98182
G1 X-6.24 Y4.75 E1.98698
G1 X-8.98 Y0.00 E1.99213
G1 X-6.24 Y-4.75 E1.99729
G1 X-0.76 Y-4.75 E2.00245
G1 X1.98 Y0.00 E2.00761
G0 X1.67 Y-0.05
;LAYER:60
G0 X1.98 Y0.00 Z3.66
;TYPE:WALL-OUTER
G1 X-0.76 Y4.75 E2.01277
G1 X-6.24 Y4.75 E2.01792
G1 X-8.98 Y0.00 E2.02308
G1 X-6.24 Y-4.75 E2.02824
G1 X-0.76 Y-4.75 E2.03339
G1 X1.98 Y0.00 E2.03855
G0 X1.67 Y-0.05
;LAYER:61
G0 X1.98 Y0.00 Z3.72
;TYPE:WALL-OUTER
G1 X-0.76 Y4.75 E2.04371
G1 X-6.24 Y4.75 E2.04887
G1 X-8.98 Y0.00 E2.05402
G1 X-6.24 Y-4.75 E2.05918
G1 X-0.76 Y-4.75 E2.06434
G1 X1.98 Y0.00 E2.06950
G0 X1.67 Y-0.05
;LAYER:62
G0 X1.98 Y0.00 Z3.78
;TYPE:WALL-OUTER
G1 X-0.76 Y4.75 E2.07465
G1 X-6.24 Y4.75 E2.07981
G1 X-8.98 Y0.00 E2.08497
G1 X-6.24 Y-4.75 E2.09013
G1 X-0.76 Y-4.75 E2.09528
G1 X1.98 Y0.00 E2.10044
G0 X1.67 Y-0.05
;LAYER:63
G0 X1.98 Y0.00 Z3.84
;TYPE:WALL-OUTER
G1 X-0.76 Y4.75 E2.10560
G1 X-6.24 Y4.75 E2.11075
G1 X-8.98 Y0.00 E2.11591
G1 X-6.24 Y-4.75 E2.12107
G1 X-0.76 Y-4.75 E2.12623
G1 X1.98 Y0.00 E2.13138
G0 X1.67 Y-0.05
;LAYER:64
G0 X1.98 Y0.00 Z3.90
;TYPE:WALL-OUTER
G1 X-0.76 Y4.75 E2.13654
G1 X-6.24 Y4.75 E2.14170
G1 X-8.98 Y0.00 E2.14686
G1 X-6.24 Y-4.75 E2.15201
G1 X-0.76 Y-4.75 E2.15717
G1 X1.98 Y0.00 E2.16233
G0 X1.67 Y-0.05
;LAYER:65
G0 X1.98 Y0.00 Z3.96
;TYPE:WALL-OUTER
G1 X-0.76 Y4.75 E2.16749
G1 X-6.24 Y4.75 E2.17264
G1 X-8.98 Y0.00 E2.17780
G1 X-6.24 Y-4.75 E2.18296
G1 X-0.76 Y-4.75 E2.18811
G1 X1.98 Y0.00 E2.19327
G0 X1.67 Y-0.05
;LAYER:66
G0 X1.98 Y0.00 Z4.02
;TYPE:WALL-OUTER
G1 X-0.76 Y4.75 E2.19843
G1 X-6.24 Y4.75 E2.20359
G1 X-8.98 Y0.00 E2.20875
G1 X-6.24 Y-4.75 E2.21390
G1 X-0.76 Y-4.75 E2.21906
G1 X1.98 Y0.00 E2.22422
G0 X1.67 Y-0.05
;LAYER:67
G0 X1.98 Y0.00 Z4.08
;TYPE:WALL-OUTER
G1 X-0.76 Y4.75 E2.22938
G1 X-6.24 Y4.75 E2.23453
G1 X-8.98 Y0.00 E2.23969
G1 X-6.24 Y-4.75 E2.24485
G1 X-0.76 Y-4.75 E2.25000
G1 X1.98 Y0.00 E2.25516
G0 X1.67 Y-0.05
;LAYER:68
G0 X1.98 Y0.00 Z4.14
;TYPE:WALL-OUTER
G1 X-0.76 Y4.75 E2.26032
G1 X-6.24 Y4.75 E2.26548
G1 X-8.98 Y0.00 E2.27063
G1 X-6.24 Y-4.75 E2.27579
G1 X-0.76 Y-4.75 E2.28095
G1 X1.98 Y0.00 E2.28611
G0 X1.67 Y-0.05
;LAYER:69
G0 X1.98 Y0.00 Z4.20
;TYPE:WALL-OUTER
G1 X-0.76 Y4.75 E2.29126
