;Generated with Cura_SteamEngine 13.11.2


;Layer count: 1414
;LAYER:0
M107
G0 F6000 X3.56 Y-0.82 Z0.01
;TYPE:SKIRT
G1 F6000 E0.00000
G1 X3.56 Y0.82 E0.00026
G1 X2.05 Y3.43 E0.00073
G1 X0.63 Y4.25 E0.00099
G1 X-2.38 Y4.25 E0.00146
G1 X-3.80 Y3.43 E0.00171
G1 X-5.31 Y0.82 E0.00219
G1 X-5.31 Y-0.82 E0.00244
G1 X-3.80 Y-3.43 E0.00292
G1 X-2.38 Y-4.25 E0.00317
G1 X0.64 Y-4.25 E0.00365
G1 X2.05 Y-3.43 E0.00390
G1 X3.56 Y-0.82 E0.00438
G0 X3.76 Y-0.87
G1 X3.76 Y0.87 E0.00465
G1 X2.19 Y3.58 E0.00514
G1 X0.69 Y4.45 E0.00541
G1 X-2.43 Y4.45 E0.00590
G1 X-3.94 Y3.58 E0.00617
G1 X-5.51 Y0.87 E0.00666
G1 X-5.51 Y-0.87 E0.00694
G1 X-3.94 Y-3.58 E0.00743
G1 X-2.44 Y-4.45 E0.00770
G1 X0.69 Y-4.45 E0.00819
G1 X2.20 Y-3.58 E0.00846
G1 X3.76 Y-0.87 E0.00895
G0 X3.96 Y-0.92
G1 X3.96 Y0.93 E0.00924
G1 X2.34 Y3.72 E0.00975
G1 X0.74 Y4.65 E0.01004
G1 X-2.49 Y4.65 E0.01055
G1 X-4.09 Y3.73 E0.01084
G1 X-5.71 Y0.93 E0.01134
G1 X-5.71 Y-0.92 E0.01163
G1 X-4.09 Y-3.72 E0.01214
G1 X-2.49 Y-4.65 E0.01243
G1 X0.74 Y-4.65 E0.01294
G1 X2.34 Y-3.72 E0.01323
G1 X3.96 Y-0.92 E0.01373
G0 X4.06 Y-0.95
G1 X4.06 Y0.95 E0.01403
G1 X2.41 Y3.80 E0.01455
G1 X0.77 Y4.75 E0.01485
G1 X-2.52 Y4.75 E0.01536
G1 X-4.16 Y3.80 E0.01566
G1 X-5.81 Y0.95 E0.01617
G1 X-5.81 Y-0.95 E0.01647
G1 X-4.16 Y-3.80 E0.01699
G1 X-2.52 Y-4.75 E0.01729
G1 X0.77 Y-4.75 E0.01780
G1 X2.42 Y-3.80 E0.01810
G1 X4.06 Y-0.95 E0.01861
G0 X3.66 Y-0.84
G1 X3.66 Y0.84 E0.01888
G1 X2.12 Y3.51 E0.01936
G1 X0.66 Y4.35 E0.01962
G1 X-2.41 Y4.35 E0.02011
G1 X-3.87 Y3.51 E0.02037
G1 X-5.41 Y0.85 E0.02085
G1 X-5.41 Y-0.84 E0.02112
G1 X-3.87 Y-3.51 E0.02160
G1 X-2.41 Y-4.35 E0.02186
G1 X0.66 Y-4.35 E0.02234
G1 X2.12 Y-3.50 E0.02261
G1 X3.66 Y-0.84 E0.02309
G0 X3.86 Y-0.90
G1 X3.86 Y0.90 E0.02337
G1 X2.27 Y3.65 E0.02387
G1 X0.71 Y4.55 E0.02415
G1 X-2.46 Y4.55 E0.02465
G1 X-4.01 Y3.65 E0.02493
G1 X-5.61 Y0.90 E0.02543
G1 X-5.61 Y-0.90 E0.02571
G1 X-4.02 Y-3.65 E0.02621
G1 X-2.46 Y-4.55 E0.02649
G1 X0.72 Y-4.55 E0.02699
G1 X2.27 Y-3.65 E0.02727
G1 X3.86 Y-0.90 E0.02777
G0 X0.30 Y0.04
G0 X0.30 Y-0.04
G0 X0.45 Y0.00
;TYPE:WALL-OUTER
G1 X-0.21 Y1.15 E0.02798
G1 X-1.54 Y1.15 E0.02818
G1 X-2.20 Y0.00 E0.02839
G1 X-1.54 Y-1.15 E0.02860
G1 X-0.21 Y-1.15 E0.02881
G1 X0.45 Y0.00 E0.02902
G0 X0.14 Y-0.05
;LAYER:1
G0 X0.45 Y0.00 Z0.02
;TYPE:WALL-OUTER
G1 X-0.21 Y1.15 E0.02922
G1 X-1.54 Y1.15 E0.02943
G1 X-2.20 Y0.00 E0.02964
G1 X-1.54 Y-1.15 E0.02985
G1 X-0.21 Y-1.15 E0.03006
G1 X0.45 Y0.00 E0.03026
G0 X0.14 Y-0.05
;LAYER:2
G0 X0.45 Y0.00 Z0.03
;TYPE:WALL-OUTER
G1 X-0.21 Y1.15 E0.03047
G1 X-1.54 Y1.15 E0.03068
G1 X-2.20 Y0.00 E0.03089
G1 X-1.54 Y-1.15 E0.03110
G1 X-0.21 Y-1.15 E0.03130
G1 X0.45 Y0.00 E0.03151
G0 X0.14 Y-0.05
;LAYER:3
G0 X0.45 Y0.00 Z0.04
;TYPE:WALL-OUTER
G1 X-0.21 Y1.15 E0.03172
G1 X-1.54 Y1.15 E0.03193
G1 X-2.20 Y0.00 E0.03214
G1 X-1.54 Y-1.15 E0.03234
G1 X-0.21 Y-1.15 E0.03255
G1 X0.45 Y0.00 E0.03276
G0 X0.14 Y-0.05
;LAYER:4
G0 X0.45 Y0.00 Z0.05
;TYPE:WALL-OUTER
G1 X-0.21 Y1.15 E0.03297
G1 X-1.54 Y1.15 E0.03318
G1 X-2.20 Y0.00 E0.03338
G1 X-1.54 Y-1.15 E0.03359
G1 X-0.21 Y-1.15 E0.03380
G1 X0.45 Y0.00 E0.03401
G0 X0.14 Y-0.05
;LAYER:5
G0 X0.45 Y0.00 Z0.06
;TYPE:WALL-OUTER
G1 X-0.21 Y1.15 E0.03422
G1 X-1.54 Y1.15 E0.03442
G1 X-2.20 Y0.00 E0.03463
G1 X-1.54 Y-1.15 E0.03484
G1 X-0.21 Y-1.15 E0.03505
G1 X0.45 Y0.00 E0.03526
G0 X0.14 Y-0.05
;LAYER:6
G0 X0.45 Y0.00 Z0.07
;TYPE:WALL-OUTER
G1 X-0.21 Y1.15 E0.03547
G1 X-1.54 Y1.15 E0.03567
G1 X-2.20 Y0.00 E0.03588
G1 X-1.54 Y-1.15 E0.03609
G1 X-0.21 Y-1.15 E0.03630
G1 X0.45 Y0.00 E0.03650
G0 X0.14 Y-0.05
;LAYER:7
G0 X0.45 Y0.00 Z0.08
;TYPE:WALL-OUTER
G1 X-0.21 Y1.15 E0.03671
G1 X-1.54 Y1.15 E0.03692
G1 X-2.20 Y0.00 E0.03713
G1 X-1.54 Y-1.15 E0.03734
G1 X-0.21 Y-1.15 E0.03754
G1 X0.45 Y0.00 E0.03775
G0 X0.14 Y-0.05
;LAYER:8
G0 X0.45 Y0.00 Z0.09
;TYPE:WALL-OUTER
G1 X-0.21 Y1.15 E0.03796
G1 X-1.54 Y1.15 E0.03817
G1 X-2.20 Y0.00 E0.03838
G1 X-1.54 Y-1.15 E0.03859
G1 X-0.21 Y-1.15 E0.03879
G1 X0.45 Y0.00 E0.03900
G0 X0.14 Y-0.05
;LAYER:9
G0 X0.45 Y0.00 Z0.10
;TYPE:WALL-OUTER
G1 X-0.21 Y1.15 E0.03921
G1 X-1.54 Y1.15 E0.03942
G1 X-2.20 Y0.00 E0.03963
G1 X-1.54 Y-1.15 E0.03983
G1 X-0.21 Y-1.15 E0.04004
G1 X0.45 Y0.00 E0.04025
G0 X0.14 Y-0.05
;LAYER:10
G0 X0.45 Y0.00 Z0.11
;TYPE:WALL-OUTER
G1 X-0.21 Y1.15 E0.04046
G1 X-1.54 Y1.15 E0.04066
G1 X-2.20 Y0.00 E0.04087
G1 X-1.54 Y-1.15 E0.04108
G1 X-0.21 Y-1.15 E0.04129
G1 X0.45 Y0.00 E0.04150
G0 X0.14 Y-0.05
;LAYER:11
G0 X0.45 Y0.00 Z0.12
;TYPE:WALL-OUTER
G1 X-0.21 Y1.15 E0.04171
G1 X-1.54 Y1.15 E0.04191
G1 X-2.20 Y0.00 E0.04212
G1 X-1.54 Y-1.15 E0.04233
G1 X-0.21 Y-1.15 E0.04254
G1 X0.45 Y0.00 E0.04275
G0 X0.14 Y-0.05
;LAYER:12
G0 X0.45 Y0.00 Z0.13
;TYPE:WALL-OUTER
G1 X-0.21 Y1.15 E0.04295
G1 X-1.54 Y1.15 E0.04316
G1 X-2.20 Y0.00 E0.04337
G1 X-1.54 Y-1.15 E0.04358
G1 X-0.21 Y-1.15 E0.04379
G1 X0.45 Y0.00 E0.04399
G0 X0.14 Y-0.05
;LAYER:13
G0 X0.45 Y0.00 Z0.14
;TYPE:WALL-OUTER
G1 X-0.21 Y1.15 E0.04420
G1 X-1.54 Y1.15 E0.04441
G1 X-2.20 Y0.00 E0.04462
G1 X-1.54 Y-1.15 E0.04483
G1 X-0.21 Y-1.15 E0.04503
G1 X0.45 Y0.00 E0.04524
G0 X0.14 Y-0.05
;LAYER:14
G0 X0.45 Y0.00 Z0.15
;TYPE:WALL-OUTER
G1 X-0.21 Y1.15 E0.04545
G1 X-1.54 Y1.15 E0.04566
G1 X-2.20 Y0.00 E0.04587
G1 X-1.54 Y-1.15 E0.04607
G1 X-0.21 Y-1.15 E0.04628
G1 X0.45 Y0.00 E0.04649
G0 X0.14 Y-0.05
;LAYER:15
G0 X0.45 Y0.00 Z0.16
;TYPE:WALL-OUTER
G1 X-0.21 Y1.15 E0.04670
G1 X-1.54 Y1.15 E0.04691
G1 X-2.20 Y0.00 E0.04711
G1 X-1.54 Y-1.15 E0.04732
G1 X-0.21 Y-1.15 E0.04753
G1 X0.45 Y0.00 E0.04774
G0 X0.14 Y-0.05
;LAYER:16
G0 X0.45 Y0.00 Z0.17
;TYPE:WALL-OUTER
G1 X-0.21 Y1.15 E0.04795
G1 X-1.54 Y1.15 E0.04815
G1 X-2.20 Y0.00 E0.04836
G1 X-1.54 Y-1.15 E0.04857
G1 X-0.21 Y-1.15 E0.04878
G1 X0.45 Y0.00 E0.04899
G0 X0.14 Y-0.05
;LAYER:17
G0 X0.45 Y0.00 Z0.18
;TYPE:WALL-OUTER
G1 X-0.21 Y1.15 E0.04919
G1 X-1.54 Y1.15 E0.04940
G1 X-2.20 Y0.00 E0.04961
G1 X-1.54 Y-1.15 E0.04982
G1 X-0.21 Y-1.15 E0.05003
G1 X0.45 Y0.00 E0.05023
G0 X0.14 Y-0.05
;LAYER:18
G0 X0.45 Y0.00 Z0.19
;TYPE:WALL-OUTER
G1 X-0.21 Y1.15 E0.05044
G1 X-1.54 Y1.15 E0.05065
G1 X-2.20 Y0.00 E0.05086
G1 X-1.54 Y-1.15 E0.05107
G1 X-0.21 Y-1.15 E0.05127
G1 X0.45 Y0.00 E0.05148
G0 X0.14 Y-0.05
;LAYER:19
G0 X0.45 Y0.00 Z0.20
;TYPE:WALL-OUTER
G1 X-0.21 Y1.15 E0.05169
G1 X-1.54 Y1.15 E0.05190
G1 X-2.20 Y0.00 E0.05211
G1 X-1.54 Y-1.15 E0.05231
G1 X-0.21 Y-1.15 E0.05252
G1 X0.45 Y0.00 E0.05273
G0 X0.14 Y-0.05
;LAYER:20
G0 X0.45 Y0.00 Z0.21
;TYPE:WALL-OUTER
G1 X-0.21 Y1.15 E0.05294
G1 X-1.54 Y1.15 E0.05315
G1 X-2.20 Y0.00 E0.05335
G1 X-1.54 Y-1.15 E0.05356
G1 X-0.21 Y-1.15 E0.05377
G1 X0.45 Y0.00 E0.05398
G0 X0.14 Y-0.05
;LAYER:21
G0 X0.45 Y0.00 Z0.22
;TYPE:WALL-OUTER
G1 X-0.21 Y1.15 E0.05419
G1 X-1.54 Y1.15 E0.05439
G1 X-2.20 Y0.00 E0.05460
G1 X-1.54 Y-1.15 E0.05481
G1 X-0.21 Y-1.15 E0.05502
G1 X0.45 Y0.00 E0.05523
G0 X0.14 Y-0.05
;LAYER:22
G0 X0.45 Y0.00 Z0.23
;TYPE:WALL-OUTER
G1 X-0.21 Y1.15 E0.05543
G1 X-1.54 Y1.15 E0.05564
G1 X-2.20 Y0.00 E0.05585
G1 X-1.54 Y-1.15 E0.05606
G1 X-0.21 Y-1.15 E0.05627
G1 X0.45 Y0.00 E0.05647
G0 X0.14 Y-0.05
;LAYER:23
G0 X0.45 Y0.00 Z0.24
;TYPE:WALL-OUTER
G1 X-0.21 Y1.15 E0.05668
G1 X-1.54 Y1.15 E0.05689
G1 X-2.20 Y0.00 E0.05710
G1 X-1.54 Y-1.15 E0.05731
G1 X-0.21 Y-1.15 E0.05751
G1 X0.45 Y0.00 E0.05772
G0 X0.14 Y-0.05
;LAYER:24
G0 X0.45 Y0.00 Z0.25
;TYPE:WALL-OUTER
G1 X-0.21 Y1.15 E0.05793
G1 X-1.54 Y1.15 E0.05814
G1 X-2.20 Y0.00 E0.05835
G1 X-1.54 Y-1.15 E0.05855
G1 X-0.21 Y-1.15 E0.05876
G1 X0.45 Y0.00 E0.05897
G0 X0.14 Y-0.05
;LAYER:25
G0 X0.45 Y0.00 Z0.26
;TYPE:WALL-OUTER
G1 X-0.21 Y1.15 E0.05918
G1 X-1.54 Y1.15 E0.05939
G1 X-2.20 Y0.00 E0.05959
G1 X-1.54 Y-1.15 E0.05980
G1 X-0.21 Y-1.15 E0.06001
G1 X0.45 Y0.00 E0.06022
G0 X0.14 Y-0.05
;LAYER:26
G0 X0.45 Y0.00 Z0.27
;TYPE:WALL-OUTER
G1 X-0.21 Y1.15 E0.06043
G1 X-1.54 Y1.15 E0.06063
G1 X-2.20 Y0.00 E0.06084
G1 X-1.54 Y-1.15 E0.06105
G1 X-0.21 Y-1.15 E0.06126
G1 X0.45 Y0.00 E0.06147
G0 X0.14 Y-0.05
;LAYER:27
G0 X0.45 Y0.00 Z0.28
;TYPE:WALL-OUTER
G1 X-0.21 Y1.15 E0.06167
G1 X-1.54 Y1.15 E0.06188
G1 X-2.20 Y0.00 E0.06209
G1 X-1.54 Y-1.15 E0.06230
G1 X-0.21 Y-1.15 E0.06251
G1 X0.45 Y0.00 E0.06271
G0 X0.14 Y-0.05
;LAYER:28
G0 X0.45 Y0.00 Z0.29
;TYPE:WALL-OUTER
G1 X-0.21 Y1.15 E0.06292
G1 X-1.54 Y1.15 E0.06313
G1 X-2.20 Y0.00 E0.06334
G1 X-1.54 Y-1.15 E0.06355
G1 X-0.21 Y-1.15 E0.06375
G1 X0.45 Y0.00 E0.06396
G0 X0.14 Y-0.05
;LAYER:29
G0 X0.45 Y0.00 Z0.30
;TYPE:WALL-OUTER
G1 X-0.21 Y1.15 E0.06417
G1 X-1.54 Y1.15 E0.06438
G1 X-2.20 Y0.00 E0.06459
G1 X-1.54 Y-1.15 E0.06479
G1 X-0.21 Y-1.15 E0.06500
G1 X0.45 Y0.00 E0.06521
G0 X0.14 Y-0.05
;LAYER:30
G0 X0.45 Y0.00 Z0.31
;TYPE:WALL-OUTER
G1 X-0.21 Y1.15 E0.06542
G1 X-1.54 Y1.15 E0.06563
G1 X-2.20 Y0.00 E0.06583
G1 X-1.54 Y-1.15 E0.06604
G1 X-0.21 Y-1.15 E0.06625
G1 X0.45 Y0.00 E0.06646
G0 X0.14 Y-0.05
;LAYER:31
G0 X0.45 Y0.00 Z0.32
;TYPE:WALL-OUTER
G1 X-0.21 Y1.15 E0.06667
G1 X-1.54 Y1.15 E0.06687
G1 X-2.20 Y0.00 E0.06708
G1 X-1.54 Y-1.15 E0.06729
G1 X-0.21 Y-1.15 E0.06750
G1 X0.45 Y0.00 E0.06771
G0 X0.14 Y-0.05
;LAYER:32
G0 X0.45 Y0.00 Z0.33
;TYPE:WALL-OUTER
G1 X-0.21 Y1.15 E0.06791
G1 X-1.54 Y1.15 E0.06812
G1 X-2.20 Y0.00 E0.06833
G1 X-1.54 Y-1.15 E0.06854
G1 X-0.21 Y-1.15 E0.06875
G1 X0.45 Y0.00 E0.06895
G0 X0.14 Y-0.05
;LAYER:33
G0 X0.45 Y0.00 Z0.34
;TYPE:WALL-OUTER
G1 X-0.21 Y1.15 E0.06916
G1 X-1.54 Y1.15 E0.06937
G1 X-2.20 Y0.00 E0.06958
G1 X-1.54 Y-1.15 E0.06979
G1 X-0.21 Y-1.15 E0.06999
G1 X0.45 Y0.00 E0.07020
G0 X0.14 Y-0.05
;LAYER:34
G0 X0.45 Y0.00 Z0.35
;TYPE:WALL-OUTER
G1 X-0.21 Y1.15 E0.07041
G1 X-1.54 Y1.15 E0.07062
G1 X-2.20 Y0.00 E0.07083
G1 X-1.54 Y-1.15 E0.07103
G1 X-0.21 Y-1.15 E0.07124
G1 X0.45 Y0.00 E0.07145
G0 X0.14 Y-0.05
;LAYER:35
G0 X0.45 Y0.00 Z0.36
;TYPE:WALL-OUTER
G1 X-0.21 Y1.15 E0.07166
G1 X-1.54 Y1.15 E0.07187
G1 X-2.20 Y0.00 E0.07207
G1 X-1.54 Y-1.15 E0.07228
G1 X-0.21 Y-1.15 E0.07249
G1 X0.45 Y0.00 E0.07270
G0 X0.14 Y-0.05
;LAYER:36
G0 X0.45 Y0.00 Z0.37
;TYPE:WALL-OUTER
G1 X-0.21 Y1.15 E0.07291
G1 X-1.54 Y1.15 E0.07311
G1 X-2.20 Y0.00 E0.07332
G1 X-1.54 Y-1.15 E0.07353
G1 X-0.21 Y-1.15 E0.07374
G1 X0.45 Y0.00 E0.07395
G0 X0.14 Y-0.05
;LAYER:37
G0 X0.45 Y0.00 Z0.38
;TYPE:WALL-OUTER
G1 X-0.21 Y1.15 E0.07415
G1 X-1.54 Y1.15 E0.07436
G1 X-2.20 Y0.00 E0.07457
G1 X-1.54 Y-1.15 E0.07478
G1 X-0.21 Y-1.15 E0.07499
G1 X0.45 Y0.00 E0.07519
G0 X0.14 Y-0.05
;LAYER:38
G0 X0.45 Y0.00 Z0.39
;TYPE:WALL-OUTER
G1 X-0.21 Y1.15 E0.07540
G1 X-1.54 Y1.15 E0.07561
G1 X-2.20 Y0.00 E0.07582
G1 X-1.54 Y-1.15 E0.07603
G1 X-0.21 Y-1.15 E0.07623
G1 X0.45 Y0.00 E0.07644
G0 X0.14 Y-0.05
;LAYER:39
G0 X0.45 Y0.00 Z0.40
;TYPE:WALL-OUTER
G1 X-0.21 Y1.15 E0.07665
G1 X-1.54 Y1.15 E0.07686
G1 X-2.20 Y0.00 E0.07707
G1 X-1.54 Y-1.15 E0.07727
G1 X-0.21 Y-1.15 E0.07748
G1 X0.45 Y0.00 E0.07769
G0 X0.14 Y-0.05
;LAYER:40
G0 X0.45 Y0.00 Z0.41
;TYPE:WALL-OUTER
G1 X-0.21 Y1.15 E0.07790
G1 X-1.54 Y1.15 E0.07811
G1 X-2.20 Y0.00 E0.07831
G1 X-1.54 Y-1.15 E0.07852
G1 X-0.21 Y-1.15 E0.07873
G1 X0.45 Y0.00 E0.07894
G0 X0.14 Y-0.05
;LAYER:41
G0 X0.45 Y0.00 Z0.42
;TYPE:WALL-OUTER
G1 X-0.21 Y1.15 E0.07915
G1 X-1.54 Y1.15 E0.07935
G1 X-2.20 Y0.00 E0.07956
G1 X-1.54 Y-1.15 E0.07977
G1 X-0.21 Y-1.15 E0.07998
G1 X0.45 Y0.00 E0.08019
G0 X0.14 Y-0.05
;LAYER:42
G0 X0.45 Y0.00 Z0.43
;TYPE:WALL-OUTER
G1 X-0.21 Y1.15 E0.08039
G1 X-1.54 Y1.15 E0.08060
G1 X-2.20 Y0.00 E0.08081
G1 X-1.54 Y-1.15 E0.08102
G1 X-0.21 Y-1.15 E0.08123
G1 X0.45 Y0.00 E0.08143
G0 X0.14 Y-0.05
;LAYER:43
G0 X0.45 Y0.00 Z0.44
;TYPE:WALL-OUTER
G1 X-0.21 Y1.15 E0.08164
G1 X-1.54 Y1.15 E0.08185
G1 X-2.20 Y0.00 E0.08206
G1 X-1.54 Y-1.15 E0.08227
G1 X-0.21 Y-1.15 E0.08247
G1 X0.45 Y0.00 E0.08268
G0 X0.14 Y-0.05
;LAYER:44
G0 X0.45 Y0.00 Z0.45
;TYPE:WALL-OUTER
G1 X-0.21 Y1.15 E0.08289
G1 X-1.54 Y1.15 E0.08310
G1 X-2.20 Y0.00 E0.08331
G1 X-1.54 Y-1.15 E0.08351
G1 X-0.21 Y-1.15 E0.08372
G1 X0.45 Y0.00 E0.08393
G0 X0.14 Y-0.05
;LAYER:45
G0 X0.45 Y0.00 Z0.46
;TYPE:WALL-OUTER
G1 X-0.21 Y1.15 E0.08414
G1 X-1.54 Y1.15 E0.08435
G1 X-2.20 Y0.00 E0.08455
G1 X-1.54 Y-1.15 E0.08476
G1 X-0.21 Y-1.15 E0.08497
G1 X0.45 Y0.00 E0.08518
G0 X0.14 Y-0.05
;LAYER:46
G0 X0.45 Y0.00 Z0.47
;TYPE:WALL-OUTER
G1 X-0.21 Y1.15 E0.08539
G1 X-1.54 Y1.15 E0.08559
G1 X-2.20 Y0.00 E0.08580
G1 X-1.54 Y-1.15 E0.08601
G1 X-0.21 Y-1.15 E0.08622
G1 X0.45 Y0.00 E0.08643
G0 X0.14 Y-0.05
;LAYER:47
G0 X0.45 Y0.00 Z0.48
;TYPE:WALL-OUTER
G1 X-0.21 Y1.15 E0.08663
G1 X-1.54 Y1.15 E0.08684
G1 X-2.20 Y0.00 E0.08705
G1 X-1.54 Y-1.15 E0.08726
G1 X-0.21 Y-1.15 E0.08747
G1 X0.45 Y0.00 E0.08767
G0 X0.14 Y-0.05
;LAYER:48
G0 X0.45 Y0.00 Z0.49
;TYPE:WALL-OUTER
G1 X-0.21 Y1.15 E0.08788
G1 X-1.54 Y1.15 E0.08809
G1 X-2.20 Y0.00 E0.08830
G1 X-1.54 Y-1.15 E0.08851
G1 X-0.21 Y-1.15 E0.08871
G1 X0.45 Y0.00 E0.08892
G0 X0.14 Y-0.05
;LAYER:49
G0 X0.45 Y0.00 Z0.50
;TYPE:WALL-OUTER
G1 X-0.21 Y1.15 E0.08913
G1 X-1.54 Y1.15 E0.08934
G1 X-2.20 Y0.00 E0.08955
G1 X-1.54 Y-1.15 E0.08975
G1 X-0.21 Y-1.15 E0.08996
G1 X0.45 Y0.00 E0.09017
G0 X0.14 Y-0.05
;LAYER:50
G0 X0.45 Y0.00 Z0.51
;TYPE:WALL-OUTER
G1 X-0.21 Y1.15 E0.09038
G1 X-1.54 Y1.15 E0.09059
G1 X-2.20 Y0.00 E0.09079
G1 X-1.54 Y-1.15 E0.09100
G1 X-0.21 Y-1.15 E0.09121
G1 X0.45 Y0.00 E0.09142
G0 X0.14 Y-0.05
;LAYER:51
G0 X0.45 Y0.00 Z0.52
;TYPE:WALL-OUTER
G1 X-0.21 Y1.15 E0.09163
G1 X-1.54 Y1.15 E0.09183
G1 X-2.20 Y0.00 E0.09204
G1 X-1.54 Y-1.15 E0.09225
G1 X-0.21 Y-1.15 E0.09246
G1 X0.45 Y0.00 E0.09267
G0 X0.14 Y-0.05
;LAYER:52
G0 X0.45 Y0.00 Z0.53
;TYPE:WALL-OUTER
G1 X-0.21 Y1.15 E0.09287
G1 X-1.54 Y1.15 E0.09308
G1 X-2.20 Y0.00 E0.09329
G1 X-1.54 Y-1.15 E0.09350
G1 X-0.21 Y-1.15 E0.09371
G1 X0.45 Y0.00 E0.09391
G0 X0.14 Y-0.05
;LAYER:53
G0 X0.45 Y0.00 Z0.54
;TYPE:WALL-OUTER
G1 X-0.21 Y1.15 E0.09412
G1 X-1.54 Y1.15 E0.09433
G1 X-2.20 Y0.00 E0.09454
G1 X-1.54 Y-1.15 E0.09475
G1 X-0.21 Y-1.15 E0.09495
G1 X0.45 Y0.00 E0.09516
G0 X0.14 Y-0.05
;LAYER:54
G0 X0.45 Y0.00 Z0.55
;TYPE:WALL-OUTER
G1 X-0.21 Y1.15 E0.09537
G1 X-1.54 Y1.15 E0.09558
G1 X-2.20 Y0.00 E0.09579
G1 X-1.54 Y-1.15 E0.09599
G1 X-0.21 Y-1.15 E0.09620
G1 X0.45 Y0.00 E0.09641
G0 X0.14 Y-0.05
;LAYER:55
G0 X0.45 Y0.00 Z0.56
;TYPE:WALL-OUTER
G1 X-0.21 Y1.15 E0.09662
G1 X-1.54 Y1.15 E0.09683
G1 X-2.20 Y0.00 E0.09703
G1 X-1.54 Y-1.15 E0.09724
G1 X-0.21 Y-1.15 E0.09745
G1 X0.45 Y0.00 E0.09766
G0 X0.14 Y-0.05
;LAYER:56
G0 X0.45 Y0.00 Z0.57
;TYPE:WALL-OUTER
G1 X-0.21 Y1.15 E0.09787
G1 X-1.54 Y1.15 E0.09807
G1 X-2.20 Y0.00 E0.09828
G1 X-1.54 Y-1.15 E0.09849
G1 X-0.21 Y-1.15 E0.09870
G1 X0.45 Y0.00 E0.09891
G0 X0.14 Y-0.05
;LAYER:57
G0 X0.45 Y0.00 Z0.58
;TYPE:WALL-OUTER
G1 X-0.21 Y1.15 E0.09911
G1 X-1.54 Y1.15 E0.09932
G1 X-2.20 Y0.00 E0.09953
G1 X-1.54 Y-1.15 E0.09974
G1 X-0.21 Y-1.15 E0.09995
G1 X0.45 Y0.00 E0.10015
G0 X0.14 Y-0.05
;LAYER:58
G0 X0.45 Y0.00 Z0.59
;TYPE:WALL-OUTER
G1 X-0.21 Y1.15 E0.10036
G1 X-1.54 Y1.15 E0.10057
G1 X-2.20 Y0.00 E0.10078
G1 X-1.54 Y-1.15 E0.10099
G1 X-0.21 Y-1.15 E0.10119
G1 X0.45 Y0.00 E0.10140
G0 X0.14 Y-0.05
;LAYER:59
G0 X0.45 Y0.00 Z0.60
;TYPE:WALL-OUTER
G1 X-0.21 Y1.15 E0.10161
G1 X-1.54 Y1.15 E0.10182
G1 X-2.20 Y0.00 E0.10203
G1 X-1.54 Y-1.15 E0.10223
G1 X-0.21 Y-1.15 E0.10244
G1 X0.45 Y0.00 E0.10265
G0 X0.14 Y-0.05
;LAYER:60
G0 X0.45 Y0.00 Z0.61
;TYPE:WALL-OUTER
G1 X-0.21 Y1.15 E0.10286
G1 X-1.54 Y1.15 E0.10307
G1 X-2.20 Y0.00 E0.10327
G1 X-1.54 Y-1.15 E0.10348
G1 X-0.21 Y-1.15 E0.10369
G1 X0.45 Y0.00 E0.10390
G0 X0.14 Y-0.05
;LAYER:61
G0 X0.45 Y0.00 Z0.62
;TYPE:WALL-OUTER
G1 X-0.21 Y1.15 E0.10411
G1 X-1.54 Y1.15 E0.10431
G1 X-2.20 Y0.00 E0.10452
G1 X-1.54 Y-1.15 E0.10473
G1 X-0.21 Y-1.15 E0.10494
G1 X0.45 Y0.00 E0.10515
G0 X0.14 Y-0.05
;LAYER:62
G0 X0.45 Y0.00 Z0.63
;TYPE:WALL-OUTER
G1 X-0.21 Y1.15 E0.10535
G1 X-1.54 Y1.15 E0.10556
G1 X-2.20 Y0.00 E0.10577
G1 X-1.54 Y-1.15 E0.10598
G1 X-0.21 Y-1.15 E0.10619
G1 X0.45 Y0.00 E0.10639
G0 X0.14 Y-0.05
;LAYER:63
G0 X0.45 Y0.00 Z0.64
;TYPE:WALL-OUTER
G1 X-0.21 Y1.15 E0.10660
G1 X-1.54 Y1.15 E0.10681
G1 X-2.20 Y0.00 E0.10702
G1 X-1.54 Y-1.15 E0.10723
G1 X-0.21 Y-1.15 E0.10743
G1 X0.45 Y0.00 E0.10764
G0 X0.14 Y-0.05
;LAYER:64
G0 X0.45 Y0.00 Z0.65
;TYPE:WALL-OUTER
G1 X-0.21 Y1.15 E0.10785
G1 X-1.54 Y1.15 E0.10806
G1 X-2.20 Y0.00 E0.10827
G1 X-1.54 Y-1.15 E0.10847
G1 X-0.21 Y-1.15 E0.10868
G1 X0.45 Y0.00 E0.10889
G0 X0.14 Y-0.05
