;Generated with Cura_SteamEngine 13.11.2


;Layer count: 5655
;LAYER:0
M107
G0 F6000 X5.09 Y-0.82 Z0.01
;TYPE:SKIRT
G1 F6000 E0.00000
G1 X5.09 Y0.82 E0.00026
G1 X1.50 Y7.03 E0.00138
G1 X0.09 Y7.85 E0.00164
G1 X-7.09 Y7.85 E0.00276
G1 X-8.50 Y7.03 E0.00302
G1 X-12.09 Y0.82 E0.00414
G1 X-12.09 Y-0.82 E0.00440
G1 X-8.50 Y-7.03 E0.00552
G1 X-7.09 Y-7.85 E0.00578
G1 X0.09 Y-7.85 E0.00690
G1 X1.50 Y-7.03 E0.00716
G1 X5.09 Y-0.82 E0.00829
G0 X5.19 Y-0.84
G1 X5.19 Y0.84 E0.00855
G1 X1.58 Y7.10 E0.00968
G1 X0.11 Y7.95 E0.00995
G1 X-7.11 Y7.95 E0.01108
G1 X-8.57 Y7.10 E0.01135
G1 X-12.19 Y0.84 E0.01248
G1 X-12.19 Y-0.84 E0.01274
G1 X-8.57 Y-7.11 E0.01388
G1 X-7.11 Y-7.95 E0.01414
G1 X0.12 Y-7.95 E0.01527
G1 X1.58 Y-7.10 E0.01554
G1 X5.19 Y-0.84 E0.01667
G0 X5.29 Y-0.87
G1 X5.29 Y0.87 E0.01694
G1 X1.65 Y7.18 E0.01809
G1 X0.14 Y8.05 E0.01836
G1 X-7.14 Y8.05 E0.01950
G1 X-8.65 Y7.18 E0.01977
G1 X-12.29 Y0.87 E0.02092
G1 X-12.29 Y-0.87 E0.02119
G1 X-8.65 Y-7.18 E0.02233
G1 X-7.14 Y-8.05 E0.02260
G1 X0.14 Y-8.05 E0.02374
G1 X1.65 Y-7.18 E0.02402
G1 X5.29 Y-0.87 E0.02516
G0 X1.83 Y0.04
G0 X1.83 Y-0.04
G0 X1.98 Y0.00
;TYPE:WALL-OUTER
G1 X-0.76 Y4.75 E0.02602
G1 X-6.24 Y4.75 E0.02688
G1 X-8.98 Y0.00 E0.02774
G1 X-6.24 Y-4.75 E0.02860
G1 X-0.76 Y-4.75 E0.02946
G1 X1.98 Y0.00 E0.03032
G0 X1.67 Y-0.05
;LAYER:1
G0 X1.98 Y0.00 Z0.02
;TYPE:WALL-OUTER
G1 X-0.76 Y4.75 E0.03118
G1 X-6.24 Y4.75 E0.03204
G1 X-8.98 Y0.00 E0.03289
G1 X-6.24 Y-4.75 E0.03375
G1 X-0.76 Y-4.75 E0.03461
G1 X1.98 Y0.00 E0.03547
G0 X1.67 Y-0.05
;LAYER:2
G0 X1.98 Y0.00 Z0.03
;TYPE:WALL-OUTER
G1 X-0.76 Y4.75 E0.03633
G1 X-6.24 Y4.75 E0.03719
G1 X-8.98 Y0.00 E0.03805
G1 X-6.24 Y-4.75 E0.03891
G1 X-0.76 Y-4.75 E0.03977
G1 X1.98 Y0.00 E0.04063
G0 X1.67 Y-0.05
;LAYER:3
G0 X1.98 Y0.00 Z0.04
;TYPE:WALL-OUTER
G1 X-0.76 Y4.75 E0.04149
G1 X-6.24 Y4.75 E0.04235
G1 X-8.98 Y0.00 E0.04321
G1 X-6.24 Y-4.75 E0.04407
G1 X-0.76 Y-4.75 E0.04493
G1 X1.98 Y0.00 E0.04579
G0 X1.67 Y-0.05
;LAYER:4
G0 X1.98 Y0.00 Z0.05
;TYPE:WALL-OUTER
G1 X-0.76 Y4.75 E0.04665
G1 X-6.24 Y4.75 E0.04751
G1 X-8.98 Y0.00 E0.04837
G1 X-6.24 Y-4.75 E0.04923
G1 X-0.76 Y-4.75 E0.05009
G1 X1.98 Y0.00 E0.05095
G0 X1.67 Y-0.05
;LAYER:5
G0 X1.98 Y0.00 Z0.06
;TYPE:WALL-OUTER
G1 X-0.76 Y4.75 E0.05181
G1 X-6.24 Y4.75 E0.05266
G1 X-8.98 Y0.00 E0.05352
G1 X-6.24 Y-4.75 E0.05438
G1 X-0.76 Y-4.75 E0.05524
G1 X1.98 Y0.00 E0.05610
G0 X1.67 Y-0.05
;LAYER:6
G0 X1.98 Y0.00 Z0.07
;TYPE:WALL-OUTER
G1 X-0.76 Y4.75 E0.05696
G1 X-6.24 Y4.75 E0.05782
G1 X-8.98 Y0.00 E0.05868
G1 X-6.24 Y-4.75 E0.05954
G1 X-0.76 Y-4.75 E0.06040
G1 X1.98 Y0.00 E0.06126
G0 X1.67 Y-0.05
;LAYER:7
G0 X1.98 Y0.00 Z0.08
;TYPE:WALL-OUTER
G1 X-0.76 Y4.75 E0.06212
G1 X-6.24 Y4.75 E0.06298
G1 X-8.98 Y0.00 E0.06384
G1 X-6.24 Y-4.75 E0.06470
G1 X-0.76 Y-4.75 E0.06556
G1 X1.98 Y0.00 E0.06642
G0 X1.67 Y-0.05
;LAYER:8
G0 X1.98 Y0.00 Z0.09
;TYPE:WALL-OUTER
G1 X-0.76 Y4.75 E0.06728
G1 X-6.24 Y4.75 E0.06814
G1 X-8.98 Y0.00 E0.06900
G1 X-6.24 Y-4.75 E0.06986
G1 X-0.76 Y-4.75 E0.07072
G1 X1.98 Y0.00 E0.07158
G0 X1.67 Y-0.05
;LAYER:9
G0 X1.98 Y0.00 Z0.10
;TYPE:WALL-OUTER
G1 X-0.76 Y4.75 E0.07244
G1 X-6.24 Y4.75 E0.07329
G1 X-8.98 Y0.00 E0.07415
G1 X-6.24 Y-4.75 E0.07501
G1 X-0.76 Y-4.75 E0.07587
G1 X1.98 Y0.00 E0.07673
G0 X1.67 Y-0.05
;LAYER:10
G0 X1.98 Y0.00 Z0.11
;TYPE:WALL-OUTER
G1 X-0.76 Y4.75 E0.07759
G1 X-6.24 Y4.75 E0.07845
G1 X-8.98 Y0.00 E0.07931
G1 X-6.24 Y-4.75 E0.08017
G1 X-0.76 Y-4.75 E0.08103
G1 X1.98 Y0.00 E0.08189
G0 X1.67 Y-0.05
;LAYER:11
G0 X1.98 Y0.00 Z0.12
;TYPE:WALL-OUTER
G1 X-0.76 Y4.75 E0.08275
G1 X-6.24 Y4.75 E0.08361
G1 X-8.98 Y0.00 E0.08447
G1 X-6.24 Y-4.75 E0.08533
G1 X-0.76 Y-4.75 E0.08619
G1 X1.98 Y0.00 E0.08705
G0 X1.67 Y-0.05
;LAYER:12
G0 X1.98 Y0.00 Z0.13
;TYPE:WALL-OUTER
G1 X-0.76 Y4.75 E0.08791
G1 X-6.24 Y4.75 E0.08877
G1 X-8.98 Y0.00 E0.08963
G1 X-6.24 Y-4.75 E0.09049
G1 X-0.76 Y-4.75 E0.09135
G1 X1.98 Y0.00 E0.09220
G0 X1.67 Y-0.05
;LAYER:13
G0 X1.98 Y0.00 Z0.14
;TYPE:WALL-OUTER
G1 X-0.76 Y4.75 E0.09306
G1 X-6.24 Y4.75 E0.09392
G1 X-8.98 Y0.00 E0.09478
G1 X-6.24 Y-4.75 E0.09564
G1 X-0.76 Y-4.75 E0.09650
G1 X1.98 Y0.00 E0.09736
G0 X1.67 Y-0.05
;LAYER:14
G0 X1.98 Y0.00 Z0.15
;TYPE:WALL-OUTER
G1 X-0.76 Y4.75 E0.09822
G1 X-6.24 Y4.75 E0.09908
G1 X-8.98 Y0.00 E0.09994
G1 X-6.24 Y-4.75 E0.10080
G1 X-0.76 Y-4.75 E0.10166
G1 X1.98 Y0.00 E0.10252
G0 X1.67 Y-0.05
;LAYER:15
G0 X1.98 Y0.00 Z0.16
;TYPE:WALL-OUTER
G1 X-0.76 Y4.75 E0.10338
G1 X-6.24 Y4.75 E0.10424
G1 X-8.98 Y0.00 E0.10510
G1 X-6.24 Y-4.75 E0.10596
G1 X-0.76 Y-4.75 E0.10682
G1 X1.98 Y0.00 E0.10768
G0 X1.67 Y-0.05
;LAYER:16
G0 X1.98 Y0.00 Z0.17
;TYPE:WALL-OUTER
G1 X-0.76 Y4.75 E0.10854
G1 X-6.24 Y4.75 E0.10940
G1 X-8.98 Y0.00 E0.11026
G1 X-6.24 Y-4.75 E0.11112
G1 X-0.76 Y-4.75 E0.11197
G1 X1.98 Y0.00 E0.11283
G0 X1.67 Y-0.05
;LAYER:17
G0 X1.98 Y0.00 Z0.18
;TYPE:WALL-OUTER
G1 X-0.76 Y4.75 E0.11369
G1 X-6.24 Y4.75 E0.11455
G1 X-8.98 Y0.00 E0.11541
G1 X-6.24 Y-4.75 E0.11627
G1 X-0.76 Y-4.75 E0.11713
G1 X1.98 Y0.00 E0.11799
G0 X1.67 Y-0.05
;LAYER:18
G0 X1.98 Y0.00 Z0.19
;TYPE:WALL-OUTER
G1 X-0.76 Y4.75 E0.11885
G1 X-6.24 Y4.75 E0.11971
G1 X-8.98 Y0.00 E0.12057
G1 X-6.24 Y-4.75 E0.12143
G1 X-0.76 Y-4.75 E0.12229
G1 X1.98 Y0.00 E0.12315
G0 X1.67 Y-0.05
;LAYER:19
G0 X1.98 Y0.00 Z0.20
;TYPE:WALL-OUTER
G1 X-0.76 Y4.75 E0.12401
G1 X-6.24 Y4.75 E0.12487
G1 X-8.98 Y0.00 E0.12573
G1 X-6.24 Y-4.75 E0.12659
G1 X-0.76 Y-4.75 E0.12745
G1 X1.98 Y0.00 E0.12831
G0 X1.67 Y-0.05
;LAYER:20
G0 X1.98 Y0.00 Z0.21
;TYPE:WALL-OUTER
G1 X-0.76 Y4.75 E0.12917
G1 X-6.24 Y4.75 E0.13003
G1 X-8.98 Y0.00 E0.13089
G1 X-6.24 Y-4.75 E0.13174
G1 X-0.76 Y-4.75 E0.13260
G1 X1.98 Y0.00 E0.13346
G0 X1.67 Y-0.05
;LAYER:21
G0 X1.98 Y0.00 Z0.22
;TYPE:WALL-OUTER
G1 X-0.76 Y4.75 E0.13432
G1 X-6.24 Y4.75 E0.13518
G1 X-8.98 Y0.00 E0.13604
G1 X-6.24 Y-4.75 E0.13690
G1 X-0.76 Y-4.75 E0.13776
G1 X1.98 Y0.00 E0.13862
G0 X1.67 Y-0.05
;LAYER:22
G0 X1.98 Y0.00 Z0.23
;TYPE:WALL-OUTER
G1 X-0.76 Y4.75 E0.13948
G1 X-6.24 Y4.75 E0.14034
G1 X-8.98 Y0.00 E0.14120
G1 X-6.24 Y-4.75 E0.14206
G1 X-0.76 Y-4.75 E0.14292
G1 X1.98 Y0.00 E0.14378
G0 X1.67 Y-0.05
;LAYER:23
G0 X1.98 Y0.00 Z0.24
;TYPE:WALL-OUTER
G1 X-0.76 Y4.75 E0.14464
G1 X-6.24 Y4.75 E0.14550
G1 X-8.98 Y0.00 E0.14636
G1 X-6.24 Y-4.75 E0.14722
G1 X-0.76 Y-4.75 E0.14808
G1 X1.98 Y0.00 E0.14894
G0 X1.67 Y-0.05
;LAYER:24
G0 X1.98 Y0.00 Z0.25
;TYPE:WALL-OUTER
G1 X-0.76 Y4.75 E0.14980
G1 X-6.24 Y4.75 E0.15066
G1 X-8.98 Y0.00 E0.15151
G1 X-6.24 Y-4.75 E0.15237
G1 X-0.76 Y-4.75 E0.15323
G1 X1.98 Y0.00 E0.15409
G0 X1.67 Y-0.05
;LAYER:25
G0 X1.98 Y0.00 Z0.26
;TYPE:WALL-OUTER
G1 X-0.76 Y4.75 E0.15495
G1 X-6.24 Y4.75 E0.15581
G1 X-8.98 Y0.00 E0.15667
G1 X-6.24 Y-4.75 E0.15753
G1 X-0.76 Y-4.75 E0.15839
G1 X1.98 Y0.00 E0.15925
G0 X1.67 Y-0.05
;LAYER:26
G0 X1.98 Y0.00 Z0.27
;TYPE:WALL-OUTER
G1 X-0.76 Y4.75 E0.16011
G1 X-6.24 Y4.75 E0.16097
G1 X-8.98 Y0.00 E0.16183
G1 X-6.24 Y-4.75 E0.16269
G1 X-0.76 Y-4.75 E0.16355
G1 X1.98 Y0.00 E0.16441
G0 X1.67 Y-0.05
;LAYER:27
G0 X1.98 Y0.00 Z0.28
;TYPE:WALL-OUTER
G1 X-0.76 Y4.75 E0.16527
G1 X-6.24 Y4.75 E0.16613
G1 X-8.98 Y0.00 E0.16699
G1 X-6.24 Y-4.75 E0.16785
G1 X-0.76 Y-4.75 E0.16871
G1 X1.98 Y0.00 E0.16957
G0 X1.67 Y-0.05
;LAYER:28
G0 X1.98 Y0.00 Z0.29
;TYPE:WALL-OUTER
G1 X-0.76 Y4.75 E0.17043
G1 X-6.24 Y4.75 E0.17128
G1 X-8.98 Y0.00 E0.17214
G1 X-6.24 Y-4.75 E0.17300
G1 X-0.76 Y-4.75 E0.17386
G1 X1.98 Y0.00 E0.17472
G0 X1.67 Y-0.05
;LAYER:29
G0 X1.98 Y0.00 Z0.30
;TYPE:WALL-OUTER
G1 X-0.76 Y4.75 E0.17558
G1 X-6.24 Y4.75 E0.17644
G1 X-8.98 Y0.00 E0.17730
G1 X-6.24 Y-4.75 E0.17816
G1 X-0.76 Y-4.75 E0.17902
G1 X1.98 Y0.00 E0.17988
G0 X1.67 Y-0.05
;LAYER:30
G0 X1.98 Y0.00 Z0.31
;TYPE:WALL-OUTER
G1 X-0.76 Y4.75 E0.18074
G1 X-6.24 Y4.75 E0.18160
G1 X-8.98 Y0.00 E0.18246
G1 X-6.24 Y-4.75 E0.18332
G1 X-0.76 Y-4.75 E0.18418
G1 X1.98 Y0.00 E0.18504
G0 X1.67 Y-0.05
;LAYER:31
G0 X1.98 Y0.00 Z0.32
;TYPE:WALL-OUTER
G1 X-0.76 Y4.75 E0.18590
G1 X-6.24 Y4.75 E0.18676
G1 X-8.98 Y0.00 E0.18762
G1 X-6.24 Y-4.75 E0.18848
G1 X-0.76 Y-4.75 E0.18934
G1 X1.98 Y0.00 E0.19020
G0 X1.67 Y-0.05
;LAYER:32
G0 X1.98 Y0.00 Z0.33
;TYPE:WALL-OUTER
G1 X-0.76 Y4.75 E0.19105
G1 X-6.24 Y4.75 E0.19191
G1 X-8.98 Y0.00 E0.19277
G1 X-6.24 Y-4.75 E0.19363
G1 X-0.76 Y-4.75 E0.19449
G1 X1.98 Y0.00 E0.19535
G0 X1.67 Y-0.05
;LAYER:33
G0 X1.98 Y0.00 Z0.34
;TYPE:WALL-OUTER
G1 X-0.76 Y4.75 E0.19621
G1 X-6.24 Y4.75 E0.19707
G1 X-8.98 Y0.00 E0.19793
G1 X-6.24 Y-4.75 E0.19879
G1 X-0.76 Y-4.75 E0.19965
G1 X1.98 Y0.00 E0.20051
G0 X1.67 Y-0.05
;LAYER:34
G0 X1.98 Y0.00 Z0.35
;TYPE:WALL-OUTER
G1 X-0.76 Y4.75 E0.20137
G1 X-6.24 Y4.75 E0.20223
G1 X-8.98 Y0.00 E0.20309
G1 X-6.24 Y-4.75 E0.20395
G1 X-0.76 Y-4.75 E0.20481
G1 X1.98 Y0.00 E0.20567
G0 X1.67 Y-0.05
;LAYER:35
G0 X1.98 Y0.00 Z0.36
;TYPE:WALL-OUTER
G1 X-0.76 Y4.75 E0.20653
G1 X-6.24 Y4.75 E0.20739
G1 X-8.98 Y0.00 E0.20825
G1 X-6.24 Y-4.75 E0.20911
G1 X-0.76 Y-4.75 E0.20997
G1 X1.98 Y0.00 E0.21082
G0 X1.67 Y-0.05
;LAYER:36
G0 X1.98 Y0.00 Z0.37
;TYPE:WALL-OUTER
G1 X-0.76 Y4.75 E0.21168
G1 X-6.24 Y4.75 E0.21254
G1 X-8.98 Y0.00 E0.21340
G1 X-6.24 Y-4.75 E0.21426
G1 X-0.76 Y-4.75 E0.21512
G1 X1.98 Y0.00 E0.21598
G0 X1.67 Y-0.05
;LAYER:37
G0 X1.98 Y0.00 Z0.38
;TYPE:WALL-OUTER
G1 X-0.76 Y4.75 E0.21684
G1 X-6.24 Y4.75 E0.21770
G1 X-8.98 Y0.00 E0.21856
G1 X-6.24 Y-4.75 E0.21942
G1 X-0.76 Y-4.75 E0.22028
G1 X1.98 Y0.00 E0.22114
G0 X1.67 Y-0.05
;LAYER:38
G0 X1.98 Y0.00 Z0.39
;TYPE:WALL-OUTER
G1 X-0.76 Y4.75 E0.22200
G1 X-6.24 Y4.75 E0.22286
G1 X-8.98 Y0.00 E0.22372
G1 X-6.24 Y-4.75 E0.22458
G1 X-0.76 Y-4.75 E0.22544
G1 X1.98 Y0.00 E0.22630
G0 X1.67 Y-0.05
;LAYER:39
G0 X1.98 Y0.00 Z0.40
;TYPE:WALL-OUTER
G1 X-0.76 Y4.75 E0.22716
G1 X-6.24 Y4.75 E0.22802
G1 X-8.98 Y0.00 E0.22888
G1 X-6.24 Y-4.75 E0.22974
G1 X-0.76 Y-4.75 E0.23059
G1 X1.98 Y0.00 E0.23145
G0 X1.67 Y-0.05
;LAYER:40
G0 X1.98 Y0.00 Z0.41
;TYPE:WALL-OUTER
G1 X-0.76 Y4.75 E0.23231
G1 X-6.24 Y4.75 E0.23317
G1 X-8.98 Y0.00 E0.23403
G1 X-6.24 Y-4.75 E0.23489
G1 X-0.76 Y-4.75 E0.23575
G1 X1.98 Y0.00 E0.23661
G0 X1.67 Y-0.05
;LAYER:41
G0 X1.98 Y0.00 Z0.42
;TYPE:WALL-OUTER
G1 X-0.76 Y4.75 E0.23747
G1 X-6.24 Y4.75 E0.23833
G1 X-8.98 Y0.00 E0.23919
G1 X-6.24 Y-4.75 E0.24005
G1 X-0.76 Y-4.75 E0.24091
G1 X1.98 Y0.00 E0.24177
G0 X1.67 Y-0.05
;LAYER:42
G0 X1.98 Y0.00 Z0.43
;TYPE:WALL-OUTER
G1 X-0.76 Y4.75 E0.24263
G1 X-6.24 Y4.75 E0.24349
G1 X-8.98 Y0.00 E0.24435
G1 X-6.24 Y-4.75 E0.24521
G1 X-0.76 Y-4.75 E0.24607
G1 X1.98 Y0.00 E0.24693
G0 X1.67 Y-0.05
;LAYER:43
G0 X1.98 Y0.00 Z0.44
;TYPE:WALL-OUTER
G1 X-0.76 Y4.75 E0.24779
G1 X-6.24 Y4.75 E0.24865
G1 X-8.98 Y0.00 E0.24951
G1 X-6.24 Y-4.75 E0.25036
G1 X-0.76 Y-4.75 E0.25122
G1 X1.98 Y0.00 E0.25208
G0 X1.67 Y-0.05
;LAYER:44
G0 X1.98 Y0.00 Z0.45
;TYPE:WALL-OUTER
G1 X-0.76 Y4.75 E0.25294
G1 X-6.24 Y4.75 E0.25380
G1 X-8.98 Y0.00 E0.25466
G1 X-6.24 Y-4.75 E0.25552
G1 X-0.76 Y-4.75 E0.25638
G1 X1.98 Y0.00 E0.25724
G0 X1.67 Y-0.05
;LAYER:45
G0 X1.98 Y0.00 Z0.46
;TYPE:WALL-OUTER
G1 X-0.76 Y4.75 E0.25810
G1 X-6.24 Y4.75 E0.25896
G1 X-8.98 Y0.00 E0.25982
G1 X-6.24 Y-4.75 E0.26068
G1 X-0.76 Y-4.75 E0.26154
G1 X1.98 Y0.00 E0.26240
G0 X1.67 Y-0.05
;LAYER:46
G0 X1.98 Y0.00 Z0.47
;TYPE:WALL-OUTER
G1 X-0.76 Y4.75 E0.26326
G1 X-6.24 Y4.75 E0.26412
G1 X-8.98 Y0.00 E0.26498
G1 X-6.24 Y-4.75 E0.26584
G1 X-0.76 Y-4.75 E0.26670
G1 X1.98 Y0.00 E0.26756
G0 X1.67 Y-0.05
;LAYER:47
G0 X1.98 Y0.00 Z0.48
;TYPE:WALL-OUTER
G1 X-0.76 Y4.75 E0.26842
G1 X-6.24 Y4.75 E0.26928
G1 X-8.98 Y0.00 E0.27013
G1 X-6.24 Y-4.75 E0.27099
G1 X-0.76 Y-4.75 E0.27185
G1 X1.98 Y0.00 E0.27271
G0 X1.67 Y-0.05
;LAYER:48
G0 X1.98 Y0.00 Z0.49
;TYPE:WALL-OUTER
G1 X-0.76 Y4.75 E0.27357
G1 X-6.24 Y4.75 E0.27443
G1 X-8.98 Y0.00 E0.27529
G1 X-6.24 Y-4.75 E0.27615
G1 X-0.76 Y-4.75 E0.27701
G1 X1.98 Y0.00 E0.27787
G0 X1.67 Y-0.05
;LAYER:49
G0 X1.98 Y0.00 Z0.50
;TYPE:WALL-OUTER
G1 X-0.76 Y4.75 E0.27873
G1 X-6.24 Y4.75 E0.27959
G1 X-8.98 Y0.00 E0.28045
G1 X-6.24 Y-4.75 E0.28131
G1 X-0.76 Y-4.75 E0.28217
G1 X1.98 Y0.00 E0.28303
G0 X1.67 Y-0.05
;LAYER:50
G0 X1.98 Y0.00 Z0.51
;TYPE:WALL-OUTER
G1 X-0.76 Y4.75 E0.28389
G1 X-6.24 Y4.75 E0.28475
G1 X-8.98 Y0.00 E0.28561
G1 X-6.24 Y-4.75 E0.28647
G1 X-0.76 Y-4.75 E0.28733
G1 X1.98 Y0.00 E0.28819
G0 X1.67 Y-0.05
;LAYER:51
G0 X1.98 Y0.00 Z0.52
;TYPE:WALL-OUTER
G1 X-0.76 Y4.75 E0.28905
G1 X-6.24 Y4.75 E0.28990
G1 X-8.98 Y0.00 E0.29076
G1 X-6.24 Y-4.75 E0.29162
G1 X-0.76 Y-4.75 E0.29248
G1 X1.98 Y0.00 E0.29334
G0 X1.67 Y-0.05
;LAYER:52
G0 X1.98 Y0.00 Z0.53
;TYPE:WALL-OUTER
G1 X-0.76 Y4.75 E0.29420
G1 X-6.24 Y4.75 E0.29506
G1 X-8.98 Y0.00 E0.29592
G1 X-6.24 Y-4.75 E0.29678
G1 X-0.76 Y-4.75 E0.29764
G1 X1.98 Y0.00 E0.29850
G0 X1.67 Y-0.05
;LAYER:53
G0 X1.98 Y0.00 Z0.54
;TYPE:WALL-OUTER
G1 X-0.76 Y4.75 E0.29936
G1 X-6.24 Y4.75 E0.30022
G1 X-8.98 Y0.00 E0.30108
G1 X-6.24 Y-4.75 E0.30194
G1 X-0.76 Y-4.75 E0.30280
G1 X1.98 Y0.00 E0.30366
G0 X1.67 Y-0.05
;LAYER:54
G0 X1.98 Y0.00 Z0.55
;TYPE:WALL-OUTER
G1 X-0.76 Y4.75 E0.30452
G1 X-6.24 Y4.75 E0.30538
G1 X-8.98 Y0.00 E0.30624
G1 X-6.24 Y-4.75 E0.30710
G1 X-0.76 Y-4.75 E0.30796
G1 X1.98 Y0.00 E0.30882
G0 X1.67 Y-0.05
;LAYER:55
G0 X1.98 Y0.00 Z0.56
;TYPE:WALL-OUTER
G1 X-0.76 Y4.75 E0.30967
G1 X-6.24 Y4.75 E0.31053
G1 X-8.98 Y0.00 E0.31139
G1 X-6.24 Y-4.75 E0.31225
G1 X-0.76 Y-4.75 E0.31311
G1 X1.98 Y0.00 E0.31397
G0 X1.67 Y-0.05
;LAYER:56
G0 X1.98 Y0.00 Z0.57
;TYPE:WALL-OUTER
G1 X-0.76 Y4.75 E0.31483
G1 X-6.24 Y4.75 E0.31569
G1 X-8.98 Y0.00 E0.31655
G1 X-6.24 Y-4.75 E0.31741
G1 X-0.76 Y-4.75 E0.31827
G1 X1.98 Y0.00 E0.31913
G0 X1.67 Y-0.05
;LAYER:57
G0 X1.98 Y0.00 Z0.58
;TYPE:WALL-OUTER
G1 X-0.76 Y4.75 E0.31999
G1 X-6.24 Y4.75 E0.32085
G1 X-8.98 Y0.00 E0.32171
G1 X-6.24 Y-4.75 E0.32257
G1 X-0.76 Y-4.75 E0.32343
G1 X1.98 Y0.00 E0.32429
G0 X1.67 Y-0.05
;LAYER:58
G0 X1.98 Y0.00 Z0.59
;TYPE:WALL-OUTER
G1 X-0.76 Y4.75 E0.32515
G1 X-6.24 Y4.75 E0.32601
G1 X-8.98 Y0.00 E0.32687
G1 X-6.24 Y-4.75 E0.32773
G1 X-0.76 Y-4.75 E0.32859
G1 X1.98 Y0.00 E0.32944
G0 X1.67 Y-0.05
;LAYER:59
G0 X1.98 Y0.00 Z0.60
;TYPE:WALL-OUTER
G1 X-0.76 Y4.75 E0.33030
G1 X-6.24 Y4.75 E0.33116
G1 X-8.98 Y0.00 E0.33202
G1 X-6.24 Y-4.75 E0.33288
G1 X-0.76 Y-4.75 E0.33374
G1 X1.98 Y0.00 E0.33460
G0 X1.67 Y-0.05
;LAYER:60
G0 X1.98 Y0.00 Z0.61
;TYPE:WALL-OUTER
G1 X-0.76 Y4.75 E0.33546
G1 X-6.24 Y4.75 E0.33632
G1 X-8.98 Y0.00 E0.33718
G1 X-6.24 Y-4.75 E0.33804
G1 X-0.76 Y-4.75 E0.33890
G1 X1.98 Y0.00 E0.33976
G0 X1.67 Y-0.05
;LAYER:61
G0 X1.98 Y0.00 Z0.62
;TYPE:WALL-OUTER
G1 X-0.76 Y4.75 E0.34062
G1 X-6.24 Y4.75 E0.34148
G1 X-8.98 Y0.00 E0.34234
G1 X-6.24 Y-4.75 E0.34320
G1 X-0.76 Y-4.75 E0.34406
G1 X1.98 Y0.00 E0.34492
G0 X1.67 Y-0.05
;LAYER:62
G0 X1.98 Y0.00 Z0.63
;TYPE:WALL-OUTER
G1 X-0.76 Y4.75 E0.34578
G1 X-6.24 Y4.75 E0.34664
G1 X-8.98 Y0.00 E0.34750
G1 X-6.24 Y-4.75 E0.34836
G1 X-0.76 Y-4.75 E0.34921
G1 X1.98 Y0.00 E0.35007
G0 X1.67 Y-0.05
;LAYER:63
G0 X1.98 Y0.00 Z0.64
;TYPE:WALL-OUTER
G1 X-0.76 Y4.75 E0.35093
G1 X-6.24 Y4.75 E0.35179
G1 X-8.98 Y0.00 E0.35265
G1 X-6.24 Y-4.75 E0.35351
G1 X-0.76 Y-4.75 E0.35437
G1 X1.98 Y0.00 E0.35523
G0 X1.67 Y-0.05
;LAYER:64
G0 X1.98 Y0.00 Z0.65
;TYPE:WALL-OUTER
G1 X-0.76 Y4.75 E0.35609
G1 X-6.24 Y4.75 E0.35695
G1 X-8.98 Y0.00 E0.35781
G1 X-6.24 Y-4.75 E0.35867
G1 X-0.76 Y-4.75 E0.35953
G1 X1.98 Y0.00 E0.36039
G0 X1.67 Y-0.05
;LAYER:65
G0 X1.98 Y0.00 Z0.66
;TYPE:WALL-OUTER
G1 X-0.76 Y4.75 E0.36125
G1 X-6.24 Y4.75 E0.36211
G1 X-8.98 Y0.00 E0.36297
G1 X-6.24 Y-4.75 E0.36383
G1 X-0.76 Y-4.75 E0.36469
G1 X1.98 Y0.00 E0.36555
G0 X1.67 Y-0.05
;LAYER:66
G0 X1.98 Y0.00 Z0.67
;TYPE:WALL-OUTER
G1 X-0.76 Y4.75 E0.36641
G1 X-6.24 Y4.75 E0.36727
G1 X-8.98 Y0.00 E0.36813
G1 X-6.24 Y-4.75 E0.36898
G1 X-0.76 Y-4.75 E0.36984
G1 X1.98 Y0.00 E0.37070
G0 X1.67 Y-0.05
;LAYER:67
G0 X1.98 Y0.00 Z0.68
;TYPE:WALL-OUTER
G1 X-0.76 Y4.75 E0.37156
G1 X-6.24 Y4.75 E0.37242
G1 X-8.98 Y0.00 E0.37328
G1 X-6.24 Y-4.75 E0.37414
G1 X-0.76 Y-4.75 E0.37500
G1 X1.98 Y0.00 E0.37586
G0 X1.67 Y-0.05
;LAYER:68
G0 X1.98 Y0.00 Z0.69
;TYPE:WALL-OUTER
G1 X-0.76 Y4.75 E0.37672
G1 X-6.24 Y4.75 E0.37758
G1 X-8.98 Y0.00 E0.37844
G1 X-6.24 Y-4.75 E0.37930
G1 X-0.76 Y-4.75 E0.38016
G1 X1.98 Y0.00 E0.38102
G0 X1.67 Y-0.05
;LAYER:69
G0 X1.98 Y0.00 Z0.70
;TYPE:WALL-OUTER
G1 X-0.76 Y4.75 E0.38188
