;Generated with Cura_SteamEngine 13.11.2


;Layer count: 471
;LAYER:0
M107
G0 F6000 X4.07 Y-0.82 Z0.06
;TYPE:SKIRT
G1 F6000 E0.00000
G1 X4.07 Y0.82 E0.00154
G1 X1.87 Y4.63 E0.00568
G1 X0.45 Y5.45 E0.00722
G1 X-3.95 Y5.45 E0.01136
G1 X-5.37 Y4.63 E0.01290
G1 X-7.57 Y0.82 E0.01704
G1 X-7.57 Y-0.82 E0.01857
G1 X-5.37 Y-4.63 E0.02272
G1 X-3.95 Y-5.45 E0.02425
G1 X0.47 Y-5.45 E0.02841
G1 X1.91 Y-4.59 E0.02999
G1 X2.31 Y-3.87 E0.03077
G1 X4.07 Y-0.82 E0.03408
G0 X4.27 Y-0.87
G1 X4.27 Y0.87 E0.03572
G1 X2.01 Y4.78 E0.03996
G1 X0.50 Y5.65 E0.04160
G1 X-4.01 Y5.65 E0.04584
G1 X-5.51 Y4.78 E0.04748
G1 X-7.77 Y0.87 E0.05172
G1 X-7.77 Y-0.87 E0.05336
G1 X-5.51 Y-4.78 E0.05760
G1 X-4.01 Y-5.65 E0.05924
G1 X0.53 Y-5.65 E0.06351
G1 X2.06 Y-4.74 E0.06518
G1 X2.48 Y-3.97 E0.06601
G1 X4.27 Y-0.87 E0.06937
G0 X4.37 Y-0.90
G1 X4.37 Y0.90 E0.07106
G1 X2.09 Y4.85 E0.07535
G1 X0.53 Y5.75 E0.07704
G1 X-4.03 Y5.75 E0.08134
G1 X-5.59 Y4.85 E0.08302
G1 X-7.87 Y0.90 E0.08732
G1 X-7.87 Y-0.90 E0.08901
G1 X-5.59 Y-4.85 E0.09330
G1 X-4.03 Y-5.75 E0.09499
G1 X0.55 Y-5.75 E0.09930
G1 X2.13 Y-4.81 E0.10103
G1 X2.57 Y-4.02 E0.10187
G1 X4.37 Y-0.90 E0.10527
G0 X4.47 Y-0.92
G1 X4.47 Y0.92 E0.10701
G1 X2.16 Y4.92 E0.11135
G1 X0.56 Y5.85 E0.11309
G1 X-4.06 Y5.85 E0.11743
G1 X-5.66 Y4.92 E0.11917
G1 X-7.97 Y0.92 E0.12352
G1 X-7.97 Y-0.92 E0.12525
G1 X-5.66 Y-4.92 E0.12960
G1 X-4.06 Y-5.85 E0.13134
G1 X0.58 Y-5.85 E0.13570
G1 X2.21 Y-4.88 E0.13748
G1 X2.65 Y-4.08 E0.13835
G1 X4.47 Y-0.92 E0.14177
G0 X4.17 Y-0.84
G1 X4.17 Y0.84 E0.14336
G1 X1.94 Y4.70 E0.14755
G1 X0.48 Y5.55 E0.14914
G1 X-3.98 Y5.55 E0.15333
G1 X-5.44 Y4.70 E0.15492
G1 X-7.67 Y0.84 E0.15911
G1 X-7.67 Y-0.84 E0.16070
G1 X-5.44 Y-4.70 E0.16489
G1 X-3.98 Y-5.55 E0.16648
G1 X0.50 Y-5.55 E0.17069
G1 X1.99 Y-4.66 E0.17232
G1 X2.37 Y-3.96 E0.17307
G1 X4.17 Y-0.84 E0.17646
G0 X0.81 Y0.04
G0 X0.81 Y-0.04
G0 X0.96 Y0.00
;TYPE:WALL-OUTER
G1 X-0.39 Y2.35 E0.17901
G1 X-3.11 Y2.35 E0.18156
G1 X-4.46 Y0.00 E0.18411
G1 X-3.11 Y-2.35 E0.18666
G1 X-0.39 Y-2.35 E0.18921
G1 X0.96 Y0.00 E0.19176
G0 X0.65 Y-0.05
;LAYER:1
G0 X0.96 Y0.00 Z0.12
;TYPE:WALL-OUTER
G1 X-0.39 Y2.35 E0.19432
G1 X-3.11 Y2.35 E0.19687
G1 X-4.46 Y0.00 E0.19942
G1 X-3.11 Y-2.35 E0.20197
G1 X-0.39 Y-2.35 E0.20452
G1 X-0.39 Y-2.34 E0.20453
G1 X0.96 Y0.00 E0.20707
G0 X0.65 Y-0.05
;LAYER:2
G0 X0.96 Y0.00 Z0.18
;TYPE:WALL-OUTER
G1 X-0.39 Y2.35 E0.20962
G1 X-3.11 Y2.35 E0.21217
G1 X-4.46 Y0.00 E0.21473
G1 X-3.11 Y-2.35 E0.21728
G1 X-0.39 Y-2.35 E0.21983
G1 X-0.38 Y-2.32 E0.21986
G1 X0.96 Y0.00 E0.22238
G0 X0.65 Y-0.05
;LAYER:3
G0 X0.96 Y0.00 Z0.24
;TYPE:WALL-OUTER
G1 X-0.39 Y2.35 E0.22493
G1 X-3.11 Y2.35 E0.22748
G1 X-4.46 Y0.00 E0.23003
G1 X-3.11 Y-2.35 E0.23258
G1 X-0.39 Y-2.35 E0.23513
G1 X-0.36 Y-2.29 E0.23519
G1 X0.96 Y0.00 E0.23769
G0 X0.65 Y-0.05
;LAYER:4
G0 X0.96 Y0.00 Z0.30
;TYPE:WALL-OUTER
G1 X-0.39 Y2.35 E0.24024
G1 X-3.11 Y2.35 E0.24279
G1 X-4.46 Y0.00 E0.24534
G1 X-3.11 Y-2.35 E0.24789
G1 X-0.39 Y-2.35 E0.25044
G1 X-0.35 Y-2.27 E0.25053
G1 X0.96 Y0.00 E0.25299
G0 X0.65 Y-0.05
;LAYER:5
G0 X0.96 Y0.00 Z0.36
;TYPE:WALL-OUTER
G1 X-0.39 Y2.35 E0.25554
G1 X-3.11 Y2.35 E0.25810
G1 X-4.46 Y0.00 E0.26065
G1 X-3.11 Y-2.35 E0.26320
G1 X-0.39 Y-2.35 E0.26575
G1 X-0.34 Y-2.25 E0.26586
G1 X0.96 Y0.00 E0.26830
G0 X0.65 Y-0.05
;LAYER:6
G0 X0.96 Y0.00 Z0.42
;TYPE:WALL-OUTER
G1 X-0.39 Y2.35 E0.27085
G1 X-3.11 Y2.35 E0.27340
G1 X-4.46 Y0.00 E0.27595
G1 X-3.11 Y-2.35 E0.27851
G1 X-0.39 Y-2.35 E0.28106
G1 X-0.32 Y-2.23 E0.28119
G1 X0.96 Y0.00 E0.28361
G0 X0.65 Y-0.05
;LAYER:7
G0 X0.96 Y0.00 Z0.48
;TYPE:WALL-OUTER
G1 X-0.39 Y2.35 E0.28616
G1 X-3.11 Y2.35 E0.28871
G1 X-4.46 Y0.00 E0.29126
G1 X-3.11 Y-2.35 E0.29381
G1 X-0.39 Y-2.35 E0.29636
G1 X-0.31 Y-2.20 E0.29652
G1 X0.96 Y0.00 E0.29892
G0 X0.65 Y-0.05
;LAYER:8
G0 X0.96 Y0.00 Z0.54
;TYPE:WALL-OUTER
G1 X-0.39 Y2.35 E0.30147
G1 X-3.11 Y2.35 E0.30402
G1 X-4.46 Y0.00 E0.30657
G1 X-3.11 Y-2.35 E0.30912
G1 X-0.39 Y-2.35 E0.31167
G1 X-0.30 Y-2.18 E0.31185
G1 X0.96 Y0.00 E0.31422
G0 X0.65 Y-0.05
;LAYER:9
G0 X0.96 Y0.00 Z0.60
;TYPE:WALL-OUTER
G1 X-0.39 Y2.35 E0.31677
G1 X-3.11 Y2.35 E0.31932
G1 X-4.46 Y0.00 E0.32188
G1 X-3.11 Y-2.35 E0.32443
G1 X-0.39 Y-2.35 E0.32698
G1 X-0.28 Y-2.16 E0.32718
G1 X0.96 Y0.00 E0.32953
G0 X0.65 Y-0.05
;LAYER:10
G0 X0.96 Y0.00 Z0.66
;TYPE:WALL-OUTER
G1 X-0.39 Y2.35 E0.33208
G1 X-3.11 Y2.35 E0.33463
G1 X-4.46 Y0.00 E0.33718
G1 X-3.11 Y-2.35 E0.33973
G1 X-0.39 Y-2.35 E0.34229
G1 X-0.27 Y-2.14 E0.34252
G1 X0.96 Y0.00 E0.34484
G0 X0.65 Y-0.05
;LAYER:11
G0 X0.96 Y0.00 Z0.72
;TYPE:WALL-OUTER
G1 X-0.39 Y2.35 E0.34739
G1 X-3.11 Y2.35 E0.34994
G1 X-4.46 Y0.00 E0.35249
G1 X-3.11 Y-2.35 E0.35504
G1 X-0.39 Y-2.35 E0.35759
G1 X-0.26 Y-2.11 E0.35785
G1 X0.96 Y0.00 E0.36014
G0 X0.65 Y-0.05
;LAYER:12
G0 X0.96 Y0.00 Z0.78
;TYPE:WALL-OUTER
G1 X-0.39 Y2.35 E0.36270
G1 X-3.11 Y2.35 E0.36525
G1 X-4.46 Y0.00 E0.36780
G1 X-3.11 Y-2.35 E0.37035
G1 X-0.39 Y-2.35 E0.37290
G1 X-0.25 Y-2.09 E0.37318
G1 X0.96 Y0.00 E0.37545
G0 X0.65 Y-0.05
;LAYER:13
G0 X0.96 Y0.00 Z0.84
;TYPE:WALL-OUTER
G1 X-0.39 Y2.35 E0.37800
G1 X-3.11 Y2.35 E0.38055
G1 X-4.46 Y0.00 E0.38311
G1 X-3.11 Y-2.35 E0.38566
G1 X-0.39 Y-2.35 E0.38821
G1 X0.96 Y0.00 E0.39076
G0 X0.65 Y-0.05
;LAYER:14
G0 X0.96 Y0.00 Z0.90
;TYPE:WALL-OUTER
G1 X-0.39 Y2.35 E0.39331
G1 X-3.11 Y2.35 E0.39586
G1 X-4.46 Y0.00 E0.39841
G1 X-3.11 Y-2.35 E0.40096
G1 X-0.39 Y-2.35 E0.40351
G1 X0.96 Y0.00 E0.40607
G0 X0.65 Y-0.05
;LAYER:15
G0 X0.96 Y0.00 Z0.96
;TYPE:WALL-OUTER
G1 X-0.39 Y2.35 E0.40862
G1 X-3.11 Y2.35 E0.41117
G1 X-4.46 Y0.00 E0.41372
G1 X-3.11 Y-2.35 E0.41627
G1 X-0.39 Y-2.35 E0.41882
G1 X-0.20 Y-2.02 E0.41918
G1 X0.96 Y0.00 E0.42137
G0 X0.65 Y-0.05
;LAYER:16
G0 X0.96 Y0.00 Z1.02
;TYPE:WALL-OUTER
G1 X-0.39 Y2.35 E0.42392
G1 X-3.11 Y2.35 E0.42648
G1 X-4.46 Y0.00 E0.42903
G1 X-3.11 Y-2.35 E0.43158
G1 X-0.39 Y-2.35 E0.43413
G1 X0.96 Y0.00 E0.43668
G0 X0.65 Y-0.05
;LAYER:17
G0 X0.96 Y0.00 Z1.08
;TYPE:WALL-OUTER
G1 X-0.39 Y2.35 E0.43923
G1 X-3.11 Y2.35 E0.44178
G1 X-4.46 Y0.00 E0.44433
G1 X-3.11 Y-2.35 E0.44689
G1 X-0.39 Y-2.35 E0.44944
G1 X-0.18 Y-1.98 E0.44984
G1 X0.96 Y0.00 E0.45199
G0 X0.65 Y-0.05
;LAYER:18
G0 X0.96 Y0.00 Z1.14
;TYPE:WALL-OUTER
G1 X-0.39 Y2.35 E0.45454
G1 X-3.11 Y2.35 E0.45709
G1 X-4.46 Y0.00 E0.45964
G1 X-3.11 Y-2.35 E0.46219
G1 X-0.39 Y-2.35 E0.46474
G1 X0.96 Y0.00 E0.46730
G0 X0.65 Y-0.05
;LAYER:19
G0 X0.96 Y0.00 Z1.20
;TYPE:WALL-OUTER
G1 X-0.39 Y2.35 E0.46985
G1 X-3.11 Y2.35 E0.47240
G1 X-4.46 Y0.00 E0.47495
G1 X-3.11 Y-2.35 E0.47750
G1 X-0.39 Y-2.35 E0.48005
G1 X-0.15 Y-1.93 E0.48050
G1 X0.96 Y0.00 E0.48260
G0 X0.65 Y-0.05
;LAYER:20
G0 X0.96 Y0.00 Z1.26
;TYPE:WALL-OUTER
G1 X-0.39 Y2.35 E0.48515
G1 X-3.11 Y2.35 E0.48770
G1 X-4.46 Y0.00 E0.49025
G1 X-3.11 Y-2.35 E0.49280
G1 X-0.39 Y-2.35 E0.49535
G1 X0.96 Y0.00 E0.49791
G0 X0.65 Y-0.05
;LAYER:21
G0 X0.96 Y0.00 Z1.32
;TYPE:WALL-OUTER
G1 X-0.39 Y2.35 E0.50046
G1 X-3.11 Y2.35 E0.50301
G1 X-4.46 Y0.00 E0.50556
G1 X-3.11 Y-2.35 E0.50811
G1 X-0.39 Y-2.35 E0.51066
G1 X-0.13 Y-1.89 E0.51116
G1 X0.96 Y0.00 E0.51321
G0 X0.65 Y-0.05
;LAYER:22
G0 X0.96 Y0.00 Z1.38
;TYPE:WALL-OUTER
G1 X-0.39 Y2.35 E0.51576
G1 X-3.11 Y2.35 E0.51831
G1 X-4.46 Y0.00 E0.52086
G1 X-3.11 Y-2.35 E0.52342
G1 X-0.39 Y-2.35 E0.52597
G1 X-0.11 Y-1.87 E0.52649
G1 X0.96 Y0.00 E0.52852
G0 X0.65 Y-0.05
;LAYER:23
G0 X0.96 Y0.00 Z1.44
;TYPE:WALL-OUTER
G1 X-0.39 Y2.35 E0.53107
G1 X-3.11 Y2.35 E0.53362
G1 X-4.46 Y0.00 E0.53617
G1 X-3.11 Y-2.35 E0.53872
G1 X-0.39 Y-2.35 E0.54127
G1 X0.96 Y0.00 E0.54383
G0 X0.65 Y-0.05
;LAYER:24
G0 X0.96 Y0.00 Z1.50
;TYPE:WALL-OUTER
G1 X-0.39 Y2.35 E0.54638
G1 X-3.11 Y2.35 E0.54893
G1 X-4.46 Y0.00 E0.55148
G1 X-3.11 Y-2.35 E0.55403
G1 X-0.39 Y-2.35 E0.55658
G1 X-0.09 Y-1.82 E0.55716
G1 X0.96 Y0.00 E0.55913
G0 X0.65 Y-0.05
;LAYER:25
G0 X0.96 Y0.00 Z1.56
;TYPE:WALL-OUTER
G1 X-0.39 Y2.35 E0.56168
G1 X-3.11 Y2.35 E0.56424
G1 X-4.46 Y0.00 E0.56679
G1 X-3.11 Y-2.35 E0.56934
G1 X-0.39 Y-2.35 E0.57189
G1 X0.96 Y0.00 E0.57444
G0 X0.65 Y-0.05
;LAYER:26
G0 X0.96 Y0.00 Z1.62
;TYPE:WALL-OUTER
G1 X-0.39 Y2.35 E0.57699
G1 X-3.11 Y2.35 E0.57954
G1 X-4.46 Y0.00 E0.58209
G1 X-3.11 Y-2.35 E0.58465
G1 X-0.39 Y-2.35 E0.58720
G1 X-0.06 Y-1.77 E0.58782
G1 X0.96 Y0.00 E0.58975
G0 X0.65 Y-0.05
;LAYER:27
G0 X0.96 Y0.00 Z1.68
;TYPE:WALL-OUTER
G1 X-0.39 Y2.35 E0.59230
G1 X-3.11 Y2.35 E0.59485
G1 X-4.46 Y0.00 E0.59740
G1 X-3.11 Y-2.35 E0.59995
G1 X-0.39 Y-2.35 E0.60250
G1 X0.96 Y0.00 E0.60505
G0 X0.65 Y-0.05
;LAYER:28
G0 X0.96 Y0.00 Z1.74
;TYPE:WALL-OUTER
G1 X-0.39 Y2.35 E0.60761
G1 X-3.11 Y2.35 E0.61016
G1 X-4.46 Y0.00 E0.61271
G1 X-3.11 Y-2.35 E0.61526
G1 X-0.39 Y-2.35 E0.61781
G1 X-0.04 Y-1.73 E0.61848
G1 X0.96 Y0.00 E0.62036
G0 X0.65 Y-0.05
;LAYER:29
G0 X0.96 Y0.00 Z1.80
;TYPE:WALL-OUTER
G1 X-0.39 Y2.35 E0.62291
G1 X-3.11 Y2.35 E0.62546
G1 X-4.46 Y0.00 E0.62802
G1 X-3.11 Y-2.35 E0.63057
G1 X-0.39 Y-2.35 E0.63312
G1 X-0.02 Y-1.71 E0.63382
G1 X0.96 Y0.00 E0.63567
G0 X0.65 Y-0.05
;LAYER:30
G0 X0.96 Y0.00 Z1.86
;TYPE:WALL-OUTER
G1 X-0.39 Y2.35 E0.63822
G1 X-3.11 Y2.35 E0.64077
G1 X-4.46 Y0.00 E0.64332
G1 X-3.11 Y-2.35 E0.64587
G1 X-0.39 Y-2.35 E0.64843
G1 X-0.01 Y-1.68 E0.64915
G1 X0.96 Y0.00 E0.65098
G0 X0.65 Y-0.05
;LAYER:31
G0 X0.96 Y0.00 Z1.92
;TYPE:WALL-OUTER
G1 X-0.39 Y2.35 E0.65353
G1 X-3.11 Y2.35 E0.65608
G1 X-4.46 Y0.00 E0.65863
G1 X-3.11 Y-2.35 E0.66118
G1 X-0.39 Y-2.35 E0.66373
G1 X0.00 Y-1.66 E0.66448
G1 X0.96 Y0.00 E0.66628
G0 X0.65 Y-0.05
;LAYER:32
G0 X0.96 Y0.00 Z1.98
;TYPE:WALL-OUTER
G1 X-0.39 Y2.35 E0.66884
G1 X-3.11 Y2.35 E0.67139
G1 X-4.46 Y0.00 E0.67394
G1 X-3.11 Y-2.35 E0.67649
G1 X-0.39 Y-2.35 E0.67904
G1 X0.96 Y0.00 E0.68159
G0 X0.65 Y-0.05
;LAYER:33
G0 X0.96 Y0.00 Z2.04
;TYPE:WALL-OUTER
G1 X-0.39 Y2.35 E0.68414
G1 X-3.11 Y2.35 E0.68669
G1 X-4.46 Y0.00 E0.68924
G1 X-3.11 Y-2.35 E0.69180
G1 X-0.39 Y-2.35 E0.69435
G1 X0.96 Y0.00 E0.69690
G0 X0.65 Y-0.05
;LAYER:34
G0 X0.96 Y0.00 Z2.10
;TYPE:WALL-OUTER
G1 X-0.39 Y2.35 E0.69945
G1 X-3.11 Y2.35 E0.70200
G1 X-4.46 Y0.00 E0.70455
G1 X-3.11 Y-2.35 E0.70710
G1 X-0.39 Y-2.35 E0.70965
G1 X0.04 Y-1.59 E0.71047
G1 X0.96 Y0.00 E0.71221
G0 X0.65 Y-0.05
;LAYER:35
G0 X0.96 Y0.00 Z2.16
;TYPE:WALL-OUTER
G1 X-0.39 Y2.35 E0.71476
G1 X-3.11 Y2.35 E0.71731
G1 X-4.46 Y0.00 E0.71986
G1 X-3.11 Y-2.35 E0.72241
G1 X-0.39 Y-2.35 E0.72496
G1 X0.96 Y0.00 E0.72751
G0 X0.65 Y-0.05
;LAYER:36
G0 X0.96 Y0.00 Z2.22
;TYPE:WALL-OUTER
G1 X-0.39 Y2.35 E0.73006
G1 X-3.11 Y2.35 E0.73262
G1 X-4.46 Y0.00 E0.73517
G1 X-3.11 Y-2.35 E0.73772
G1 X-0.39 Y-2.35 E0.74027
G1 X0.07 Y-1.55 E0.74114
G1 X0.96 Y0.00 E0.74282
G0 X0.65 Y-0.05
;LAYER:37
G0 X0.96 Y0.00 Z2.28
;TYPE:WALL-OUTER
G1 X-0.39 Y2.35 E0.74537
G1 X-3.11 Y2.35 E0.74792
G1 X-4.46 Y0.00 E0.75047
G1 X-3.11 Y-2.35 E0.75303
G1 X-0.39 Y-2.35 E0.75558
G1 X0.96 Y0.00 E0.75813
G0 X0.65 Y-0.05
;LAYER:38
G0 X0.96 Y0.00 Z2.34
;TYPE:WALL-OUTER
G1 X-0.39 Y2.35 E0.76068
G1 X-3.11 Y2.35 E0.76323
G1 X-4.46 Y0.00 E0.76578
G1 X-3.11 Y-2.35 E0.76833
G1 X-0.39 Y-2.35 E0.77088
G1 X0.96 Y0.00 E0.77343
G0 X0.65 Y-0.05
;LAYER:39
G0 X0.96 Y0.00 Z2.40
;TYPE:WALL-OUTER
G1 X-0.39 Y2.35 E0.77599
G1 X-3.11 Y2.35 E0.77854
G1 X-4.46 Y0.00 E0.78109
G1 X-3.11 Y-2.35 E0.78364
G1 X-0.39 Y-2.35 E0.78619
G1 X0.96 Y0.00 E0.78874
G0 X0.65 Y-0.05
;LAYER:40
G0 X0.96 Y0.00 Z2.46
;TYPE:WALL-OUTER
G1 X-0.39 Y2.35 E0.79129
G1 X-3.11 Y2.35 E0.79384
G1 X-4.46 Y0.00 E0.79640
G1 X-3.11 Y-2.35 E0.79895
G1 X-0.39 Y-2.35 E0.80150
G1 X0.96 Y0.00 E0.80405
G0 X0.65 Y-0.05
;LAYER:41
G0 X0.96 Y0.00 Z2.52
;TYPE:WALL-OUTER
G1 X-0.39 Y2.35 E0.80660
G1 X-3.11 Y2.35 E0.80915
G1 X-4.46 Y0.00 E0.81170
G1 X-3.11 Y-2.35 E0.81425
G1 X-0.39 Y-2.35 E0.81680
G1 X0.13 Y-1.44 E0.81780
G1 X0.96 Y0.00 E0.81936
G0 X0.65 Y-0.05
;LAYER:42
G0 X0.96 Y0.00 Z2.58
;TYPE:WALL-OUTER
G1 X-0.39 Y2.35 E0.82191
G1 X-3.11 Y2.35 E0.82446
G1 X-4.46 Y0.00 E0.82701
G1 X-3.11 Y-2.35 E0.82956
G1 X-0.39 Y-2.35 E0.83211
G1 X0.96 Y0.00 E0.83466
G0 X0.65 Y-0.05
;LAYER:43
G0 X0.96 Y0.00 Z2.64
;TYPE:WALL-OUTER
G1 X-0.39 Y2.35 E0.83722
G1 X-3.11 Y2.35 E0.83977
G1 X-4.46 Y0.00 E0.84232
G1 X-3.11 Y-2.35 E0.84487
G1 X-0.39 Y-2.35 E0.84742
G1 X0.96 Y0.00 E0.84997
G0 X0.65 Y-0.05
;LAYER:44
G0 X0.96 Y0.00 Z2.70
;TYPE:WALL-OUTER
G1 X-0.39 Y2.35 E0.85252
G1 X-3.11 Y2.35 E0.85507
G1 X-4.46 Y0.00 E0.85762
G1 X-3.11 Y-2.35 E0.86018
G1 X-0.39 Y-2.35 E0.86273
G1 X0.96 Y0.00 E0.86528
G0 X0.65 Y-0.05
;LAYER:45
G0 X0.96 Y0.00 Z2.76
;TYPE:WALL-OUTER
G1 X-0.39 Y2.35 E0.86783
G1 X-3.11 Y2.35 E0.87038
G1 X-4.46 Y0.00 E0.87293
G1 X-3.11 Y-2.35 E0.87548
G1 X-0.39 Y-2.35 E0.87803
G1 X0.96 Y0.00 E0.88059
G0 X0.65 Y-0.05
;LAYER:46
G0 X0.96 Y0.00 Z2.82
;TYPE:WALL-OUTER
G1 X-0.39 Y2.35 E0.88314
G1 X-3.11 Y2.35 E0.88569
G1 X-4.46 Y0.00 E0.88824
G1 X-3.11 Y-2.35 E0.89079
G1 X-0.39 Y-2.35 E0.89334
G1 X0.20 Y-1.32 E0.89446
G1 X0.96 Y0.00 E0.89589
G0 X0.65 Y-0.05
;LAYER:47
G0 X0.96 Y0.00 Z2.88
;TYPE:WALL-OUTER
G1 X-0.39 Y2.35 E0.89844
G1 X-3.11 Y2.35 E0.90099
G1 X-4.46 Y0.00 E0.90355
G1 X-3.11 Y-2.35 E0.90610
G1 X-0.39 Y-2.35 E0.90865
G1 X0.96 Y0.00 E0.91120
G0 X0.65 Y-0.05
;LAYER:48
G0 X0.96 Y0.00 Z2.94
;TYPE:WALL-OUTER
G1 X-0.39 Y2.35 E0.91375
G1 X-3.11 Y2.35 E0.91630
G1 X-4.46 Y0.00 E0.91885
G1 X-3.11 Y-2.35 E0.92141
G1 X-0.39 Y-2.35 E0.92396
G1 X0.22 Y-1.28 E0.92512
G1 X0.96 Y0.00 E0.92651
G0 X0.65 Y-0.05
;LAYER:49
G0 X0.96 Y0.00 Z3.00
;TYPE:WALL-OUTER
G1 X-0.39 Y2.35 E0.92906
G1 X-3.11 Y2.35 E0.93161
G1 X-4.46 Y0.00 E0.93416
G1 X-3.11 Y-2.35 E0.93671
G1 X-0.39 Y-2.35 E0.93926
G1 X0.96 Y0.00 E0.94181
G0 X0.65 Y-0.05
;LAYER:50
G0 X0.96 Y0.00 Z3.06
;TYPE:WALL-OUTER
G1 X-0.39 Y2.35 E0.94437
G1 X-3.11 Y2.35 E0.94692
G1 X-4.46 Y0.00 E0.94947
G1 X-3.11 Y-2.35 E0.95202
G1 X-0.39 Y-2.35 E0.95457
G1 X0.25 Y-1.23 E0.95578
G1 X0.96 Y0.00 E0.95712
G0 X0.65 Y-0.05
;LAYER:51
G0 X0.96 Y0.00 Z3.12
;TYPE:WALL-OUTER
G1 X-0.39 Y2.35 E0.95967
G1 X-3.11 Y2.35 E0.96222
G1 X-4.46 Y0.00 E0.96478
G1 X-3.11 Y-2.35 E0.96733
G1 X-0.39 Y-2.35 E0.96988
G1 X0.96 Y0.00 E0.97243
G0 X0.65 Y-0.05
;LAYER:52
G0 X0.96 Y0.00 Z3.18
;TYPE:WALL-OUTER
G1 X-0.39 Y2.35 E0.97498
G1 X-3.11 Y2.35 E0.97753
G1 X-4.46 Y0.00 E0.98008
G1 X-3.11 Y-2.35 E0.98263
G1 X-0.39 Y-2.35 E0.98518
G1 X0.28 Y-1.19 E0.98645
G1 X0.96 Y0.00 E0.98774
G0 X0.65 Y-0.05
;LAYER:53
G0 X0.96 Y0.00 Z3.24
;TYPE:WALL-OUTER
G1 X-0.39 Y2.35 E0.99029
G1 X-3.11 Y2.35 E0.99284
G1 X-4.46 Y0.00 E0.99539
G1 X-3.11 Y-2.35 E0.99794
G1 X-0.39 Y-2.35 E1.00049
G1 X0.96 Y0.00 E1.00304
G0 X0.65 Y-0.05
;LAYER:54
G0 X0.96 Y0.00 Z3.30
;TYPE:WALL-OUTER
G1 X-0.39 Y2.35 E1.00559
G1 X-3.11 Y2.35 E1.00815
G1 X-4.46 Y0.00 E1.01070
G1 X-3.11 Y-2.35 E1.01325
G1 X-0.39 Y-2.35 E1.01580
G1 X0.96 Y0.00 E1.01835
G0 X0.65 Y-0.05
;LAYER:55
G0 X0.96 Y0.00 Z3.36
;TYPE:WALL-OUTER
G1 X-0.39 Y2.35 E1.02090
G1 X-3.11 Y2.35 E1.02345
G1 X-4.46 Y0.00 E1.02600
G1 X-3.11 Y-2.35 E1.02856
G1 X-0.39 Y-2.35 E1.03111
G1 X0.96 Y0.00 E1.03366
G0 X0.65 Y-0.05
;LAYER:56
G0 X0.96 Y0.00 Z3.42
;TYPE:WALL-OUTER
G1 X-0.39 Y2.35 E1.03621
G1 X-3.11 Y2.35 E1.03876
G1 X-4.46 Y0.00 E1.04131
G1 X-3.11 Y-2.35 E1.04386
G1 X-0.39 Y-2.35 E1.04641
G1 X0.96 Y0.00 E1.04897
G0 X0.65 Y-0.05
;LAYER:57
G0 X0.96 Y0.00 Z3.48
;TYPE:WALL-OUTER
G1 X-0.39 Y2.35 E1.05152
G1 X-3.11 Y2.35 E1.05407
G1 X-4.46 Y0.00 E1.05662
G1 X-3.11 Y-2.35 E1.05917
G1 X-0.39 Y-2.35 E1.06172
G1 X0.96 Y0.00 E1.06427
G0 X0.65 Y-0.05
;LAYER:58
G0 X0.96 Y0.00 Z3.54
;TYPE:WALL-OUTER
G1 X-0.39 Y2.35 E1.06682
G1 X-3.11 Y2.35 E1.06937
G1 X-4.46 Y0.00 E1.07193
G1 X-3.11 Y-2.35 E1.07448
G1 X-0.39 Y-2.35 E1.07703
G1 X0.96 Y0.00 E1.07958
G0 X0.65 Y-0.05
;LAYER:59
G0 X0.96 Y0.00 Z3.60
;TYPE:WALL-OUTER
G1 X-0.39 Y2.35 E1.08213
G1 X-3.11 Y2.35 E1.08468
G1 X-4.46 Y0.00 E1.08723
G1 X-3.11 Y-2.35 E1.08978
G1 X-0.39 Y-2.35 E1.09234
G1 X0.96 Y0.00 E1.09489
G0 X0.65 Y-0.05
;LAYER:60
G0 X0.96 Y0.00 Z3.66
;TYPE:WALL-OUTER
G1 X-0.39 Y2.35 E1.09744
G1 X-3.11 Y2.35 E1.09999
G1 X-4.46 Y0.00 E1.10254
G1 X-3.11 Y-2.35 E1.10509
G1 X-0.39 Y-2.35 E1.10764
G1 X0.96 Y0.00 E1.11019
G0 X0.65 Y-0.05
;LAYER:61
G0 X0.96 Y0.00 Z3.72
;TYPE:WALL-OUTER
G1 X-0.39 Y2.35 E1.11275
G1 X-3.11 Y2.35 E1.11530
G1 X-4.46 Y0.00 E1.11785
G1 X-3.11 Y-2.35 E1.12040
G1 X-0.39 Y-2.35 E1.12295
G1 X0.96 Y0.00 E1.12550
G0 X0.65 Y-0.05
;LAYER:62
G0 X0.96 Y0.00 Z3.78
;TYPE:WALL-OUTER
