;Generated with Cura_SteamEngine 13.11.2


;Layer count: 1885
;LAYER:0
M107
G0 F6000 X5.09 Y-0.82 Z0.03
;TYPE:SKIRT
G1 F6000 E0.00000
G1 X5.09 Y0.82 E0.00077
G1 X1.50 Y7.03 E0.00414
G1 X0.09 Y7.85 E0.00491
G1 X-7.09 Y7.85 E0.00829
G1 X-8.50 Y7.03 E0.00905
G1 X-12.09 Y0.82 E0.01243
G1 X-12.09 Y-0.82 E0.01320
G1 X-8.50 Y-7.03 E0.01657
G1 X-7.09 Y-7.85 E0.01734
G1 X0.09 Y-7.85 E0.02071
G1 X1.50 Y-7.03 E0.02148
G1 X5.09 Y-0.82 E0.02486
G0 X5.19 Y-0.84
G1 X5.19 Y0.84 E0.02565
G1 X1.58 Y7.10 E0.02905
G1 X0.11 Y7.95 E0.02984
G1 X-7.11 Y7.95 E0.03324
G1 X-8.57 Y7.10 E0.03404
G1 X-12.19 Y0.84 E0.03744
G1 X-12.19 Y-0.84 E0.03823
G1 X-8.57 Y-7.10 E0.04163
G1 X-7.11 Y-7.95 E0.04242
G1 X0.11 Y-7.95 E0.04582
G1 X1.58 Y-7.10 E0.04662
G1 X5.19 Y-0.84 E0.05002
G0 X5.29 Y-0.87
G1 X5.29 Y0.87 E0.05083
G1 X1.65 Y7.18 E0.05426
G1 X0.14 Y8.05 E0.05508
G1 X-7.14 Y8.05 E0.05850
G1 X-8.65 Y7.18 E0.05932
G1 X-12.29 Y0.87 E0.06275
G1 X-12.29 Y-0.87 E0.06356
G1 X-8.65 Y-7.18 E0.06699
G1 X-7.14 Y-8.05 E0.06781
G1 X0.14 Y-8.05 E0.07123
G1 X1.65 Y-7.18 E0.07205
G1 X5.29 Y-0.87 E0.07548
G0 X1.83 Y0.04
G0 X1.83 Y-0.04
G0 X1.98 Y0.00
;TYPE:WALL-OUTER
G1 X-0.76 Y4.75 E0.07806
G1 X-6.24 Y4.75 E0.08063
G1 X-8.98 Y0.00 E0.08321
G1 X-6.24 Y-4.75 E0.08579
G1 X-0.76 Y-4.75 E0.08837
G1 X1.98 Y0.00 E0.09095
G0 X1.67 Y-0.05
;LAYER:1
G0 X1.98 Y0.00 Z0.06
;TYPE:WALL-OUTER
G1 X-0.76 Y4.75 E0.09353
G1 X-6.24 Y4.75 E0.09611
G1 X-8.98 Y0.00 E0.09869
G1 X-6.24 Y-4.75 E0.10126
G1 X-0.76 Y-4.75 E0.10384
G1 X1.98 Y0.00 E0.10642
G0 X1.67 Y-0.05
;LAYER:2
G0 X1.98 Y0.00 Z0.09
;TYPE:WALL-OUTER
G1 X-0.76 Y4.75 E0.10900
G1 X-6.24 Y4.75 E0.11158
G1 X-8.98 Y0.00 E0.11416
G1 X-6.24 Y-4.75 E0.11674
G1 X-0.76 Y-4.75 E0.11931
G1 X1.98 Y0.00 E0.12189
G0 X1.67 Y-0.05
;LAYER:3
G0 X1.98 Y0.00 Z0.12
;TYPE:WALL-OUTER
G1 X-0.76 Y4.75 E0.12447
G1 X-6.24 Y4.75 E0.12705
G1 X-8.98 Y0.00 E0.12963
G1 X-6.24 Y-4.75 E0.13221
G1 X-0.76 Y-4.75 E0.13479
G1 X1.98 Y0.00 E0.13737
G0 X1.67 Y-0.05
;LAYER:4
G0 X1.98 Y0.00 Z0.15
;TYPE:WALL-OUTER
G1 X-0.76 Y4.75 E0.13995
G1 X-6.24 Y4.75 E0.14252
G1 X-8.98 Y0.00 E0.14510
G1 X-6.24 Y-4.75 E0.14768
G1 X-0.76 Y-4.75 E0.15026
G1 X1.98 Y0.00 E0.15284
G0 X1.67 Y-0.05
;LAYER:5
G0 X1.98 Y0.00 Z0.18
;TYPE:WALL-OUTER
G1 X-0.76 Y4.75 E0.15542
G1 X-6.24 Y4.75 E0.15800
G1 X-8.98 Y0.00 E0.16057
G1 X-6.24 Y-4.75 E0.16315
G1 X-0.76 Y-4.75 E0.16573
G1 X1.98 Y0.00 E0.16831
G0 X1.67 Y-0.05
;LAYER:6
G0 X1.98 Y0.00 Z0.21
;TYPE:WALL-OUTER
G1 X-0.76 Y4.75 E0.17089
G1 X-6.24 Y4.75 E0.17347
G1 X-8.98 Y0.00 E0.17605
G1 X-6.24 Y-4.75 E0.17863
G1 X-0.76 Y-4.75 E0.18120
G1 X1.98 Y0.00 E0.18378
G0 X1.67 Y-0.05
;LAYER:7
G0 X1.98 Y0.00 Z0.24
;TYPE:WALL-OUTER
G1 X-0.76 Y4.75 E0.18636
G1 X-6.24 Y4.75 E0.18894
G1 X-8.98 Y0.00 E0.19152
G1 X-6.24 Y-4.75 E0.19410
G1 X-0.76 Y-4.75 E0.19668
G1 X1.98 Y0.00 E0.19925
G0 X1.67 Y-0.05
;LAYER:8
G0 X1.98 Y0.00 Z0.27
;TYPE:WALL-OUTER
G1 X-0.76 Y4.75 E0.20183
G1 X-6.24 Y4.75 E0.20441
G1 X-8.98 Y0.00 E0.20699
G1 X-6.24 Y-4.75 E0.20957
G1 X-0.76 Y-4.75 E0.21215
G1 X1.98 Y0.00 E0.21473
G0 X1.67 Y-0.05
;LAYER:9
G0 X1.98 Y0.00 Z0.30
;TYPE:WALL-OUTER
G1 X-0.76 Y4.75 E0.21731
G1 X-6.24 Y4.75 E0.21988
G1 X-8.98 Y0.00 E0.22246
G1 X-6.24 Y-4.75 E0.22504
G1 X-0.76 Y-4.75 E0.22762
G1 X1.98 Y0.00 E0.23020
G0 X1.67 Y-0.05
;LAYER:10
G0 X1.98 Y0.00 Z0.33
;TYPE:WALL-OUTER
G1 X-0.76 Y4.75 E0.23278
G1 X-6.24 Y4.75 E0.23536
G1 X-8.98 Y0.00 E0.23794
G1 X-6.24 Y-4.75 E0.24051
G1 X-0.76 Y-4.75 E0.24309
G1 X1.98 Y0.00 E0.24567
G0 X1.67 Y-0.05
;LAYER:11
G0 X1.98 Y0.00 Z0.36
;TYPE:WALL-OUTER
G1 X-0.76 Y4.75 E0.24825
G1 X-6.24 Y4.75 E0.25083
G1 X-8.98 Y0.00 E0.25341
G1 X-6.24 Y-4.75 E0.25599
G1 X-0.76 Y-4.75 E0.25856
G1 X1.98 Y0.00 E0.26114
G0 X1.67 Y-0.05
;LAYER:12
G0 X1.98 Y0.00 Z0.39
;TYPE:WALL-OUTER
G1 X-0.76 Y4.75 E0.26372
G1 X-6.24 Y4.75 E0.26630
G1 X-8.98 Y0.00 E0.26888
G1 X-6.24 Y-4.75 E0.27146
G1 X-0.76 Y-4.75 E0.27404
G1 X1.98 Y0.00 E0.27662
G0 X1.67 Y-0.05
;LAYER:13
G0 X1.98 Y0.00 Z0.42
;TYPE:WALL-OUTER
G1 X-0.76 Y4.75 E0.27919
G1 X-6.24 Y4.75 E0.28177
G1 X-8.98 Y0.00 E0.28435
G1 X-6.24 Y-4.75 E0.28693
G1 X-0.76 Y-4.75 E0.28951
G1 X1.98 Y0.00 E0.29209
G0 X1.67 Y-0.05
;LAYER:14
G0 X1.98 Y0.00 Z0.45
;TYPE:WALL-OUTER
G1 X-0.76 Y4.75 E0.29467
G1 X-6.24 Y4.75 E0.29724
G1 X-8.98 Y0.00 E0.29982
G1 X-6.24 Y-4.75 E0.30240
G1 X-0.76 Y-4.75 E0.30498
G1 X1.98 Y0.00 E0.30756
G0 X1.67 Y-0.05
;LAYER:15
G0 X1.98 Y0.00 Z0.48
;TYPE:WALL-OUTER
G1 X-0.76 Y4.75 E0.31014
G1 X-6.24 Y4.75 E0.31272
G1 X-8.98 Y0.00 E0.31530
G1 X-6.24 Y-4.75 E0.31788
G1 X-0.76 Y-4.75 E0.32045
G1 X1.98 Y0.00 E0.32303
G0 X1.67 Y-0.05
;LAYER:16
G0 X1.98 Y0.00 Z0.51
;TYPE:WALL-OUTER
G1 X-0.76 Y4.75 E0.32561
G1 X-6.24 Y4.75 E0.32819
G1 X-8.98 Y0.00 E0.33077
G1 X-6.24 Y-4.75 E0.33335
G1 X-0.76 Y-4.75 E0.33593
G1 X1.98 Y0.00 E0.33850
G0 X1.67 Y-0.05
;LAYER:17
G0 X1.98 Y0.00 Z0.54
;TYPE:WALL-OUTER
G1 X-0.76 Y4.75 E0.34108
G1 X-6.24 Y4.75 E0.34366
G1 X-8.98 Y0.00 E0.34624
G1 X-6.24 Y-4.75 E0.34882
G1 X-0.76 Y-4.75 E0.35140
G1 X1.98 Y0.00 E0.35398
G0 X1.67 Y-0.05
;LAYER:18
G0 X1.98 Y0.00 Z0.57
;TYPE:WALL-OUTER
G1 X-0.76 Y4.75 E0.35656
G1 X-6.24 Y4.75 E0.35913
G1 X-8.98 Y0.00 E0.36171
G1 X-6.24 Y-4.75 E0.36429
G1 X-0.76 Y-4.75 E0.36687
G1 X1.98 Y0.00 E0.36945
G0 X1.67 Y-0.05
;LAYER:19
G0 X1.98 Y0.00 Z0.60
;TYPE:WALL-OUTER
G1 X-0.76 Y4.75 E0.37203
G1 X-6.24 Y4.75 E0.37461
G1 X-8.98 Y0.00 E0.37718
G1 X-6.24 Y-4.75 E0.37976
G1 X-0.76 Y-4.75 E0.38234
G1 X1.98 Y0.00 E0.38492
G0 X1.67 Y-0.05
;LAYER:20
G0 X1.98 Y0.00 Z0.63
;TYPE:WALL-OUTER
G1 X-0.76 Y4.75 E0.38750
G1 X-6.24 Y4.75 E0.39008
G1 X-8.98 Y0.00 E0.39266
G1 X-6.24 Y-4.75 E0.39524
G1 X-0.76 Y-4.75 E0.39781
G1 X1.98 Y0.00 E0.40039
G0 X1.67 Y-0.05
;LAYER:21
G0 X1.98 Y0.00 Z0.66
;TYPE:WALL-OUTER
G1 X-0.76 Y4.75 E0.40297
G1 X-6.24 Y4.75 E0.40555
G1 X-8.98 Y0.00 E0.40813
G1 X-6.24 Y-4.75 E0.41071
G1 X-0.76 Y-4.75 E0.41329
G1 X1.98 Y0.00 E0.41587
G0 X1.67 Y-0.05
;LAYER:22
G0 X1.98 Y0.00 Z0.69
;TYPE:WALL-OUTER
G1 X-0.76 Y4.75 E0.41844
G1 X-6.24 Y4.75 E0.42102
G1 X-8.98 Y0.00 E0.42360
G1 X-6.24 Y-4.75 E0.42618
G1 X-0.76 Y-4.75 E0.42876
G1 X1.98 Y0.00 E0.43134
G0 X1.67 Y-0.05
;LAYER:23
G0 X1.98 Y0.00 Z0.72
;TYPE:WALL-OUTER
G1 X-0.76 Y4.75 E0.43392
G1 X-6.24 Y4.75 E0.43649
G1 X-8.98 Y0.00 E0.43907
G1 X-6.24 Y-4.75 E0.44165
G1 X-0.76 Y-4.75 E0.44423
G1 X1.98 Y0.00 E0.44681
G0 X1.67 Y-0.05
;LAYER:24
G0 X1.98 Y0.00 Z0.75
;TYPE:WALL-OUTER
G1 X-0.76 Y4.75 E0.44939
G1 X-6.24 Y4.75 E0.45197
G1 X-8.98 Y0.00 E0.45455
G1 X-6.24 Y-4.75 E0.45712
G1 X-0.76 Y-4.75 E0.45970
G1 X1.98 Y0.00 E0.46228
G0 X1.67 Y-0.05
;LAYER:25
G0 X1.98 Y0.00 Z0.78
;TYPE:WALL-OUTER
G1 X-0.76 Y4.75 E0.46486
G1 X-6.24 Y4.75 E0.46744
G1 X-8.98 Y0.00 E0.47002
G1 X-6.24 Y-4.75 E0.47260
G1 X-0.76 Y-4.75 E0.47517
G1 X1.98 Y0.00 E0.47775
G0 X1.67 Y-0.05
;LAYER:26
G0 X1.98 Y0.00 Z0.81
;TYPE:WALL-OUTER
G1 X-0.76 Y4.75 E0.48033
G1 X-6.24 Y4.75 E0.48291
G1 X-8.98 Y0.00 E0.48549
G1 X-6.24 Y-4.75 E0.48807
G1 X-0.76 Y-4.75 E0.49065
G1 X1.98 Y0.00 E0.49323
G0 X1.67 Y-0.05
;LAYER:27
G0 X1.98 Y0.00 Z0.84
;TYPE:WALL-OUTER
G1 X-0.76 Y4.75 E0.49580
G1 X-6.24 Y4.75 E0.49838
G1 X-8.98 Y0.00 E0.50096
G1 X-6.24 Y-4.75 E0.50354
G1 X-0.76 Y-4.75 E0.50612
G1 X1.98 Y0.00 E0.50870
G0 X1.67 Y-0.05
;LAYER:28
G0 X1.98 Y0.00 Z0.87
;TYPE:WALL-OUTER
G1 X-0.76 Y4.75 E0.51128
G1 X-6.24 Y4.75 E0.51386
G1 X-8.98 Y0.00 E0.51643
G1 X-6.24 Y-4.75 E0.51901
G1 X-0.76 Y-4.75 E0.52159
G1 X1.98 Y0.00 E0.52417
G0 X1.67 Y-0.05
;LAYER:29
G0 X1.98 Y0.00 Z0.90
;TYPE:WALL-OUTER
G1 X-0.76 Y4.75 E0.52675
G1 X-6.24 Y4.75 E0.52933
G1 X-8.98 Y0.00 E0.53191
G1 X-6.24 Y-4.75 E0.53449
G1 X-0.76 Y-4.75 E0.53706
G1 X1.98 Y0.00 E0.53964
G0 X1.67 Y-0.05
;LAYER:30
G0 X1.98 Y0.00 Z0.93
;TYPE:WALL-OUTER
G1 X-0.76 Y4.75 E0.54222
G1 X-6.24 Y4.75 E0.54480
G1 X-8.98 Y0.00 E0.54738
G1 X-6.24 Y-4.75 E0.54996
G1 X-0.76 Y-4.75 E0.55254
G1 X1.98 Y0.00 E0.55511
G0 X1.67 Y-0.05
;LAYER:31
G0 X1.98 Y0.00 Z0.96
;TYPE:WALL-OUTER
G1 X-0.76 Y4.75 E0.55769
G1 X-6.24 Y4.75 E0.56027
G1 X-8.98 Y0.00 E0.56285
G1 X-6.24 Y-4.75 E0.56543
G1 X-0.76 Y-4.75 E0.56801
G1 X1.98 Y0.00 E0.57059
G0 X1.67 Y-0.05
;LAYER:32
G0 X1.98 Y0.00 Z0.99
;TYPE:WALL-OUTER
G1 X-0.76 Y4.75 E0.57317
G1 X-6.24 Y4.75 E0.57574
G1 X-8.98 Y0.00 E0.57832
G1 X-6.24 Y-4.75 E0.58090
G1 X-0.76 Y-4.75 E0.58348
G1 X1.98 Y0.00 E0.58606
G0 X1.67 Y-0.05
;LAYER:33
G0 X1.98 Y0.00 Z1.02
;TYPE:WALL-OUTER
G1 X-0.76 Y4.75 E0.58864
G1 X-6.24 Y4.75 E0.59122
G1 X-8.98 Y0.00 E0.59379
G1 X-6.24 Y-4.75 E0.59637
G1 X-0.76 Y-4.75 E0.59895
G1 X1.98 Y0.00 E0.60153
G0 X1.67 Y-0.05
;LAYER:34
G0 X1.98 Y0.00 Z1.05
;TYPE:WALL-OUTER
G1 X-0.76 Y4.75 E0.60411
G1 X-6.24 Y4.75 E0.60669
G1 X-8.98 Y0.00 E0.60927
G1 X-6.24 Y-4.75 E0.61185
G1 X-0.76 Y-4.75 E0.61442
G1 X1.98 Y0.00 E0.61700
G0 X1.67 Y-0.05
;LAYER:35
G0 X1.98 Y0.00 Z1.08
;TYPE:WALL-OUTER
G1 X-0.76 Y4.75 E0.61958
G1 X-6.24 Y4.75 E0.62216
G1 X-8.98 Y0.00 E0.62474
G1 X-6.24 Y-4.75 E0.62732
G1 X-0.76 Y-4.75 E0.62990
G1 X1.98 Y0.00 E0.63248
G0 X1.67 Y-0.05
;LAYER:36
G0 X1.98 Y0.00 Z1.11
;TYPE:WALL-OUTER
G1 X-0.76 Y4.75 E0.63505
G1 X-6.24 Y4.75 E0.63763
G1 X-8.98 Y0.00 E0.64021
G1 X-6.24 Y-4.75 E0.64279
G1 X-0.76 Y-4.75 E0.64537
G1 X1.98 Y0.00 E0.64795
G0 X1.67 Y-0.05
;LAYER:37
G0 X1.98 Y0.00 Z1.14
;TYPE:WALL-OUTER
G1 X-0.76 Y4.75 E0.65053
G1 X-6.24 Y4.75 E0.65310
G1 X-8.98 Y0.00 E0.65568
G1 X-6.24 Y-4.74 E0.65826
G1 X-0.76 Y-4.75 E0.66084
G1 X1.98 Y0.00 E0.66342
G0 X1.67 Y-0.05
;LAYER:38
G0 X1.98 Y0.00 Z1.17
;TYPE:WALL-OUTER
G1 X-0.76 Y4.75 E0.66600
G1 X-6.24 Y4.75 E0.66858
G1 X-8.98 Y0.00 E0.67115
G1 X-6.24 Y-4.74 E0.67373
G1 X-0.76 Y-4.75 E0.67631
G1 X1.98 Y0.00 E0.67889
G0 X1.67 Y-0.05
;LAYER:39
G0 X1.98 Y0.00 Z1.20
;TYPE:WALL-OUTER
G1 X-0.76 Y4.75 E0.68147
G1 X-6.24 Y4.75 E0.68405
G1 X-8.98 Y0.00 E0.68663
G1 X-6.24 Y-4.74 E0.68920
G1 X-0.76 Y-4.75 E0.69178
G1 X1.98 Y0.00 E0.69436
G0 X1.67 Y-0.05
;LAYER:40
G0 X1.98 Y0.00 Z1.23
;TYPE:WALL-OUTER
G1 X-0.76 Y4.75 E0.69694
G1 X-6.24 Y4.75 E0.69952
G1 X-8.98 Y0.00 E0.70210
G1 X-6.24 Y-4.74 E0.70467
G1 X-0.76 Y-4.75 E0.70725
G1 X1.98 Y0.00 E0.70983
G0 X1.67 Y-0.05
;LAYER:41
G0 X1.98 Y0.00 Z1.26
;TYPE:WALL-OUTER
G1 X-0.76 Y4.75 E0.71241
G1 X-6.24 Y4.75 E0.71499
G1 X-8.98 Y0.00 E0.71757
G1 X-6.24 Y-4.74 E0.72015
G1 X-0.76 Y-4.75 E0.72272
G1 X1.98 Y0.00 E0.72530
G0 X1.67 Y-0.05
;LAYER:42
G0 X1.98 Y0.00 Z1.29
;TYPE:WALL-OUTER
G1 X-0.76 Y4.75 E0.72788
G1 X-6.24 Y4.75 E0.73046
G1 X-8.98 Y0.00 E0.73304
G1 X-6.24 Y-4.74 E0.73562
G1 X-0.76 Y-4.75 E0.73820
G1 X1.98 Y0.00 E0.74077
G0 X1.67 Y-0.05
;LAYER:43
G0 X1.98 Y0.00 Z1.32
;TYPE:WALL-OUTER
G1 X-0.76 Y4.75 E0.74335
G1 X-6.24 Y4.75 E0.74593
G1 X-8.98 Y0.00 E0.74851
G1 X-6.24 Y-4.75 E0.75109
G1 X-0.76 Y-4.75 E0.75367
G1 X1.98 Y0.00 E0.75625
G0 X1.67 Y-0.05
;LAYER:44
G0 X1.98 Y0.00 Z1.35
;TYPE:WALL-OUTER
G1 X-0.76 Y4.75 E0.75883
G1 X-6.24 Y4.75 E0.76140
G1 X-8.98 Y0.00 E0.76398
G1 X-6.24 Y-4.75 E0.76656
G1 X-0.76 Y-4.75 E0.76914
G1 X1.98 Y0.00 E0.77172
G0 X1.67 Y-0.05
;LAYER:45
G0 X1.98 Y0.00 Z1.38
;TYPE:WALL-OUTER
G1 X-0.76 Y4.75 E0.77430
G1 X-6.24 Y4.75 E0.77688
G1 X-8.98 Y0.00 E0.77946
G1 X-6.24 Y-4.75 E0.78203
G1 X-0.76 Y-4.75 E0.78461
G1 X1.98 Y0.00 E0.78719
G0 X1.67 Y-0.05
;LAYER:46
G0 X1.98 Y0.00 Z1.41
;TYPE:WALL-OUTER
G1 X-0.76 Y4.75 E0.78977
G1 X-6.24 Y4.75 E0.79235
G1 X-8.98 Y0.00 E0.79493
G1 X-6.24 Y-4.75 E0.79751
G1 X-0.76 Y-4.75 E0.80008
G1 X1.98 Y0.00 E0.80266
G0 X1.67 Y-0.05
;LAYER:47
G0 X1.98 Y0.00 Z1.44
;TYPE:WALL-OUTER
G1 X-0.76 Y4.75 E0.80524
G1 X-6.24 Y4.75 E0.80782
G1 X-8.98 Y0.00 E0.81040
G1 X-6.24 Y-4.75 E0.81298
G1 X-0.76 Y-4.75 E0.81556
G1 X1.98 Y0.00 E0.81814
G0 X1.67 Y-0.05
;LAYER:48
G0 X1.98 Y0.00 Z1.47
;TYPE:WALL-OUTER
G1 X-0.76 Y4.75 E0.82071
G1 X-6.24 Y4.75 E0.82329
G1 X-8.98 Y0.00 E0.82587
G1 X-6.24 Y-4.75 E0.82845
G1 X-0.76 Y-4.75 E0.83103
G1 X1.98 Y0.00 E0.83361
G0 X1.67 Y-0.05
;LAYER:49
G0 X1.98 Y0.00 Z1.50
;TYPE:WALL-OUTER
G1 X-0.76 Y4.75 E0.83619
G1 X-6.24 Y4.75 E0.83876
G1 X-8.98 Y0.00 E0.84134
G1 X-6.24 Y-4.75 E0.84392
G1 X-0.76 Y-4.75 E0.84650
G1 X1.98 Y0.00 E0.84908
G0 X1.67 Y-0.05
;LAYER:50
G0 X1.98 Y0.00 Z1.53
;TYPE:WALL-OUTER
G1 X-0.76 Y4.75 E0.85166
G1 X-6.24 Y4.75 E0.85424
G1 X-8.98 Y0.00 E0.85682
G1 X-6.24 Y-4.75 E0.85940
G1 X-0.76 Y-4.75 E0.86197
G1 X1.98 Y0.00 E0.86455
G0 X1.67 Y-0.05
;LAYER:51
G0 X1.98 Y0.00 Z1.56
;TYPE:WALL-OUTER
G1 X-0.76 Y4.75 E0.86713
G1 X-6.24 Y4.75 E0.86971
G1 X-8.98 Y0.00 E0.87229
G1 X-6.24 Y-4.75 E0.87487
G1 X-0.76 Y-4.75 E0.87745
G1 X1.98 Y0.00 E0.88002
G0 X1.67 Y-0.05
;LAYER:52
G0 X1.98 Y0.00 Z1.59
;TYPE:WALL-OUTER
G1 X-0.76 Y4.75 E0.88260
G1 X-6.24 Y4.75 E0.88518
G1 X-8.98 Y0.00 E0.88776
G1 X-6.24 Y-4.75 E0.89034
G1 X-0.76 Y-4.75 E0.89292
G1 X1.98 Y0.00 E0.89550
G0 X1.67 Y-0.05
;LAYER:53
G0 X1.98 Y0.00 Z1.62
;TYPE:WALL-OUTER
G1 X-0.76 Y4.75 E0.89808
G1 X-6.24 Y4.75 E0.90065
G1 X-8.98 Y0.00 E0.90323
G1 X-6.24 Y-4.75 E0.90581
G1 X-0.76 Y-4.75 E0.90839
G1 X1.98 Y0.00 E0.91097
G0 X1.67 Y-0.05
;LAYER:54
G0 X1.98 Y0.00 Z1.65
;TYPE:WALL-OUTER
G1 X-0.76 Y4.75 E0.91355
G1 X-6.24 Y4.75 E0.91613
G1 X-8.98 Y0.00 E0.91870
G1 X-6.24 Y-4.75 E0.92128
G1 X-0.76 Y-4.75 E0.92386
G1 X1.98 Y0.00 E0.92644
G0 X1.67 Y-0.05
;LAYER:55
G0 X1.98 Y0.00 Z1.68
;TYPE:WALL-OUTER
G1 X-0.76 Y4.75 E0.92902
G1 X-6.24 Y4.75 E0.93160
G1 X-8.98 Y0.00 E0.93418
G1 X-6.24 Y-4.75 E0.93676
G1 X-0.76 Y-4.75 E0.93933
G1 X1.98 Y0.00 E0.94191
G0 X1.67 Y-0.05
;LAYER:56
G0 X1.98 Y0.00 Z1.71
;TYPE:WALL-OUTER
G1 X-0.76 Y4.75 E0.94449
G1 X-6.24 Y4.75 E0.94707
G1 X-8.98 Y0.00 E0.94965
G1 X-6.24 Y-4.75 E0.95223
G1 X-0.76 Y-4.75 E0.95481
G1 X1.98 Y0.00 E0.95739
G0 X1.67 Y-0.05
;LAYER:57
G0 X1.98 Y0.00 Z1.74
;TYPE:WALL-OUTER
G1 X-0.76 Y4.75 E0.95996
G1 X-6.24 Y4.75 E0.96254
G1 X-8.98 Y0.00 E0.96512
G1 X-6.24 Y-4.75 E0.96770
G1 X-0.76 Y-4.75 E0.97028
G1 X1.98 Y0.00 E0.97286
G0 X1.67 Y-0.05
;LAYER:58
G0 X1.98 Y0.00 Z1.77
;TYPE:WALL-OUTER
G1 X-0.76 Y4.75 E0.97544
G1 X-6.24 Y4.75 E0.97801
G1 X-8.98 Y0.00 E0.98059
G1 X-6.24 Y-4.75 E0.98317
G1 X-0.76 Y-4.75 E0.98575
G1 X1.98 Y0.00 E0.98833
G0 X1.67 Y-0.05
;LAYER:59
G0 X1.98 Y0.00 Z1.80
;TYPE:WALL-OUTER
G1 X-0.76 Y4.75 E0.99091
G1 X-6.24 Y4.75 E0.99349
G1 X-8.98 Y0.00 E0.99607
G1 X-6.24 Y-4.75 E0.99864
G1 X-0.76 Y-4.75 E1.00122
G1 X1.98 Y0.00 E1.00380
G0 X1.67 Y-0.05
;LAYER:60
G0 X1.98 Y0.00 Z1.83
;TYPE:WALL-OUTER
G1 X-0.76 Y4.75 E1.00638
G1 X-6.24 Y4.75 E1.00896
G1 X-8.98 Y0.00 E1.01154
G1 X-6.24 Y-4.75 E1.01412
G1 X-0.76 Y-4.75 E1.01669
G1 X1.98 Y0.00 E1.01927
G0 X1.67 Y-0.05
;LAYER:61
G0 X1.98 Y0.00 Z1.86
;TYPE:WALL-OUTER
G1 X-0.76 Y4.75 E1.02185
G1 X-6.24 Y4.75 E1.02443
G1 X-8.98 Y0.00 E1.02701
G1 X-6.24 Y-4.75 E1.02959
G1 X-0.76 Y-4.75 E1.03217
G1 X1.98 Y0.00 E1.03475
G0 X1.67 Y-0.05
;LAYER:62
G0 X1.98 Y0.00 Z1.89
;TYPE:WALL-OUTER
G1 X-0.76 Y4.75 E1.03733
G1 X-6.24 Y4.75 E1.03990
G1 X-8.98 Y0.00 E1.04248
G1 X-6.24 Y-4.75 E1.04506
G1 X-0.76 Y-4.75 E1.04764
G1 X1.98 Y0.00 E1.05022
G0 X1.67 Y-0.05
;LAYER:63
G0 X1.98 Y0.00 Z1.92
;TYPE:WALL-OUTER
G1 X-0.76 Y4.75 E1.05280
G1 X-6.24 Y4.75 E1.05538
G1 X-8.98 Y0.00 E1.05795
G1 X-6.24 Y-4.75 E1.06053
G1 X-0.76 Y-4.75 E1.06311
G1 X1.98 Y0.00 E1.06569
G0 X1.67 Y-0.05
;LAYER:64
G0 X1.98 Y0.00 Z1.95
;TYPE:WALL-OUTER
G1 X-0.76 Y4.75 E1.06827
G1 X-6.24 Y4.75 E1.07085
G1 X-8.98 Y0.00 E1.07343
G1 X-6.24 Y-4.75 E1.07601
G1 X-0.76 Y-4.75 E1.07858
G1 X1.98 Y0.00 E1.08116
G0 X1.67 Y-0.05
;LAYER:65
G0 X1.98 Y0.00 Z1.98
;TYPE:WALL-OUTER
G1 X-0.76 Y4.75 E1.08374
G1 X-6.24 Y4.75 E1.08632
G1 X-8.98 Y0.00 E1.08890
G1 X-6.24 Y-4.75 E1.09148
G1 X-0.76 Y-4.75 E1.09406
G1 X1.98 Y0.00 E1.09663
G0 X1.67 Y-0.05
;LAYER:66
G0 X1.98 Y0.00 Z2.01
;TYPE:WALL-OUTER
G1 X-0.76 Y4.75 E1.09921
G1 X-6.24 Y4.75 E1.10179
G1 X-8.98 Y0.00 E1.10437
G1 X-6.24 Y-4.75 E1.10695
G1 X-0.76 Y-4.75 E1.10953
G1 X1.98 Y0.00 E1.11211
G0 X1.67 Y-0.05
;LAYER:67
G0 X1.98 Y0.00 Z2.04
;TYPE:WALL-OUTER
G1 X-0.76 Y4.75 E1.11469
G1 X-6.24 Y4.75 E1.11726
G1 X-8.98 Y0.00 E1.11984
G1 X-6.24 Y-4.75 E1.12242
G1 X-0.76 Y-4.75 E1.12500
G1 X1.98 Y0.00 E1.12758
G0 X1.67 Y-0.05
;LAYER:68
G0 X1.98 Y0.00 Z2.07
;TYPE:WALL-OUTER
G1 X-0.76 Y4.75 E1.13016
G1 X-6.24 Y4.75 E1.13274
G1 X-8.98 Y0.00 E1.13532
G1 X-6.24 Y-4.75 E1.13789
G1 X-0.76 Y-4.75 E1.14047
G1 X1.98 Y0.00 E1.14305
G0 X1.67 Y-0.05
;LAYER:69
G0 X1.98 Y0.00 Z2.10
;TYPE:WALL-OUTER
G1 X-0.76 Y4.75 E1.14563
