;Generated with Cura_SteamEngine 13.11.2


;Layer count: 4241
;LAYER:0
M107
G0 F6000 X4.58 Y-0.82 Z0.01
;TYPE:SKIRT
G1 F6000 E0.00000
G1 X4.58 Y0.82 E0.00026
G1 X1.68 Y5.83 E0.00116
G1 X0.27 Y6.65 E0.00142
G1 X-5.52 Y6.65 E0.00233
G1 X-6.93 Y5.83 E0.00258
G1 X-9.83 Y0.82 E0.00349
G1 X-9.83 Y-0.82 E0.00375
G1 X-6.93 Y-5.83 E0.00466
G1 X-5.52 Y-6.65 E0.00491
G1 X0.27 Y-6.65 E0.00582
G1 X1.69 Y-5.83 E0.00608
G1 X4.58 Y-0.82 E0.00698
G0 X4.68 Y-0.84
G1 X4.68 Y0.84 E0.00725
G1 X1.76 Y5.90 E0.00816
G1 X0.30 Y6.75 E0.00843
G1 X-5.55 Y6.75 E0.00934
G1 X-7.01 Y5.90 E0.00961
G1 X-9.93 Y0.84 E0.01052
G1 X-9.93 Y-0.84 E0.01079
G1 X-7.01 Y-5.91 E0.01171
G1 X-5.55 Y-6.75 E0.01197
G1 X0.30 Y-6.75 E0.01289
G1 X1.76 Y-5.90 E0.01315
G1 X4.68 Y-0.84 E0.01407
G0 X4.78 Y-0.87
G1 X4.78 Y0.87 E0.01434
G1 X1.83 Y5.98 E0.01526
G1 X0.32 Y6.85 E0.01554
G1 X-5.57 Y6.85 E0.01646
G1 X-7.08 Y5.98 E0.01673
G1 X-10.03 Y0.87 E0.01766
G1 X-10.03 Y-0.87 E0.01793
G1 X-7.08 Y-5.98 E0.01886
G1 X-5.57 Y-6.85 E0.01913
G1 X0.32 Y-6.85 E0.02005
G1 X1.83 Y-5.98 E0.02033
G1 X4.78 Y-0.87 E0.02125
G0 X4.88 Y-0.90
G1 X4.88 Y0.90 E0.02153
G1 X1.90 Y6.05 E0.02246
G1 X0.35 Y6.95 E0.02275
G1 X-5.60 Y6.95 E0.02368
G1 X-7.16 Y6.05 E0.02396
G1 X-10.13 Y0.90 E0.02489
G1 X-10.13 Y-0.90 E0.02517
G1 X-7.16 Y-6.05 E0.02611
G1 X-5.60 Y-6.95 E0.02639
G1 X0.35 Y-6.95 E0.02732
G1 X1.91 Y-6.05 E0.02760
G1 X4.88 Y-0.90 E0.02854
G0 X1.32 Y0.04
G0 X1.32 Y-0.04
G0 X1.47 Y0.00
;TYPE:WALL-OUTER
G1 X-0.58 Y3.55 E0.02918
G1 X-4.67 Y3.55 E0.02982
G1 X-6.72 Y0.00 E0.03046
G1 X-4.67 Y-3.55 E0.03111
G1 X-0.57 Y-3.55 E0.03175
G1 X1.47 Y0.00 E0.03239
G0 X1.16 Y-0.05
;LAYER:1
G0 X1.47 Y0.00 Z0.02
;TYPE:WALL-OUTER
G1 X-0.58 Y3.55 E0.03303
G1 X-4.67 Y3.55 E0.03367
G1 X-6.72 Y0.00 E0.03432
G1 X-4.67 Y-3.55 E0.03496
G1 X-0.58 Y-3.55 E0.03560
G1 X1.47 Y0.00 E0.03624
G0 X1.16 Y-0.05
;LAYER:2
G0 X1.47 Y0.00 Z0.03
;TYPE:WALL-OUTER
G1 X-0.58 Y3.55 E0.03689
G1 X-4.67 Y3.55 E0.03753
G1 X-6.72 Y0.00 E0.03817
G1 X-4.67 Y-3.55 E0.03881
G1 X-0.58 Y-3.55 E0.03946
G1 X1.47 Y0.00 E0.04010
G0 X1.16 Y-0.05
;LAYER:3
G0 X1.47 Y0.00 Z0.04
;TYPE:WALL-OUTER
G1 X-0.58 Y3.55 E0.04074
G1 X-4.67 Y3.55 E0.04138
G1 X-6.72 Y0.00 E0.04203
G1 X-4.67 Y-3.55 E0.04267
G1 X-0.58 Y-3.55 E0.04331
G1 X1.47 Y0.00 E0.04395
G0 X1.16 Y-0.05
;LAYER:4
G0 X1.47 Y0.00 Z0.05
;TYPE:WALL-OUTER
G1 X-0.58 Y3.55 E0.04460
G1 X-4.67 Y3.55 E0.04524
G1 X-6.72 Y0.00 E0.04588
G1 X-4.67 Y-3.55 E0.04652
G1 X-0.58 Y-3.55 E0.04717
G1 X1.47 Y0.00 E0.04781
G0 X1.16 Y-0.05
;LAYER:5
G0 X1.47 Y0.00 Z0.06
;TYPE:WALL-OUTER
G1 X-0.58 Y3.55 E0.04845
G1 X-4.67 Y3.55 E0.04909
G1 X-6.72 Y0.00 E0.04974
G1 X-4.67 Y-3.55 E0.05038
G1 X-0.58 Y-3.55 E0.05102
G1 X1.47 Y0.00 E0.05166
G0 X1.16 Y-0.05
;LAYER:6
G0 X1.47 Y0.00 Z0.07
;TYPE:WALL-OUTER
G1 X-0.58 Y3.55 E0.05231
G1 X-4.67 Y3.55 E0.05295
G1 X-6.72 Y0.00 E0.05359
G1 X-4.67 Y-3.55 E0.05423
G1 X-0.57 Y-3.55 E0.05488
G1 X1.47 Y0.00 E0.05552
G0 X1.16 Y-0.05
;LAYER:7
G0 X1.47 Y0.00 Z0.08
;TYPE:WALL-OUTER
G1 X-0.58 Y3.55 E0.05616
G1 X-4.67 Y3.55 E0.05680
G1 X-6.72 Y0.00 E0.05745
G1 X-4.67 Y-3.55 E0.05809
G1 X-0.57 Y-3.55 E0.05873
G1 X1.47 Y0.00 E0.05937
G0 X1.16 Y-0.05
;LAYER:8
G0 X1.47 Y0.00 Z0.09
;TYPE:WALL-OUTER
G1 X-0.58 Y3.55 E0.06001
G1 X-4.67 Y3.55 E0.06066
G1 X-6.72 Y0.00 E0.06130
G1 X-4.67 Y-3.55 E0.06194
G1 X-0.57 Y-3.55 E0.06258
G1 X1.47 Y0.00 E0.06323
G0 X1.16 Y-0.05
;LAYER:9
G0 X1.47 Y0.00 Z0.10
;TYPE:WALL-OUTER
G1 X-0.58 Y3.55 E0.06387
G1 X-4.67 Y3.55 E0.06451
G1 X-6.72 Y0.00 E0.06515
G1 X-4.67 Y-3.55 E0.06580
G1 X-0.57 Y-3.55 E0.06644
G1 X-0.57 Y-3.54 E0.06644
G1 X1.47 Y0.00 E0.06708
G0 X1.16 Y-0.05
;LAYER:10
G0 X1.47 Y0.00 Z0.11
;TYPE:WALL-OUTER
G1 X-0.58 Y3.55 E0.06772
G1 X-4.67 Y3.55 E0.06837
G1 X-6.72 Y0.00 E0.06901
G1 X-4.67 Y-3.55 E0.06965
G1 X-0.58 Y-3.55 E0.07029
G1 X-0.57 Y-3.53 E0.07030
G1 X1.47 Y0.00 E0.07094
G0 X1.16 Y-0.05
;LAYER:11
G0 X1.47 Y0.00 Z0.12
;TYPE:WALL-OUTER
G1 X-0.58 Y3.55 E0.07158
G1 X-4.67 Y3.55 E0.07222
G1 X-6.72 Y0.00 E0.07286
G1 X-4.67 Y-3.55 E0.07351
G1 X-0.58 Y-3.55 E0.07415
G1 X1.47 Y0.00 E0.07479
G0 X1.16 Y-0.05
;LAYER:12
G0 X1.47 Y0.00 Z0.13
;TYPE:WALL-OUTER
G1 X-0.58 Y3.55 E0.07543
G1 X-4.67 Y3.55 E0.07608
G1 X-6.72 Y0.00 E0.07672
G1 X-4.67 Y-3.55 E0.07736
G1 X-0.57 Y-3.55 E0.07800
G1 X-0.56 Y-3.53 E0.07801
G1 X1.47 Y0.00 E0.07865
G0 X1.16 Y-0.05
;LAYER:13
G0 X1.47 Y0.00 Z0.14
;TYPE:WALL-OUTER
G1 X-0.58 Y3.55 E0.07929
G1 X-4.67 Y3.55 E0.07993
G1 X-6.72 Y0.00 E0.08057
G1 X-4.67 Y-3.55 E0.08122
G1 X-0.57 Y-3.55 E0.08186
G1 X1.47 Y0.00 E0.08250
G0 X1.16 Y-0.05
;LAYER:14
G0 X1.47 Y0.00 Z0.15
;TYPE:WALL-OUTER
G1 X-0.58 Y3.55 E0.08314
G1 X-4.67 Y3.55 E0.08379
G1 X-6.72 Y0.00 E0.08443
G1 X-4.67 Y-3.55 E0.08507
G1 X-0.57 Y-3.55 E0.08571
G1 X-0.56 Y-3.52 E0.08572
G1 X1.47 Y0.00 E0.08636
G0 X1.16 Y-0.05
;LAYER:15
G0 X1.47 Y0.00 Z0.16
;TYPE:WALL-OUTER
G1 X-0.58 Y3.55 E0.08700
G1 X-4.67 Y3.55 E0.08764
G1 X-6.72 Y0.00 E0.08828
G1 X-4.67 Y-3.55 E0.08892
G1 X-0.58 Y-3.55 E0.08957
G1 X-0.56 Y-3.52 E0.08957
G1 X1.47 Y0.00 E0.09021
G0 X1.16 Y-0.05
;LAYER:16
G0 X1.47 Y0.00 Z0.17
;TYPE:WALL-OUTER
G1 X-0.58 Y3.55 E0.09085
G1 X-4.67 Y3.55 E0.09149
G1 X-6.72 Y0.00 E0.09214
G1 X-4.67 Y-3.55 E0.09278
G1 X-0.58 Y-3.55 E0.09342
G1 X-0.56 Y-3.51 E0.09343
G1 X1.47 Y0.00 E0.09406
G0 X1.16 Y-0.05
;LAYER:17
G0 X1.47 Y0.00 Z0.18
;TYPE:WALL-OUTER
G1 X-0.58 Y3.55 E0.09471
G1 X-4.67 Y3.55 E0.09535
G1 X-6.72 Y0.00 E0.09599
G1 X-4.67 Y-3.55 E0.09663
G1 X-0.57 Y-3.55 E0.09728
G1 X1.47 Y0.00 E0.09792
G0 X1.16 Y-0.05
;LAYER:18
G0 X1.47 Y0.00 Z0.19
;TYPE:WALL-OUTER
G1 X-0.58 Y3.55 E0.09856
G1 X-4.67 Y3.55 E0.09920
G1 X-6.72 Y0.00 E0.09985
G1 X-4.67 Y-3.55 E0.10049
G1 X-0.58 Y-3.55 E0.10113
G1 X1.47 Y0.00 E0.10177
G0 X1.16 Y-0.05
;LAYER:19
G0 X1.47 Y0.00 Z0.20
;TYPE:WALL-OUTER
G1 X-0.58 Y3.55 E0.10242
G1 X-4.67 Y3.55 E0.10306
G1 X-6.72 Y0.00 E0.10370
G1 X-4.67 Y-3.55 E0.10434
G1 X-0.57 Y-3.55 E0.10499
G1 X-0.55 Y-3.50 E0.10499
G1 X1.47 Y0.00 E0.10563
G0 X1.16 Y-0.05
;LAYER:20
G0 X1.47 Y0.00 Z0.21
;TYPE:WALL-OUTER
G1 X-0.58 Y3.55 E0.10627
G1 X-4.67 Y3.55 E0.10691
G1 X-6.72 Y0.00 E0.10756
G1 X-4.67 Y-3.55 E0.10820
G1 X-0.58 Y-3.55 E0.10884
G1 X-0.55 Y-3.50 E0.10885
G1 X1.47 Y0.00 E0.10948
G0 X1.16 Y-0.05
;LAYER:21
G0 X1.47 Y0.00 Z0.22
;TYPE:WALL-OUTER
G1 X-0.58 Y3.55 E0.11013
G1 X-4.67 Y3.55 E0.11077
G1 X-6.72 Y0.00 E0.11141
G1 X-4.67 Y-3.55 E0.11205
G1 X-0.57 Y-3.55 E0.11270
G1 X-0.54 Y-3.49 E0.11271
G1 X1.47 Y0.00 E0.11334
G0 X1.16 Y-0.05
;LAYER:22
G0 X1.47 Y0.00 Z0.23
;TYPE:WALL-OUTER
G1 X-0.58 Y3.55 E0.11398
G1 X-4.67 Y3.55 E0.11462
G1 X-6.72 Y0.00 E0.11526
G1 X-4.67 Y-3.55 E0.11591
G1 X-0.58 Y-3.55 E0.11655
G1 X-0.54 Y-3.49 E0.11656
G1 X1.47 Y0.00 E0.11719
G0 X1.16 Y-0.05
;LAYER:23
G0 X1.47 Y0.00 Z0.24
;TYPE:WALL-OUTER
G1 X-0.58 Y3.55 E0.11783
G1 X-4.67 Y3.55 E0.11848
G1 X-6.72 Y0.00 E0.11912
G1 X-4.67 Y-3.55 E0.11976
G1 X-0.58 Y-3.55 E0.12040
G1 X1.47 Y0.00 E0.12105
G0 X1.16 Y-0.05
;LAYER:24
G0 X1.47 Y0.00 Z0.25
;TYPE:WALL-OUTER
G1 X-0.58 Y3.55 E0.12169
G1 X-4.67 Y3.55 E0.12233
G1 X-6.72 Y0.00 E0.12297
G1 X-4.67 Y-3.55 E0.12362
G1 X-0.57 Y-3.55 E0.12426
G1 X-0.54 Y-3.48 E0.12427
G1 X1.47 Y0.00 E0.12490
G0 X1.16 Y-0.05
;LAYER:25
G0 X1.47 Y0.00 Z0.26
;TYPE:WALL-OUTER
G1 X-0.58 Y3.55 E0.12554
G1 X-4.67 Y3.55 E0.12619
G1 X-6.72 Y0.00 E0.12683
G1 X-4.67 Y-3.55 E0.12747
G1 X-0.58 Y-3.55 E0.12811
G1 X1.47 Y0.00 E0.12876
G0 X1.16 Y-0.05
;LAYER:26
G0 X1.47 Y0.00 Z0.27
;TYPE:WALL-OUTER
G1 X-0.58 Y3.55 E0.12940
G1 X-4.67 Y3.55 E0.13004
G1 X-6.72 Y0.00 E0.13068
G1 X-4.67 Y-3.55 E0.13133
G1 X-0.58 Y-3.55 E0.13197
G1 X-0.53 Y-3.47 E0.13198
G1 X1.47 Y0.00 E0.13261
G0 X1.16 Y-0.05
;LAYER:27
G0 X1.47 Y0.00 Z0.28
;TYPE:WALL-OUTER
G1 X-0.58 Y3.55 E0.13325
G1 X-4.67 Y3.55 E0.13390
G1 X-6.72 Y0.00 E0.13454
G1 X-4.67 Y-3.55 E0.13518
G1 X-0.58 Y-3.55 E0.13582
G1 X-0.53 Y-3.47 E0.13584
G1 X1.47 Y0.00 E0.13647
G0 X1.16 Y-0.05
;LAYER:28
G0 X1.47 Y0.00 Z0.29
;TYPE:WALL-OUTER
G1 X-0.58 Y3.55 E0.13711
G1 X-4.67 Y3.55 E0.13775
G1 X-6.72 Y0.00 E0.13839
G1 X-4.67 Y-3.55 E0.13904
G1 X-0.58 Y-3.55 E0.13968
G1 X-0.53 Y-3.47 E0.13969
G1 X1.47 Y0.00 E0.14032
G0 X1.16 Y-0.05
;LAYER:29
G0 X1.47 Y0.00 Z0.30
;TYPE:WALL-OUTER
G1 X-0.58 Y3.55 E0.14096
G1 X-4.67 Y3.55 E0.14160
G1 X-6.72 Y0.00 E0.14225
G1 X-4.67 Y-3.55 E0.14289
G1 X-0.57 Y-3.55 E0.14353
G1 X-0.52 Y-3.46 E0.14355
G1 X1.47 Y0.00 E0.14417
G0 X1.16 Y-0.05
;LAYER:30
G0 X1.47 Y0.00 Z0.31
;TYPE:WALL-OUTER
G1 X-0.58 Y3.55 E0.14482
G1 X-4.67 Y3.55 E0.14546
G1 X-6.72 Y0.00 E0.14610
G1 X-4.67 Y-3.55 E0.14674
G1 X-0.58 Y-3.55 E0.14739
G1 X1.47 Y0.00 E0.14803
G0 X1.16 Y-0.05
;LAYER:31
G0 X1.47 Y0.00 Z0.32
;TYPE:WALL-OUTER
G1 X-0.58 Y3.55 E0.14867
G1 X-4.67 Y3.55 E0.14931
G1 X-6.72 Y0.00 E0.14996
G1 X-4.67 Y-3.55 E0.15060
G1 X-0.58 Y-3.55 E0.15124
G1 X-0.52 Y-3.45 E0.15126
G1 X1.47 Y0.00 E0.15188
G0 X1.16 Y-0.05
;LAYER:32
G0 X1.47 Y0.00 Z0.33
;TYPE:WALL-OUTER
G1 X-0.58 Y3.55 E0.15253
G1 X-4.67 Y3.55 E0.15317
G1 X-6.72 Y0.00 E0.15381
G1 X-4.67 Y-3.55 E0.15445
G1 X-0.58 Y-3.55 E0.15510
G1 X-0.52 Y-3.45 E0.15511
G1 X1.47 Y0.00 E0.15574
G0 X1.16 Y-0.05
;LAYER:33
G0 X1.47 Y0.00 Z0.34
;TYPE:WALL-OUTER
G1 X-0.58 Y3.55 E0.15638
G1 X-4.67 Y3.55 E0.15702
G1 X-6.72 Y0.00 E0.15767
G1 X-4.67 Y-3.55 E0.15831
G1 X-0.58 Y-3.55 E0.15895
G1 X-0.52 Y-3.45 E0.15897
G1 X1.47 Y0.00 E0.15959
G0 X1.16 Y-0.05
;LAYER:34
G0 X1.47 Y0.00 Z0.35
;TYPE:WALL-OUTER
G1 X-0.58 Y3.55 E0.16024
G1 X-4.67 Y3.55 E0.16088
G1 X-6.72 Y0.00 E0.16152
G1 X-4.67 Y-3.55 E0.16216
G1 X-0.58 Y-3.55 E0.16281
G1 X-0.51 Y-3.44 E0.16282
G1 X1.47 Y0.00 E0.16345
G0 X1.16 Y-0.05
;LAYER:35
G0 X1.47 Y0.00 Z0.36
;TYPE:WALL-OUTER
G1 X-0.58 Y3.55 E0.16409
G1 X-4.67 Y3.55 E0.16473
G1 X-6.72 Y0.00 E0.16537
G1 X-4.67 Y-3.55 E0.16602
G1 X-0.58 Y-3.55 E0.16666
G1 X1.47 Y0.00 E0.16730
G0 X1.16 Y-0.05
;LAYER:36
G0 X1.47 Y0.00 Z0.37
;TYPE:WALL-OUTER
G1 X-0.58 Y3.55 E0.16794
G1 X-4.67 Y3.55 E0.16859
G1 X-6.72 Y0.00 E0.16923
G1 X-4.67 Y-3.55 E0.16987
G1 X-0.58 Y-3.55 E0.17051
G1 X-0.51 Y-3.44 E0.17053
G1 X1.47 Y0.00 E0.17116
G0 X1.16 Y-0.05
;LAYER:37
G0 X1.47 Y0.00 Z0.38
;TYPE:WALL-OUTER
G1 X-0.58 Y3.55 E0.17180
G1 X-4.67 Y3.55 E0.17244
G1 X-6.72 Y0.00 E0.17308
G1 X-4.67 Y-3.55 E0.17373
G1 X-0.58 Y-3.55 E0.17437
G1 X-0.51 Y-3.43 E0.17439
G1 X1.47 Y0.00 E0.17501
G0 X1.16 Y-0.05
;LAYER:38
G0 X1.47 Y0.00 Z0.39
;TYPE:WALL-OUTER
G1 X-0.58 Y3.55 E0.17565
G1 X-4.67 Y3.55 E0.17630
G1 X-6.72 Y0.00 E0.17694
G1 X-4.67 Y-3.55 E0.17758
G1 X-0.58 Y-3.55 E0.17822
G1 X-0.51 Y-3.43 E0.17825
G1 X1.47 Y0.00 E0.17887
G0 X1.16 Y-0.05
;LAYER:39
G0 X1.47 Y0.00 Z0.40
;TYPE:WALL-OUTER
G1 X-0.58 Y3.55 E0.17951
G1 X-4.67 Y3.55 E0.18015
G1 X-6.72 Y0.00 E0.18079
G1 X-4.67 Y-3.55 E0.18144
G1 X-0.58 Y-3.55 E0.18208
G1 X-0.50 Y-3.42 E0.18210
G1 X1.47 Y0.00 E0.18272
G0 X1.16 Y-0.05
;LAYER:40
G0 X1.47 Y0.00 Z0.41
;TYPE:WALL-OUTER
G1 X-0.58 Y3.55 E0.18336
G1 X-4.67 Y3.55 E0.18401
G1 X-6.72 Y0.00 E0.18465
G1 X-4.67 Y-3.55 E0.18529
G1 X-0.58 Y-3.55 E0.18593
G1 X-0.50 Y-3.42 E0.18596
G1 X1.47 Y0.00 E0.18658
G0 X1.16 Y-0.05
;LAYER:41
G0 X1.47 Y0.00 Z0.42
;TYPE:WALL-OUTER
G1 X-0.58 Y3.55 E0.18722
G1 X-4.67 Y3.55 E0.18786
G1 X-6.72 Y0.00 E0.18850
G1 X-4.67 Y-3.55 E0.18915
G1 X-0.58 Y-3.55 E0.18979
G1 X-0.50 Y-3.42 E0.18981
G1 X1.47 Y0.00 E0.19043
G0 X1.16 Y-0.05
;LAYER:42
G0 X1.47 Y0.00 Z0.43
;TYPE:WALL-OUTER
G1 X-0.58 Y3.55 E0.19107
G1 X-4.67 Y3.55 E0.19171
G1 X-6.72 Y0.00 E0.19236
G1 X-4.67 Y-3.55 E0.19300
G1 X-0.58 Y-3.55 E0.19364
G1 X1.47 Y0.00 E0.19428
G0 X1.16 Y-0.05
;LAYER:43
G0 X1.47 Y0.00 Z0.44
;TYPE:WALL-OUTER
G1 X-0.58 Y3.55 E0.19493
G1 X-4.67 Y3.55 E0.19557
G1 X-6.72 Y0.00 E0.19621
G1 X-4.67 Y-3.55 E0.19685
G1 X-0.58 Y-3.55 E0.19750
G1 X-0.50 Y-3.41 E0.19752
G1 X1.47 Y0.00 E0.19814
G0 X1.16 Y-0.05
;LAYER:44
G0 X1.47 Y0.00 Z0.45
;TYPE:WALL-OUTER
G1 X-0.58 Y3.55 E0.19878
G1 X-4.67 Y3.55 E0.19942
G1 X-6.72 Y0.00 E0.20007
G1 X-4.67 Y-3.55 E0.20071
G1 X-0.58 Y-3.55 E0.20135
G1 X-0.49 Y-3.41 E0.20138
G1 X1.47 Y0.00 E0.20199
G0 X1.16 Y-0.05
;LAYER:45
G0 X1.47 Y0.00 Z0.46
;TYPE:WALL-OUTER
G1 X-0.58 Y3.55 E0.20264
G1 X-4.67 Y3.55 E0.20328
G1 X-6.72 Y0.00 E0.20392
G1 X-4.67 Y-3.55 E0.20456
G1 X-0.58 Y-3.55 E0.20521
G1 X-0.49 Y-3.40 E0.20523
G1 X1.47 Y0.00 E0.20585
G0 X1.16 Y-0.05
;LAYER:46
G0 X1.47 Y0.00 Z0.47
;TYPE:WALL-OUTER
G1 X-0.58 Y3.55 E0.20649
G1 X-4.67 Y3.55 E0.20713
G1 X-6.72 Y0.00 E0.20778
G1 X-4.67 Y-3.55 E0.20842
G1 X-0.58 Y-3.55 E0.20906
G1 X-0.49 Y-3.40 E0.20909
G1 X1.47 Y0.00 E0.20970
G0 X1.16 Y-0.05
;LAYER:47
G0 X1.47 Y0.00 Z0.48
;TYPE:WALL-OUTER
G1 X-0.58 Y3.55 E0.21035
G1 X-4.67 Y3.55 E0.21099
G1 X-6.72 Y0.00 E0.21163
G1 X-4.67 Y-3.55 E0.21227
G1 X-0.58 Y-3.55 E0.21292
G1 X1.47 Y0.00 E0.21356
G0 X1.16 Y-0.05
;LAYER:48
G0 X1.47 Y0.00 Z0.49
;TYPE:WALL-OUTER
G1 X-0.58 Y3.55 E0.21420
G1 X-4.67 Y3.55 E0.21484
G1 X-6.72 Y0.00 E0.21548
G1 X-4.67 Y-3.55 E0.21613
G1 X-0.58 Y-3.55 E0.21677
G1 X-0.48 Y-3.39 E0.21680
G1 X1.47 Y0.00 E0.21741
G0 X1.16 Y-0.05
;LAYER:49
G0 X1.47 Y0.00 Z0.50
;TYPE:WALL-OUTER
G1 X-0.58 Y3.55 E0.21805
G1 X-4.67 Y3.55 E0.21870
G1 X-6.72 Y0.00 E0.21934
G1 X-4.67 Y-3.55 E0.21998
G1 X-0.58 Y-3.55 E0.22062
G1 X-0.48 Y-3.39 E0.22065
G1 X1.47 Y0.00 E0.22127
G0 X1.16 Y-0.05
;LAYER:50
G0 X1.47 Y0.00 Z0.51
;TYPE:WALL-OUTER
G1 X-0.58 Y3.55 E0.22191
G1 X-4.67 Y3.55 E0.22255
G1 X-6.72 Y0.00 E0.22319
G1 X-4.67 Y-3.55 E0.22384
G1 X-0.58 Y-3.55 E0.22448
G1 X-0.48 Y-3.38 E0.22451
G1 X1.47 Y0.00 E0.22512
G0 X1.16 Y-0.05
;LAYER:51
G0 X1.47 Y0.00 Z0.52
;TYPE:WALL-OUTER
G1 X-0.58 Y3.55 E0.22576
G1 X-4.67 Y3.55 E0.22641
G1 X-6.72 Y0.00 E0.22705
G1 X-4.67 Y-3.55 E0.22769
G1 X-0.58 Y-3.55 E0.22833
G1 X-0.48 Y-3.38 E0.22836
G1 X1.47 Y0.00 E0.22898
G0 X1.16 Y-0.05
;LAYER:52
G0 X1.47 Y0.00 Z0.53
;TYPE:WALL-OUTER
G1 X-0.58 Y3.55 E0.22962
G1 X-4.67 Y3.55 E0.23026
G1 X-6.72 Y0.00 E0.23090
G1 X-4.67 Y-3.55 E0.23155
G1 X-0.58 Y-3.55 E0.23219
G1 X1.47 Y0.00 E0.23283
G0 X1.16 Y-0.05
;LAYER:53
G0 X1.47 Y0.00 Z0.54
;TYPE:WALL-OUTER
G1 X-0.58 Y3.55 E0.23347
G1 X-4.67 Y3.55 E0.23412
G1 X-6.72 Y0.00 E0.23476
G1 X-4.67 Y-3.55 E0.23540
G1 X-0.58 Y-3.55 E0.23604
G1 X-0.47 Y-3.37 E0.23607
G1 X1.47 Y0.00 E0.23669
G0 X1.16 Y-0.05
;LAYER:54
G0 X1.47 Y0.00 Z0.55
;TYPE:WALL-OUTER
G1 X-0.58 Y3.55 E0.23733
G1 X-4.67 Y3.55 E0.23797
G1 X-6.72 Y0.00 E0.23861
G1 X-4.67 Y-3.55 E0.23926
G1 X-0.58 Y-3.55 E0.23990
G1 X-0.47 Y-3.37 E0.23993
G1 X1.47 Y0.00 E0.24054
G0 X1.16 Y-0.05
;LAYER:55
G0 X1.47 Y0.00 Z0.56
;TYPE:WALL-OUTER
G1 X-0.58 Y3.55 E0.24118
G1 X-4.67 Y3.55 E0.24182
G1 X-6.72 Y0.00 E0.24247
G1 X-4.67 Y-3.55 E0.24311
G1 X-0.58 Y-3.55 E0.24375
G1 X-0.47 Y-3.37 E0.24379
G1 X1.47 Y0.00 E0.24439
G0 X1.16 Y-0.05
;LAYER:56
G0 X1.47 Y0.00 Z0.57
;TYPE:WALL-OUTER
G1 X-0.58 Y3.55 E0.24504
G1 X-4.67 Y3.55 E0.24568
G1 X-6.72 Y0.00 E0.24632
G1 X-4.67 Y-3.55 E0.24696
G1 X-0.58 Y-3.55 E0.24761
G1 X-0.47 Y-3.36 E0.24764
G1 X1.47 Y0.00 E0.24825
G0 X1.16 Y-0.05
;LAYER:57
G0 X1.47 Y0.00 Z0.58
;TYPE:WALL-OUTER
G1 X-0.58 Y3.55 E0.24889
G1 X-4.67 Y3.55 E0.24953
G1 X-6.72 Y0.00 E0.25018
G1 X-4.67 Y-3.55 E0.25082
G1 X-0.58 Y-3.55 E0.25146
G1 X-0.47 Y-3.36 E0.25150
G1 X1.47 Y0.00 E0.25210
G0 X1.16 Y-0.05
;LAYER:58
G0 X1.47 Y0.00 Z0.59
;TYPE:WALL-OUTER
G1 X-0.58 Y3.55 E0.25275
G1 X-4.67 Y3.55 E0.25339
G1 X-6.72 Y0.00 E0.25403
G1 X-4.67 Y-3.55 E0.25467
G1 X-0.58 Y-3.55 E0.25532
G1 X-0.46 Y-3.35 E0.25535
G1 X1.47 Y0.00 E0.25596
G0 X1.16 Y-0.05
;LAYER:59
G0 X1.47 Y0.00 Z0.60
;TYPE:WALL-OUTER
G1 X-0.58 Y3.55 E0.25660
G1 X-4.67 Y3.55 E0.25724
G1 X-6.72 Y0.00 E0.25789
G1 X-4.67 Y-3.55 E0.25853
G1 X-0.58 Y-3.55 E0.25917
G1 X1.47 Y0.00 E0.25981
G0 X1.16 Y-0.05
;LAYER:60
G0 X1.47 Y0.00 Z0.61
;TYPE:WALL-OUTER
G1 X-0.58 Y3.55 E0.26046
G1 X-4.67 Y3.55 E0.26110
G1 X-6.72 Y0.00 E0.26174
G1 X-4.67 Y-3.55 E0.26238
G1 X-0.58 Y-3.55 E0.26303
G1 X-0.46 Y-3.35 E0.26306
G1 X1.47 Y0.00 E0.26367
G0 X1.16 Y-0.05
;LAYER:61
G0 X1.47 Y0.00 Z0.62
;TYPE:WALL-OUTER
G1 X-0.58 Y3.55 E0.26431
G1 X-4.67 Y3.55 E0.26495
G1 X-6.72 Y0.00 E0.26559
G1 X-4.67 Y-3.55 E0.26624
G1 X-0.58 Y-3.55 E0.26688
G1 X-0.46 Y-3.34 E0.26692
G1 X1.47 Y0.00 E0.26752
G0 X1.16 Y-0.05
;LAYER:62
G0 X1.47 Y0.00 Z0.63
;TYPE:WALL-OUTER
G1 X-0.58 Y3.55 E0.26816
G1 X-4.67 Y3.55 E0.26881
G1 X-6.72 Y0.00 E0.26945
G1 X-4.67 Y-3.55 E0.27009
G1 X-0.58 Y-3.55 E0.27073
G1 X-0.45 Y-3.34 E0.27077
