;Generated with Cura_SteamEngine 13.11.2


;Layer count: 942
;LAYER:0
M107
G0 F6000 X4.07 Y-0.82 Z0.03
;TYPE:SKIRT
G1 F6000 E0.00000
G1 X4.07 Y0.82 E0.00077
G1 X1.87 Y4.63 E0.00284
G1 X0.45 Y5.45 E0.00361
G1 X-3.95 Y5.45 E0.00568
G1 X-5.37 Y4.63 E0.00645
G1 X-7.57 Y0.82 E0.00852
G1 X-7.57 Y-0.82 E0.00929
G1 X-5.37 Y-4.63 E0.01136
G1 X-3.95 Y-5.45 E0.01213
G1 X0.45 Y-5.45 E0.01420
G1 X1.87 Y-4.63 E0.01497
G1 X4.07 Y-0.82 E0.01704
G0 X4.17 Y-0.84
G1 X4.17 Y0.84 E0.01783
G1 X1.94 Y4.70 E0.01993
G1 X0.48 Y5.55 E0.02072
G1 X-3.98 Y5.55 E0.02282
G1 X-5.44 Y4.70 E0.02361
G1 X-7.67 Y0.84 E0.02571
G1 X-7.67 Y-0.84 E0.02650
G1 X-5.44 Y-4.70 E0.02860
G1 X-3.98 Y-5.55 E0.02939
G1 X0.48 Y-5.55 E0.03149
G1 X1.94 Y-4.70 E0.03228
G1 X4.17 Y-0.84 E0.03438
G0 X4.27 Y-0.87
G1 X4.27 Y0.87 E0.03520
G1 X2.01 Y4.78 E0.03732
G1 X0.50 Y5.65 E0.03814
G1 X-4.01 Y5.65 E0.04026
G1 X-5.51 Y4.78 E0.04108
G1 X-7.77 Y0.87 E0.04320
G1 X-7.77 Y-0.87 E0.04402
G1 X-5.51 Y-4.78 E0.04614
G1 X-4.01 Y-5.65 E0.04696
G1 X0.50 Y-5.65 E0.04908
G1 X2.01 Y-4.78 E0.04990
G1 X4.27 Y-0.87 E0.05202
G0 X4.37 Y-0.90
G1 X4.37 Y0.90 E0.05286
G1 X2.09 Y4.85 E0.05501
G1 X0.53 Y5.75 E0.05586
G1 X-4.03 Y5.75 E0.05800
G1 X-5.59 Y4.85 E0.05885
G1 X-7.87 Y0.90 E0.06099
G1 X-7.87 Y-0.90 E0.06184
G1 X-5.59 Y-4.85 E0.06398
G1 X-4.03 Y-5.75 E0.06483
G1 X0.53 Y-5.75 E0.06698
G1 X2.09 Y-4.85 E0.06782
G1 X4.37 Y-0.90 E0.06997
G0 X4.47 Y-0.92
G1 X4.47 Y0.92 E0.07084
G1 X2.16 Y4.92 E0.07301
G1 X0.56 Y5.85 E0.07388
G1 X-4.06 Y5.85 E0.07605
G1 X-5.66 Y4.92 E0.07692
G1 X-7.97 Y0.92 E0.07909
G1 X-7.97 Y-0.92 E0.07996
G1 X-5.66 Y-4.92 E0.08213
G1 X-4.06 Y-5.85 E0.08300
G1 X0.56 Y-5.85 E0.08517
G1 X2.16 Y-4.92 E0.08604
G1 X4.47 Y-0.92 E0.08821
G0 X0.81 Y0.04
G0 X0.81 Y-0.04
G0 X0.96 Y0.00
;TYPE:WALL-OUTER
G1 X-0.39 Y2.35 E0.08949
G1 X-3.11 Y2.35 E0.09077
G1 X-4.46 Y0.00 E0.09204
G1 X-3.11 Y-2.35 E0.09332
G1 X-0.39 Y-2.35 E0.09459
G1 X0.96 Y0.00 E0.09587
G0 X0.65 Y-0.05
;LAYER:1
G0 X0.96 Y0.00 Z0.06
;TYPE:WALL-OUTER
G1 X-0.39 Y2.35 E0.09714
G1 X-3.11 Y2.35 E0.09842
G1 X-4.46 Y0.00 E0.09970
G1 X-3.11 Y-2.35 E0.10097
G1 X-0.39 Y-2.35 E0.10225
G1 X0.96 Y0.00 E0.10352
G0 X0.65 Y-0.05
;LAYER:2
G0 X0.96 Y0.00 Z0.09
;TYPE:WALL-OUTER
G1 X-0.39 Y2.35 E0.10480
G1 X-3.11 Y2.35 E0.10607
G1 X-4.46 Y0.00 E0.10735
G1 X-3.11 Y-2.35 E0.10862
G1 X-0.39 Y-2.35 E0.10990
G1 X0.96 Y0.00 E0.11118
G0 X0.65 Y-0.05
;LAYER:3
G0 X0.96 Y0.00 Z0.12
;TYPE:WALL-OUTER
G1 X-0.39 Y2.35 E0.11245
G1 X-3.11 Y2.35 E0.11373
G1 X-4.46 Y0.00 E0.11500
G1 X-3.11 Y-2.35 E0.11628
G1 X-0.40 Y-2.35 E0.11755
G1 X-0.39 Y-2.33 E0.11756
G1 X0.96 Y0.00 E0.11883
G0 X0.65 Y-0.05
;LAYER:4
G0 X0.96 Y0.00 Z0.15
;TYPE:WALL-OUTER
G1 X-0.39 Y2.35 E0.12010
G1 X-3.11 Y2.35 E0.12138
G1 X-4.46 Y0.00 E0.12266
G1 X-3.11 Y-2.35 E0.12393
G1 X-0.39 Y-2.35 E0.12521
G1 X0.96 Y0.00 E0.12648
G0 X0.65 Y-0.05
;LAYER:5
G0 X0.96 Y0.00 Z0.18
;TYPE:WALL-OUTER
G1 X-0.39 Y2.35 E0.12776
G1 X-3.11 Y2.35 E0.12903
G1 X-4.46 Y0.00 E0.13031
G1 X-3.11 Y-2.35 E0.13159
G1 X-0.40 Y-2.35 E0.13286
G1 X-0.37 Y-2.31 E0.13288
G1 X0.96 Y0.00 E0.13414
G0 X0.65 Y-0.05
;LAYER:6
G0 X0.96 Y0.00 Z0.21
;TYPE:WALL-OUTER
G1 X-0.39 Y2.35 E0.13541
G1 X-3.11 Y2.35 E0.13669
G1 X-4.46 Y0.00 E0.13796
G1 X-3.11 Y-2.35 E0.13924
G1 X-0.39 Y-2.35 E0.14051
G1 X-0.37 Y-2.30 E0.14054
G1 X0.96 Y0.00 E0.14179
G0 X0.65 Y-0.05
;LAYER:7
G0 X0.96 Y0.00 Z0.24
;TYPE:WALL-OUTER
G1 X-0.39 Y2.35 E0.14307
G1 X-3.11 Y2.35 E0.14434
G1 X-4.46 Y0.00 E0.14562
G1 X-3.11 Y-2.35 E0.14689
G1 X-0.39 Y-2.35 E0.14817
G1 X-0.36 Y-2.29 E0.14820
G1 X0.96 Y0.00 E0.14944
G0 X0.65 Y-0.05
;LAYER:8
G0 X0.96 Y0.00 Z0.27
;TYPE:WALL-OUTER
G1 X-0.39 Y2.35 E0.15072
G1 X-3.11 Y2.35 E0.15200
G1 X-4.46 Y0.00 E0.15327
G1 X-3.11 Y-2.35 E0.15455
G1 X-0.39 Y-2.35 E0.15582
G1 X0.96 Y0.00 E0.15710
G0 X0.65 Y-0.05
;LAYER:9
G0 X0.96 Y0.00 Z0.30
;TYPE:WALL-OUTER
G1 X-0.39 Y2.35 E0.15837
G1 X-3.11 Y2.35 E0.15965
G1 X-4.46 Y0.00 E0.16092
G1 X-3.11 Y-2.35 E0.16220
G1 X-0.39 Y-2.35 E0.16348
G1 X-0.35 Y-2.27 E0.16352
G1 X0.96 Y0.00 E0.16475
G0 X0.65 Y-0.05
;LAYER:10
G0 X0.96 Y0.00 Z0.33
;TYPE:WALL-OUTER
G1 X-0.39 Y2.35 E0.16603
G1 X-3.11 Y2.35 E0.16730
G1 X-4.46 Y0.00 E0.16858
G1 X-3.11 Y-2.35 E0.16985
G1 X-0.39 Y-2.35 E0.17113
G1 X-0.34 Y-2.26 E0.17118
G1 X0.96 Y0.00 E0.17240
G0 X0.65 Y-0.05
;LAYER:11
G0 X0.96 Y0.00 Z0.36
;TYPE:WALL-OUTER
G1 X-0.39 Y2.35 E0.17368
G1 X-3.11 Y2.35 E0.17496
G1 X-4.46 Y0.00 E0.17623
G1 X-3.11 Y-2.35 E0.17751
G1 X-0.39 Y-2.35 E0.17878
G1 X-0.33 Y-2.24 E0.17884
G1 X0.96 Y0.00 E0.18006
G0 X0.65 Y-0.05
;LAYER:12
G0 X0.96 Y0.00 Z0.39
;TYPE:WALL-OUTER
G1 X-0.39 Y2.35 E0.18133
G1 X-3.11 Y2.35 E0.18261
G1 X-4.46 Y0.00 E0.18389
G1 X-3.11 Y-2.35 E0.18516
G1 X-0.39 Y-2.35 E0.18644
G1 X-0.33 Y-2.23 E0.18650
G1 X0.96 Y0.00 E0.18771
G0 X0.65 Y-0.05
;LAYER:13
G0 X0.96 Y0.00 Z0.42
;TYPE:WALL-OUTER
G1 X-0.39 Y2.35 E0.18899
G1 X-3.11 Y2.35 E0.19026
G1 X-4.46 Y0.00 E0.19154
G1 X-3.11 Y-2.35 E0.19281
G1 X-0.39 Y-2.35 E0.19409
G1 X-0.32 Y-2.22 E0.19416
G1 X0.96 Y0.00 E0.19537
G0 X0.65 Y-0.05
;LAYER:14
G0 X0.96 Y0.00 Z0.45
;TYPE:WALL-OUTER
G1 X-0.39 Y2.35 E0.19664
G1 X-3.11 Y2.35 E0.19792
G1 X-4.46 Y0.00 E0.19919
G1 X-3.11 Y-2.35 E0.20047
G1 X-0.39 Y-2.35 E0.20174
G1 X-0.31 Y-2.21 E0.20182
G1 X0.96 Y0.00 E0.20302
G0 X0.65 Y-0.05
;LAYER:15
G0 X0.96 Y0.00 Z0.48
;TYPE:WALL-OUTER
G1 X-0.39 Y2.35 E0.20430
G1 X-3.11 Y2.35 E0.20557
G1 X-4.46 Y0.00 E0.20685
G1 X-3.11 Y-2.35 E0.20812
G1 X-0.39 Y-2.35 E0.20940
G1 X-0.31 Y-2.20 E0.20948
G1 X0.96 Y0.00 E0.21067
G0 X0.65 Y-0.05
;LAYER:16
G0 X0.96 Y0.00 Z0.51
;TYPE:WALL-OUTER
G1 X-0.39 Y2.35 E0.21195
G1 X-3.11 Y2.35 E0.21322
G1 X-4.46 Y0.00 E0.21450
G1 X-3.11 Y-2.35 E0.21578
G1 X-0.39 Y-2.35 E0.21705
G1 X-0.30 Y-2.19 E0.21714
G1 X0.96 Y0.00 E0.21833
G0 X0.65 Y-0.05
;LAYER:17
G0 X0.96 Y0.00 Z0.54
;TYPE:WALL-OUTER
G1 X-0.39 Y2.35 E0.21960
G1 X-3.11 Y2.35 E0.22088
G1 X-4.46 Y0.00 E0.22215
G1 X-3.11 Y-2.35 E0.22343
G1 X-0.39 Y-2.35 E0.22470
G1 X0.96 Y0.00 E0.22598
G0 X0.65 Y-0.05
;LAYER:18
G0 X0.96 Y0.00 Z0.57
;TYPE:WALL-OUTER
G1 X-0.39 Y2.35 E0.22726
G1 X-3.11 Y2.35 E0.22853
G1 X-4.46 Y0.00 E0.22981
G1 X-3.11 Y-2.35 E0.23108
G1 X-0.39 Y-2.35 E0.23236
G1 X-0.29 Y-2.16 E0.23246
G1 X0.96 Y0.00 E0.23363
G0 X0.65 Y-0.05
;LAYER:19
G0 X0.96 Y0.00 Z0.60
;TYPE:WALL-OUTER
G1 X-0.39 Y2.35 E0.23491
G1 X-3.11 Y2.35 E0.23618
G1 X-4.46 Y0.00 E0.23746
G1 X-3.11 Y-2.35 E0.23874
G1 X-0.39 Y-2.35 E0.24001
G1 X-0.28 Y-2.15 E0.24012
G1 X0.96 Y0.00 E0.24129
G0 X0.65 Y-0.05
;LAYER:20
G0 X0.96 Y0.00 Z0.63
;TYPE:WALL-OUTER
G1 X-0.39 Y2.35 E0.24256
G1 X-3.11 Y2.35 E0.24384
G1 X-4.46 Y0.00 E0.24511
G1 X-3.11 Y-2.35 E0.24639
G1 X-0.39 Y-2.35 E0.24767
G1 X-0.27 Y-2.14 E0.24778
G1 X0.96 Y0.00 E0.24894
G0 X0.65 Y-0.05
;LAYER:21
G0 X0.96 Y0.00 Z0.66
;TYPE:WALL-OUTER
G1 X-0.39 Y2.35 E0.25022
G1 X-3.11 Y2.35 E0.25149
G1 X-4.46 Y0.00 E0.25277
G1 X-3.11 Y-2.35 E0.25404
G1 X-0.39 Y-2.35 E0.25532
G1 X0.96 Y0.00 E0.25659
G0 X0.65 Y-0.05
;LAYER:22
G0 X0.96 Y0.00 Z0.69
;TYPE:WALL-OUTER
G1 X-0.39 Y2.35 E0.25787
G1 X-3.11 Y2.35 E0.25915
G1 X-4.46 Y0.00 E0.26042
G1 X-3.11 Y-2.35 E0.26170
G1 X-0.39 Y-2.35 E0.26297
G1 X-0.26 Y-2.12 E0.26310
G1 X0.96 Y0.00 E0.26425
G0 X0.65 Y-0.05
;LAYER:23
G0 X0.96 Y0.00 Z0.72
;TYPE:WALL-OUTER
G1 X-0.39 Y2.35 E0.26552
G1 X-3.11 Y2.35 E0.26680
G1 X-4.46 Y0.00 E0.26808
G1 X-3.11 Y-2.35 E0.26935
G1 X-0.39 Y-2.35 E0.27063
G1 X0.96 Y0.00 E0.27190
G0 X0.65 Y-0.05
;LAYER:24
G0 X0.96 Y0.00 Z0.75
;TYPE:WALL-OUTER
G1 X-0.39 Y2.35 E0.27318
G1 X-3.11 Y2.35 E0.27445
G1 X-4.46 Y0.00 E0.27573
G1 X-3.11 Y-2.35 E0.27700
G1 X-0.39 Y-2.35 E0.27828
G1 X-0.25 Y-2.10 E0.27842
G1 X0.96 Y0.00 E0.27956
G0 X0.65 Y-0.05
;LAYER:25
G0 X0.96 Y0.00 Z0.78
;TYPE:WALL-OUTER
G1 X-0.39 Y2.35 E0.28083
G1 X-3.11 Y2.35 E0.28211
G1 X-4.46 Y0.00 E0.28338
G1 X-3.11 Y-2.35 E0.28466
G1 X-0.39 Y-2.35 E0.28593
G1 X0.96 Y0.00 E0.28721
G0 X0.65 Y-0.05
;LAYER:26
G0 X0.96 Y0.00 Z0.81
;TYPE:WALL-OUTER
G1 X-0.39 Y2.35 E0.28848
G1 X-3.11 Y2.35 E0.28976
G1 X-4.46 Y0.00 E0.29104
G1 X-3.11 Y-2.35 E0.29231
G1 X-0.39 Y-2.35 E0.29359
G1 X-0.23 Y-2.07 E0.29374
G1 X0.96 Y0.00 E0.29486
G0 X0.65 Y-0.05
;LAYER:27
G0 X0.96 Y0.00 Z0.84
;TYPE:WALL-OUTER
G1 X-0.39 Y2.35 E0.29614
G1 X-3.11 Y2.35 E0.29741
G1 X-4.46 Y0.00 E0.29869
G1 X-3.11 Y-2.35 E0.29997
G1 X-0.39 Y-2.35 E0.30124
G1 X0.96 Y0.00 E0.30252
G0 X0.65 Y-0.05
;LAYER:28
G0 X0.96 Y0.00 Z0.87
;TYPE:WALL-OUTER
G1 X-0.39 Y2.35 E0.30379
G1 X-3.11 Y2.35 E0.30507
G1 X-4.46 Y0.00 E0.30634
G1 X-3.11 Y-2.35 E0.30762
G1 X-0.39 Y-2.35 E0.30889
G1 X-0.22 Y-2.05 E0.30906
G1 X0.96 Y0.00 E0.31017
G0 X0.65 Y-0.05
;LAYER:29
G0 X0.96 Y0.00 Z0.90
;TYPE:WALL-OUTER
G1 X-0.39 Y2.35 E0.31145
G1 X-3.11 Y2.35 E0.31272
G1 X-4.46 Y0.00 E0.31400
G1 X-3.11 Y-2.35 E0.31527
G1 X-0.39 Y-2.35 E0.31655
G1 X-0.22 Y-2.04 E0.31672
G1 X0.96 Y0.00 E0.31782
G0 X0.65 Y-0.05
;LAYER:30
G0 X0.96 Y0.00 Z0.93
;TYPE:WALL-OUTER
G1 X-0.39 Y2.35 E0.31910
G1 X-3.11 Y2.35 E0.32037
G1 X-4.46 Y0.00 E0.32165
G1 X-3.11 Y-2.35 E0.32293
G1 X-0.39 Y-2.35 E0.32420
G1 X-0.21 Y-2.03 E0.32438
G1 X0.96 Y0.00 E0.32548
G0 X0.65 Y-0.05
;LAYER:31
G0 X0.96 Y0.00 Z0.96
;TYPE:WALL-OUTER
G1 X-0.39 Y2.35 E0.32675
G1 X-3.11 Y2.35 E0.32803
G1 X-4.46 Y0.00 E0.32930
G1 X-3.11 Y-2.35 E0.33058
G1 X-0.39 Y-2.35 E0.33186
G1 X0.96 Y0.00 E0.33313
G0 X0.65 Y-0.05
;LAYER:32
G0 X0.96 Y0.00 Z0.99
;TYPE:WALL-OUTER
G1 X-0.39 Y2.35 E0.33441
G1 X-3.11 Y2.35 E0.33568
G1 X-4.46 Y0.00 E0.33696
G1 X-3.11 Y-2.35 E0.33823
G1 X-0.39 Y-2.35 E0.33951
G1 X0.96 Y0.00 E0.34078
G0 X0.65 Y-0.05
;LAYER:33
G0 X0.96 Y0.00 Z1.02
;TYPE:WALL-OUTER
G1 X-0.39 Y2.35 E0.34206
G1 X-3.11 Y2.35 E0.34334
G1 X-4.46 Y0.00 E0.34461
G1 X-3.11 Y-2.35 E0.34589
G1 X-0.39 Y-2.35 E0.34716
G1 X-0.19 Y-2.00 E0.34735
G1 X0.96 Y0.00 E0.34844
G0 X0.65 Y-0.05
;LAYER:34
G0 X0.96 Y0.00 Z1.05
;TYPE:WALL-OUTER
G1 X-0.39 Y2.35 E0.34971
G1 X-3.11 Y2.35 E0.35099
G1 X-4.46 Y0.00 E0.35227
G1 X-3.11 Y-2.35 E0.35354
G1 X-0.39 Y-2.35 E0.35482
G1 X-0.18 Y-1.98 E0.35501
G1 X0.96 Y0.00 E0.35609
G0 X0.65 Y-0.05
;LAYER:35
G0 X0.96 Y0.00 Z1.08
;TYPE:WALL-OUTER
G1 X-0.39 Y2.35 E0.35737
G1 X-3.11 Y2.35 E0.35864
G1 X-4.46 Y0.00 E0.35992
G1 X-3.11 Y-2.35 E0.36119
G1 X-0.39 Y-2.35 E0.36247
G1 X0.96 Y0.00 E0.36375
G0 X0.65 Y-0.05
;LAYER:36
G0 X0.96 Y0.00 Z1.11
;TYPE:WALL-OUTER
G1 X-0.39 Y2.35 E0.36502
G1 X-3.11 Y2.35 E0.36630
G1 X-4.46 Y0.00 E0.36757
G1 X-3.11 Y-2.35 E0.36885
G1 X-0.39 Y-2.35 E0.37012
G1 X-0.17 Y-1.96 E0.37033
G1 X0.96 Y0.00 E0.37140
G0 X0.65 Y-0.05
;LAYER:37
G0 X0.96 Y0.00 Z1.14
;TYPE:WALL-OUTER
G1 X-0.39 Y2.35 E0.37267
G1 X-3.11 Y2.35 E0.37395
G1 X-4.46 Y0.00 E0.37523
G1 X-3.11 Y-2.35 E0.37650
G1 X-0.39 Y-2.35 E0.37778
G1 X-0.16 Y-1.95 E0.37799
G1 X0.96 Y0.00 E0.37905
G0 X0.65 Y-0.05
;LAYER:38
G0 X0.96 Y0.00 Z1.17
;TYPE:WALL-OUTER
G1 X-0.39 Y2.35 E0.38033
G1 X-3.11 Y2.35 E0.38160
G1 X-4.46 Y0.00 E0.38288
G1 X-3.11 Y-2.35 E0.38416
G1 X-0.39 Y-2.35 E0.38543
G1 X0.96 Y0.00 E0.38671
G0 X0.65 Y-0.05
;LAYER:39
G0 X0.96 Y0.00 Z1.20
;TYPE:WALL-OUTER
G1 X-0.39 Y2.35 E0.38798
G1 X-3.11 Y2.35 E0.38926
G1 X-4.46 Y0.00 E0.39053
G1 X-3.11 Y-2.35 E0.39181
G1 X-0.39 Y-2.35 E0.39308
G1 X0.96 Y0.00 E0.39436
G0 X0.65 Y-0.05
;LAYER:40
G0 X0.96 Y0.00 Z1.23
;TYPE:WALL-OUTER
G1 X-0.39 Y2.35 E0.39563
G1 X-3.11 Y2.35 E0.39691
G1 X-4.46 Y0.00 E0.39819
G1 X-3.11 Y-2.35 E0.39946
G1 X-0.39 Y-2.35 E0.40074
G1 X-0.14 Y-1.92 E0.40097
G1 X0.96 Y0.00 E0.40201
G0 X0.65 Y-0.05
;LAYER:41
G0 X0.96 Y0.00 Z1.26
;TYPE:WALL-OUTER
G1 X-0.39 Y2.35 E0.40329
G1 X-3.11 Y2.35 E0.40456
G1 X-4.46 Y0.00 E0.40584
G1 X-3.11 Y-2.35 E0.40711
G1 X-0.39 Y-2.35 E0.40839
G1 X-0.14 Y-1.90 E0.40863
G1 X0.96 Y0.00 E0.40966
G0 X0.65 Y-0.05
;LAYER:42
G0 X0.96 Y0.00 Z1.29
;TYPE:WALL-OUTER
G1 X-0.39 Y2.35 E0.41094
G1 X-3.11 Y2.35 E0.41222
G1 X-4.46 Y0.00 E0.41349
G1 X-3.11 Y-2.35 E0.41476
G1 X-0.39 Y-2.35 E0.41604
G1 X0.96 Y0.00 E0.41732
G0 X0.65 Y-0.05
;LAYER:43
G0 X0.96 Y0.00 Z1.32
;TYPE:WALL-OUTER
G1 X-0.39 Y2.35 E0.41859
G1 X-3.11 Y2.35 E0.41987
G1 X-4.46 Y0.00 E0.42114
G1 X-3.11 Y-2.35 E0.42242
G1 X-0.39 Y-2.35 E0.42369
G1 X-0.12 Y-1.88 E0.42395
G1 X0.96 Y0.00 E0.42497
G0 X0.65 Y-0.05
;LAYER:44
G0 X0.96 Y0.00 Z1.35
;TYPE:WALL-OUTER
G1 X-0.39 Y2.35 E0.42625
G1 X-3.11 Y2.35 E0.42752
G1 X-4.46 Y0.00 E0.42880
G1 X-3.11 Y-2.35 E0.43007
G1 X-0.39 Y-2.35 E0.43135
G1 X0.96 Y0.00 E0.43262
G0 X0.65 Y-0.05
;LAYER:45
G0 X0.96 Y0.00 Z1.38
;TYPE:WALL-OUTER
G1 X-0.39 Y2.35 E0.43390
G1 X-3.11 Y2.35 E0.43517
G1 X-4.46 Y0.00 E0.43645
G1 X-3.11 Y-2.35 E0.43773
G1 X-0.39 Y-2.35 E0.43900
G1 X-0.11 Y-1.86 E0.43927
G1 X0.96 Y0.00 E0.44028
G0 X0.65 Y-0.05
;LAYER:46
G0 X0.96 Y0.00 Z1.41
;TYPE:WALL-OUTER
G1 X-0.39 Y2.35 E0.44155
G1 X-3.11 Y2.35 E0.44283
G1 X-4.46 Y0.00 E0.44410
G1 X-3.11 Y-2.35 E0.44538
G1 X-0.39 Y-2.35 E0.44665
G1 X-0.10 Y-1.85 E0.44693
G1 X0.96 Y0.00 E0.44793
G0 X0.65 Y-0.05
;LAYER:47
G0 X0.96 Y0.00 Z1.44
;TYPE:WALL-OUTER
G1 X-0.39 Y2.35 E0.44921
G1 X-3.11 Y2.35 E0.45048
G1 X-4.46 Y0.00 E0.45176
G1 X-3.11 Y-2.35 E0.45303
G1 X-0.39 Y-2.35 E0.45431
G1 X-0.10 Y-1.84 E0.45459
G1 X0.96 Y0.00 E0.45558
G0 X0.65 Y-0.05
;LAYER:48
G0 X0.96 Y0.00 Z1.47
;TYPE:WALL-OUTER
G1 X-0.39 Y2.35 E0.45686
G1 X-3.11 Y2.35 E0.45813
G1 X-4.46 Y0.00 E0.45941
G1 X-3.11 Y-2.35 E0.46069
G1 X-0.39 Y-2.35 E0.46196
G1 X0.96 Y0.00 E0.46324
G0 X0.65 Y-0.05
;LAYER:49
G0 X0.96 Y0.00 Z1.50
;TYPE:WALL-OUTER
G1 X-0.39 Y2.35 E0.46451
G1 X-3.11 Y2.35 E0.46579
G1 X-4.46 Y0.00 E0.46706
G1 X-3.11 Y-2.35 E0.46834
G1 X-0.39 Y-2.35 E0.46962
G1 X-0.09 Y-1.82 E0.46991
G1 X0.96 Y0.00 E0.47089
G0 X0.65 Y-0.05
;LAYER:50
G0 X0.96 Y0.00 Z1.53
;TYPE:WALL-OUTER
G1 X-0.39 Y2.35 E0.47217
G1 X-3.11 Y2.35 E0.47344
G1 X-4.46 Y0.00 E0.47472
G1 X-3.11 Y-2.35 E0.47599
G1 X-0.39 Y-2.35 E0.47727
G1 X-0.08 Y-1.80 E0.47757
G1 X0.96 Y0.00 E0.47854
G0 X0.65 Y-0.05
;LAYER:51
G0 X0.96 Y0.00 Z1.56
;TYPE:WALL-OUTER
G1 X-0.39 Y2.35 E0.47982
G1 X-3.11 Y2.35 E0.48110
G1 X-4.46 Y0.00 E0.48237
G1 X-3.11 Y-2.35 E0.48365
G1 X-0.39 Y-2.35 E0.48492
G1 X-0.07 Y-1.79 E0.48522
G1 X0.96 Y0.00 E0.48620
G0 X0.65 Y-0.05
;LAYER:52
G0 X0.96 Y0.00 Z1.59
;TYPE:WALL-OUTER
G1 X-0.39 Y2.35 E0.48747
G1 X-3.11 Y2.35 E0.48875
G1 X-4.46 Y0.00 E0.49002
G1 X-3.11 Y-2.35 E0.49130
G1 X-0.39 Y-2.35 E0.49258
G1 X0.96 Y0.00 E0.49385
G0 X0.65 Y-0.05
;LAYER:53
G0 X0.96 Y0.00 Z1.62
;TYPE:WALL-OUTER
G1 X-0.39 Y2.35 E0.49513
G1 X-3.11 Y2.35 E0.49640
G1 X-4.46 Y0.00 E0.49768
G1 X-3.11 Y-2.35 E0.49895
G1 X-0.39 Y-2.35 E0.50023
G1 X-0.06 Y-1.77 E0.50054
G1 X0.96 Y0.00 E0.50151
G0 X0.65 Y-0.05
;LAYER:54
G0 X0.96 Y0.00 Z1.65
;TYPE:WALL-OUTER
G1 X-0.39 Y2.35 E0.50278
G1 X-3.11 Y2.35 E0.50406
G1 X-4.46 Y0.00 E0.50533
G1 X-3.11 Y-2.35 E0.50661
G1 X-0.39 Y-2.35 E0.50788
G1 X-0.05 Y-1.76 E0.50820
G1 X0.96 Y0.00 E0.50916
G0 X0.65 Y-0.05
;LAYER:55
G0 X0.96 Y0.00 Z1.68
;TYPE:WALL-OUTER
G1 X-0.39 Y2.35 E0.51043
G1 X-3.11 Y2.35 E0.51171
G1 X-4.46 Y0.00 E0.51299
G1 X-3.11 Y-2.35 E0.51426
G1 X-0.39 Y-2.35 E0.51554
G1 X0.96 Y0.00 E0.51681
G0 X0.65 Y-0.05
;LAYER:56
G0 X0.96 Y0.00 Z1.71
;TYPE:WALL-OUTER
G1 X-0.39 Y2.35 E0.51809
G1 X-3.11 Y2.35 E0.51936
G1 X-4.46 Y0.00 E0.52064
G1 X-3.11 Y-2.35 E0.52192
G1 X-0.39 Y-2.35 E0.52319
G1 X0.96 Y0.00 E0.52447
G0 X0.65 Y-0.05
;LAYER:57
G0 X0.96 Y0.00 Z1.74
;TYPE:WALL-OUTER
G1 X-0.39 Y2.35 E0.52574
G1 X-3.11 Y2.35 E0.52702
G1 X-4.46 Y0.00 E0.52829
G1 X-3.11 Y-2.35 E0.52957
G1 X-0.39 Y-2.35 E0.53084
G1 X-0.03 Y-1.72 E0.53118
G1 X0.96 Y0.00 E0.53212
G0 X0.65 Y-0.05
;LAYER:58
G0 X0.96 Y0.00 Z1.77
;TYPE:WALL-OUTER
G1 X-0.39 Y2.35 E0.53340
G1 X-3.11 Y2.35 E0.53467
G1 X-4.46 Y0.00 E0.53595
G1 X-3.11 Y-2.35 E0.53722
G1 X-0.39 Y-2.35 E0.53850
G1 X-0.03 Y-1.71 E0.53884
G1 X0.96 Y0.00 E0.53977
G0 X0.65 Y-0.05
;LAYER:59
G0 X0.96 Y0.00 Z1.80
;TYPE:WALL-OUTER
G1 X-0.39 Y2.35 E0.54105
G1 X-3.11 Y2.35 E0.54232
G1 X-4.46 Y0.00 E0.54360
G1 X-3.11 Y-2.35 E0.54488
G1 X-0.39 Y-2.35 E0.54615
G1 X0.96 Y0.00 E0.54743
G0 X0.65 Y-0.05
;LAYER:60
G0 X0.96 Y0.00 Z1.83
;TYPE:WALL-OUTER
G1 X-0.39 Y2.35 E0.54870
G1 X-3.11 Y2.35 E0.54998
G1 X-4.46 Y0.00 E0.55125
G1 X-3.11 Y-2.35 E0.55253
G1 X-0.39 Y-2.35 E0.55380
G1 X-0.01 Y-1.69 E0.55416
G1 X0.96 Y0.00 E0.55508
G0 X0.65 Y-0.05
;LAYER:61
G0 X0.96 Y0.00 Z1.86
;TYPE:WALL-OUTER
G1 X-0.39 Y2.35 E0.55636
G1 X-3.11 Y2.35 E0.55763
G1 X-4.46 Y0.00 E0.55891
G1 X-3.11 Y-2.35 E0.56018
