;Generated with Cura_SteamEngine 13.11.2


;Layer count: 2827
;LAYER:0
M107
G0 F6000 X4.07 Y0.82 Z0.01
;TYPE:SKIRT
G1 F6000 E0.00000
G1 X1.87 Y4.63 E0.00069
G1 X0.45 Y5.45 E0.00095
G1 X-3.95 Y5.45 E0.00164
G1 X-5.37 Y4.63 E0.00189
G1 X-7.57 Y0.82 E0.00258
G1 X-7.57 Y-0.82 E0.00284
G1 X-5.37 Y-4.63 E0.00353
G1 X-3.95 Y-5.45 E0.00379
G1 X0.45 Y-5.45 E0.00448
G1 X1.87 Y-4.63 E0.00473
G1 X4.07 Y-0.82 E0.00542
G1 X4.07 Y0.82 E0.00568
G0 X4.17 Y0.84
G1 X1.94 Y4.70 E0.00638
G1 X0.48 Y5.55 E0.00664
G1 X-3.98 Y5.55 E0.00734
G1 X-5.44 Y4.70 E0.00761
G1 X-7.67 Y0.84 E0.00830
G1 X-7.67 Y-0.84 E0.00857
G1 X-5.44 Y-4.70 E0.00927
G1 X-3.98 Y-5.55 E0.00953
G1 X0.48 Y-5.55 E0.01023
G1 X1.94 Y-4.70 E0.01050
G1 X4.17 Y-0.84 E0.01119
G1 X4.17 Y0.84 E0.01146
G0 X4.27 Y0.87
G1 X2.01 Y4.78 E0.01217
G1 X0.50 Y5.65 E0.01244
G1 X-4.01 Y5.65 E0.01315
G1 X-5.51 Y4.78 E0.01342
G1 X-7.77 Y0.87 E0.01413
G1 X-7.77 Y-0.87 E0.01440
G1 X-5.51 Y-4.78 E0.01511
G1 X-4.01 Y-5.65 E0.01538
G1 X0.51 Y-5.65 E0.01609
G1 X2.02 Y-4.78 E0.01636
G1 X4.27 Y-0.87 E0.01707
G1 X4.27 Y0.87 E0.01734
G0 X4.37 Y0.90
G1 X2.09 Y4.85 E0.01806
G1 X0.53 Y5.75 E0.01834
G1 X-4.03 Y5.75 E0.01905
G1 X-5.59 Y4.85 E0.01933
G1 X-7.87 Y0.90 E0.02005
G1 X-7.87 Y-0.90 E0.02033
G1 X-5.59 Y-4.85 E0.02105
G1 X-4.03 Y-5.75 E0.02133
G1 X0.53 Y-5.75 E0.02204
G1 X2.09 Y-4.85 E0.02233
G1 X4.37 Y-0.90 E0.02304
G1 X4.37 Y0.90 E0.02332
G0 X4.47 Y0.92
G1 X2.16 Y4.92 E0.02405
G1 X0.56 Y5.85 E0.02434
G1 X-4.06 Y5.85 E0.02506
G1 X-5.66 Y4.92 E0.02535
G1 X-7.97 Y0.92 E0.02607
G1 X-7.97 Y-0.92 E0.02636
G1 X-5.66 Y-4.92 E0.02709
G1 X-4.06 Y-5.85 E0.02738
G1 X0.56 Y-5.85 E0.02810
G1 X2.16 Y-4.92 E0.02839
G1 X4.47 Y-0.92 E0.02911
G1 X4.47 Y0.92 E0.02940
G0 X0.81 Y-0.04
G0 X0.81 Y-0.04
G0 X0.96 Y0.00
;TYPE:WALL-OUTER
G1 X-0.39 Y2.35 E0.02983
G1 X-3.11 Y2.35 E0.03025
G1 X-4.46 Y0.00 E0.03068
G1 X-3.11 Y-2.35 E0.03111
G1 X-0.39 Y-2.35 E0.03153
G1 X0.96 Y0.00 E0.03196
G0 X0.65 Y-0.05
;LAYER:1
G0 X0.96 Y0.00 Z0.02
;TYPE:WALL-OUTER
G1 X-0.39 Y2.35 E0.03238
G1 X-3.11 Y2.35 E0.03281
G1 X-4.46 Y0.00 E0.03323
G1 X-3.11 Y-2.35 E0.03366
G1 X-0.39 Y-2.35 E0.03408
G1 X0.96 Y0.00 E0.03451
G0 X0.65 Y-0.05
;LAYER:2
G0 X0.96 Y0.00 Z0.03
;TYPE:WALL-OUTER
G1 X-0.39 Y2.35 E0.03493
G1 X-3.11 Y2.35 E0.03536
G1 X-4.46 Y0.00 E0.03578
G1 X-3.11 Y-2.35 E0.03621
G1 X-0.39 Y-2.35 E0.03663
G1 X0.96 Y0.00 E0.03706
G0 X0.65 Y-0.05
;LAYER:3
G0 X0.96 Y0.00 Z0.04
;TYPE:WALL-OUTER
G1 X-0.39 Y2.35 E0.03748
G1 X-3.11 Y2.35 E0.03791
G1 X-4.46 Y0.00 E0.03833
G1 X-3.11 Y-2.35 E0.03876
G1 X-0.39 Y-2.35 E0.03918
G1 X0.96 Y0.00 E0.03961
G0 X0.65 Y-0.05
;LAYER:4
G0 X0.96 Y0.00 Z0.05
;TYPE:WALL-OUTER
G1 X-0.39 Y2.35 E0.04003
G1 X-3.11 Y2.35 E0.04046
G1 X-4.46 Y0.00 E0.04088
G1 X-3.11 Y-2.35 E0.04131
G1 X-0.39 Y-2.35 E0.04174
G1 X0.96 Y0.00 E0.04216
G0 X0.65 Y-0.05
;LAYER:5
G0 X0.96 Y0.00 Z0.06
;TYPE:WALL-OUTER
G1 X-0.39 Y2.35 E0.04259
G1 X-3.11 Y2.35 E0.04301
G1 X-4.46 Y0.00 E0.04344
G1 X-3.11 Y-2.35 E0.04386
G1 X-0.39 Y-2.35 E0.04429
G1 X0.96 Y0.00 E0.04471
G0 X0.65 Y-0.05
;LAYER:6
G0 X0.96 Y0.00 Z0.07
;TYPE:WALL-OUTER
G1 X-0.39 Y2.35 E0.04514
G1 X-3.11 Y2.35 E0.04556
G1 X-4.46 Y0.00 E0.04599
G1 X-3.11 Y-2.35 E0.04641
G1 X-0.39 Y-2.35 E0.04684
G1 X0.96 Y0.00 E0.04726
G0 X0.65 Y-0.05
;LAYER:7
G0 X0.96 Y0.00 Z0.08
;TYPE:WALL-OUTER
G1 X-0.39 Y2.35 E0.04769
G1 X-3.11 Y2.35 E0.04811
G1 X-4.46 Y0.00 E0.04854
G1 X-3.11 Y-2.35 E0.04896
G1 X-0.39 Y-2.35 E0.04939
G1 X0.96 Y0.00 E0.04981
G0 X0.65 Y-0.05
;LAYER:8
G0 X0.96 Y0.00 Z0.09
;TYPE:WALL-OUTER
G1 X-0.39 Y2.35 E0.05024
G1 X-3.11 Y2.35 E0.05066
G1 X-4.46 Y0.00 E0.05109
G1 X-3.11 Y-2.35 E0.05152
G1 X-0.39 Y-2.35 E0.05194
G1 X0.96 Y0.00 E0.05237
G0 X0.65 Y-0.05
;LAYER:9
G0 X0.96 Y0.00 Z0.10
;TYPE:WALL-OUTER
G1 X-0.39 Y2.35 E0.05279
G1 X-3.11 Y2.35 E0.05322
G1 X-4.46 Y0.00 E0.05364
G1 X-3.11 Y-2.35 E0.05407
G1 X-0.39 Y-2.35 E0.05449
G1 X-0.39 Y-2.34 E0.05449
G1 X0.96 Y0.00 E0.05492
G0 X0.65 Y-0.05
;LAYER:10
G0 X0.96 Y0.00 Z0.11
;TYPE:WALL-OUTER
G1 X-0.39 Y2.35 E0.05534
G1 X-3.11 Y2.35 E0.05577
G1 X-4.46 Y0.00 E0.05619
G1 X-3.11 Y-2.35 E0.05662
G1 X-0.40 Y-2.35 E0.05704
G1 X-0.39 Y-2.33 E0.05705
G1 X0.96 Y0.00 E0.05747
G0 X0.65 Y-0.05
;LAYER:11
G0 X0.96 Y0.00 Z0.12
;TYPE:WALL-OUTER
G1 X-0.39 Y2.35 E0.05789
G1 X-3.11 Y2.35 E0.05832
G1 X-4.46 Y0.00 E0.05874
G1 X-3.11 Y-2.35 E0.05917
G1 X-0.39 Y-2.35 E0.05959
G1 X0.96 Y0.00 E0.06002
G0 X0.65 Y-0.05
;LAYER:12
G0 X0.96 Y0.00 Z0.13
;TYPE:WALL-OUTER
G1 X-0.39 Y2.35 E0.06044
G1 X-3.11 Y2.35 E0.06087
G1 X-4.46 Y0.00 E0.06129
G1 X-3.11 Y-2.35 E0.06172
G1 X-0.39 Y-2.35 E0.06215
G1 X-0.38 Y-2.33 E0.06215
G1 X0.96 Y0.00 E0.06257
G0 X0.65 Y-0.05
;LAYER:13
G0 X0.96 Y0.00 Z0.14
;TYPE:WALL-OUTER
G1 X-0.39 Y2.35 E0.06300
G1 X-3.11 Y2.35 E0.06342
G1 X-4.46 Y0.00 E0.06385
G1 X-3.11 Y-2.35 E0.06427
G1 X-0.39 Y-2.35 E0.06470
G1 X0.96 Y0.00 E0.06512
G0 X0.65 Y-0.05
;LAYER:14
G0 X0.96 Y0.00 Z0.15
;TYPE:WALL-OUTER
G1 X-0.39 Y2.35 E0.06555
G1 X-3.11 Y2.35 E0.06597
G1 X-4.46 Y0.00 E0.06640
G1 X-3.11 Y-2.35 E0.06682
G1 X-0.39 Y-2.35 E0.06725
G1 X-0.38 Y-2.32 E0.06725
G1 X0.96 Y0.00 E0.06767
G0 X0.65 Y-0.05
;LAYER:15
G0 X0.96 Y0.00 Z0.16
;TYPE:WALL-OUTER
G1 X-0.39 Y2.35 E0.06810
G1 X-3.11 Y2.35 E0.06852
G1 X-4.46 Y0.00 E0.06895
G1 X-3.11 Y-2.35 E0.06937
G1 X-0.39 Y-2.35 E0.06980
G1 X-0.37 Y-2.32 E0.06981
G1 X0.96 Y0.00 E0.07022
G0 X0.65 Y-0.05
;LAYER:16
G0 X0.96 Y0.00 Z0.17
;TYPE:WALL-OUTER
G1 X-0.39 Y2.35 E0.07065
G1 X-3.11 Y2.35 E0.07107
G1 X-4.46 Y0.00 E0.07150
G1 X-3.11 Y-2.35 E0.07193
G1 X-0.40 Y-2.35 E0.07235
G1 X-0.37 Y-2.31 E0.07236
G1 X0.96 Y0.00 E0.07278
G0 X0.65 Y-0.05
;LAYER:17
G0 X0.96 Y0.00 Z0.18
;TYPE:WALL-OUTER
G1 X-0.39 Y2.35 E0.07320
G1 X-3.11 Y2.35 E0.07363
G1 X-4.46 Y0.00 E0.07405
G1 X-3.11 Y-2.35 E0.07448
G1 X-0.39 Y-2.35 E0.07490
G1 X0.96 Y0.00 E0.07533
G0 X0.65 Y-0.05
;LAYER:18
G0 X0.96 Y0.00 Z0.19
;TYPE:WALL-OUTER
G1 X-0.39 Y2.35 E0.07575
G1 X-3.11 Y2.35 E0.07618
G1 X-4.46 Y0.00 E0.07660
G1 X-3.11 Y-2.35 E0.07703
G1 X-0.39 Y-2.35 E0.07745
G1 X0.96 Y0.00 E0.07788
G0 X0.65 Y-0.05
;LAYER:19
G0 X0.96 Y0.00 Z0.20
;TYPE:WALL-OUTER
G1 X-0.39 Y2.35 E0.07830
G1 X-3.11 Y2.35 E0.07873
G1 X-4.46 Y0.00 E0.07915
G1 X-3.11 Y-2.35 E0.07958
G1 X-0.39 Y-2.35 E0.08000
G1 X-0.37 Y-2.30 E0.08001
G1 X0.96 Y0.00 E0.08043
G0 X0.65 Y-0.05
;LAYER:20
G0 X0.96 Y0.00 Z0.21
;TYPE:WALL-OUTER
G1 X-0.39 Y2.35 E0.08085
G1 X-3.11 Y2.35 E0.08128
G1 X-4.46 Y0.00 E0.08170
G1 X-3.11 Y-2.35 E0.08213
G1 X-0.39 Y-2.35 E0.08256
G1 X-0.36 Y-2.30 E0.08256
G1 X0.96 Y0.00 E0.08298
G0 X0.65 Y-0.05
;LAYER:21
G0 X0.96 Y0.00 Z0.22
;TYPE:WALL-OUTER
G1 X-0.39 Y2.35 E0.08341
G1 X-3.11 Y2.35 E0.08383
G1 X-4.46 Y0.00 E0.08426
G1 X-3.11 Y-2.35 E0.08468
G1 X-0.39 Y-2.35 E0.08511
G1 X-0.36 Y-2.29 E0.08512
G1 X0.96 Y0.00 E0.08553
G0 X0.65 Y-0.05
;LAYER:22
G0 X0.96 Y0.00 Z0.23
;TYPE:WALL-OUTER
G1 X-0.39 Y2.35 E0.08596
G1 X-3.11 Y2.35 E0.08638
G1 X-4.46 Y0.00 E0.08681
G1 X-3.11 Y-2.35 E0.08723
G1 X-0.39 Y-2.35 E0.08766
G1 X-0.36 Y-2.29 E0.08767
G1 X0.96 Y0.00 E0.08808
G0 X0.65 Y-0.05
;LAYER:23
G0 X0.96 Y0.00 Z0.24
;TYPE:WALL-OUTER
G1 X-0.39 Y2.35 E0.08851
G1 X-3.11 Y2.35 E0.08893
G1 X-4.46 Y0.00 E0.08936
G1 X-3.11 Y-2.35 E0.08978
G1 X-0.39 Y-2.35 E0.09021
G1 X0.96 Y0.00 E0.09063
G0 X0.65 Y-0.05
;LAYER:24
G0 X0.96 Y0.00 Z0.25
;TYPE:WALL-OUTER
G1 X-0.39 Y2.35 E0.09106
G1 X-3.11 Y2.35 E0.09148
G1 X-4.46 Y0.00 E0.09191
G1 X-3.11 Y-2.35 E0.09234
G1 X-0.39 Y-2.35 E0.09276
G1 X-0.35 Y-2.28 E0.09277
G1 X0.96 Y0.00 E0.09319
G0 X0.65 Y-0.05
;LAYER:25
G0 X0.96 Y0.00 Z0.26
;TYPE:WALL-OUTER
G1 X-0.39 Y2.35 E0.09361
G1 X-3.11 Y2.35 E0.09404
G1 X-4.46 Y0.00 E0.09446
G1 X-3.11 Y-2.35 E0.09489
G1 X-0.39 Y-2.35 E0.09531
G1 X0.96 Y0.00 E0.09574
G0 X0.65 Y-0.05
;LAYER:26
G0 X0.96 Y0.00 Z0.27
;TYPE:WALL-OUTER
G1 X-0.39 Y2.35 E0.09616
G1 X-3.11 Y2.35 E0.09659
G1 X-4.46 Y0.00 E0.09701
G1 X-3.11 Y-2.35 E0.09744
G1 X-0.39 Y-2.35 E0.09786
G1 X-0.35 Y-2.27 E0.09788
G1 X0.96 Y0.00 E0.09829
G0 X0.65 Y-0.05
;LAYER:27
G0 X0.96 Y0.00 Z0.28
;TYPE:WALL-OUTER
G1 X-0.39 Y2.35 E0.09871
G1 X-3.11 Y2.35 E0.09914
G1 X-4.46 Y0.00 E0.09956
G1 X-3.11 Y-2.35 E0.09999
G1 X-0.39 Y-2.35 E0.10041
G1 X-0.35 Y-2.27 E0.10043
G1 X0.96 Y0.00 E0.10084
G0 X0.65 Y-0.05
;LAYER:28
G0 X0.96 Y0.00 Z0.29
;TYPE:WALL-OUTER
G1 X-0.39 Y2.35 E0.10126
G1 X-3.11 Y2.35 E0.10169
G1 X-4.46 Y0.00 E0.10211
G1 X-3.11 Y-2.35 E0.10254
G1 X-0.39 Y-2.35 E0.10297
G1 X-0.35 Y-2.27 E0.10298
G1 X0.96 Y0.00 E0.10339
G0 X0.65 Y-0.05
;LAYER:29
G0 X0.96 Y0.00 Z0.30
;TYPE:WALL-OUTER
G1 X-0.39 Y2.35 E0.10382
G1 X-3.11 Y2.35 E0.10424
G1 X-4.46 Y0.00 E0.10467
G1 X-3.11 Y-2.35 E0.10509
G1 X-0.39 Y-2.35 E0.10552
G1 X-0.34 Y-2.26 E0.10553
G1 X0.96 Y0.00 E0.10594
G0 X0.65 Y-0.05
;LAYER:30
G0 X0.96 Y0.00 Z0.31
;TYPE:WALL-OUTER
G1 X-0.39 Y2.35 E0.10637
G1 X-3.11 Y2.35 E0.10679
G1 X-4.46 Y0.00 E0.10722
G1 X-3.11 Y-2.35 E0.10764
G1 X-0.39 Y-2.35 E0.10807
G1 X0.96 Y0.00 E0.10849
G0 X0.65 Y-0.05
;LAYER:31
G0 X0.96 Y0.00 Z0.32
;TYPE:WALL-OUTER
G1 X-0.39 Y2.35 E0.10892
G1 X-3.11 Y2.35 E0.10934
G1 X-4.46 Y0.00 E0.10977
G1 X-3.11 Y-2.35 E0.11019
G1 X-0.39 Y-2.35 E0.11062
G1 X-0.34 Y-2.26 E0.11064
G1 X0.96 Y0.00 E0.11104
G0 X0.65 Y-0.05
;LAYER:32
G0 X0.96 Y0.00 Z0.33
;TYPE:WALL-OUTER
G1 X-0.39 Y2.35 E0.11147
G1 X-3.11 Y2.35 E0.11189
G1 X-4.46 Y0.00 E0.11232
G1 X-3.11 Y-2.35 E0.11274
G1 X-0.39 Y-2.35 E0.11317
G1 X-0.34 Y-2.25 E0.11319
G1 X0.96 Y0.00 E0.11360
G0 X0.65 Y-0.05
;LAYER:33
G0 X0.96 Y0.00 Z0.34
;TYPE:WALL-OUTER
G1 X-0.39 Y2.35 E0.11402
G1 X-3.11 Y2.35 E0.11445
G1 X-4.46 Y0.00 E0.11487
G1 X-3.11 Y-2.35 E0.11530
G1 X-0.39 Y-2.35 E0.11572
G1 X-0.34 Y-2.25 E0.11574
G1 X0.96 Y0.00 E0.11615
G0 X0.65 Y-0.05
;LAYER:34
G0 X0.96 Y0.00 Z0.35
;TYPE:WALL-OUTER
G1 X-0.39 Y2.35 E0.11657
G1 X-3.11 Y2.35 E0.11700
G1 X-4.46 Y0.00 E0.11742
G1 X-3.11 Y-2.35 E0.11785
G1 X-0.39 Y-2.35 E0.11827
G1 X-0.33 Y-2.24 E0.11829
G1 X0.96 Y0.00 E0.11870
G0 X0.65 Y-0.05
;LAYER:35
G0 X0.96 Y0.00 Z0.36
;TYPE:WALL-OUTER
G1 X-0.39 Y2.35 E0.11912
G1 X-3.11 Y2.35 E0.11955
G1 X-4.46 Y0.00 E0.11997
G1 X-3.11 Y-2.35 E0.12040
G1 X-0.39 Y-2.35 E0.12082
G1 X0.96 Y0.00 E0.12125
G0 X0.65 Y-0.05
;LAYER:36
G0 X0.96 Y0.00 Z0.37
;TYPE:WALL-OUTER
G1 X-0.39 Y2.35 E0.12167
G1 X-3.11 Y2.35 E0.12210
G1 X-4.46 Y0.00 E0.12252
G1 X-3.11 Y-2.35 E0.12295
G1 X-0.39 Y-2.35 E0.12337
G1 X-0.33 Y-2.24 E0.12340
G1 X0.96 Y0.00 E0.12380
G0 X0.65 Y-0.05
;LAYER:37
G0 X0.96 Y0.00 Z0.38
;TYPE:WALL-OUTER
G1 X-0.39 Y2.35 E0.12423
G1 X-3.11 Y2.35 E0.12465
G1 X-4.46 Y0.00 E0.12508
G1 X-3.11 Y-2.35 E0.12550
G1 X-0.39 Y-2.35 E0.12593
G1 X-0.33 Y-2.23 E0.12595
G1 X0.96 Y0.00 E0.12635
G0 X0.65 Y-0.05
;LAYER:38
G0 X0.96 Y0.00 Z0.39
;TYPE:WALL-OUTER
G1 X-0.39 Y2.35 E0.12678
G1 X-3.11 Y2.35 E0.12720
G1 X-4.46 Y0.00 E0.12763
G1 X-3.11 Y-2.35 E0.12805
G1 X-0.39 Y-2.35 E0.12848
G1 X-0.32 Y-2.23 E0.12850
G1 X0.96 Y0.00 E0.12890
G0 X0.65 Y-0.05
;LAYER:39
G0 X0.96 Y0.00 Z0.40
;TYPE:WALL-OUTER
G1 X-0.39 Y2.35 E0.12933
G1 X-3.11 Y2.35 E0.12975
G1 X-4.46 Y0.00 E0.13018
G1 X-3.11 Y-2.35 E0.13060
G1 X-0.39 Y-2.35 E0.13103
G1 X-0.32 Y-2.22 E0.13105
G1 X0.96 Y0.00 E0.13145
G0 X0.65 Y-0.05
;LAYER:40
G0 X0.96 Y0.00 Z0.41
;TYPE:WALL-OUTER
G1 X-0.39 Y2.35 E0.13188
G1 X-3.11 Y2.35 E0.13230
G1 X-4.46 Y0.00 E0.13273
G1 X-3.11 Y-2.35 E0.13315
G1 X-0.39 Y-2.35 E0.13358
G1 X-0.32 Y-2.22 E0.13360
G1 X0.96 Y0.00 E0.13400
G0 X0.65 Y-0.05
;LAYER:41
G0 X0.96 Y0.00 Z0.42
;TYPE:WALL-OUTER
G1 X-0.39 Y2.35 E0.13443
G1 X-3.11 Y2.35 E0.13486
G1 X-4.46 Y0.00 E0.13528
G1 X-3.11 Y-2.35 E0.13571
G1 X-0.39 Y-2.35 E0.13613
G1 X-0.32 Y-2.22 E0.13615
G1 X0.96 Y0.00 E0.13656
G0 X0.65 Y-0.05
;LAYER:42
G0 X0.96 Y0.00 Z0.43
;TYPE:WALL-OUTER
G1 X-0.39 Y2.35 E0.13698
G1 X-3.11 Y2.35 E0.13741
G1 X-4.46 Y0.00 E0.13783
G1 X-3.11 Y-2.35 E0.13826
G1 X-0.39 Y-2.35 E0.13868
G1 X0.96 Y0.00 E0.13911
G0 X0.65 Y-0.05
;LAYER:43
G0 X0.96 Y0.00 Z0.44
;TYPE:WALL-OUTER
G1 X-0.39 Y2.35 E0.13953
G1 X-3.11 Y2.35 E0.13996
G1 X-4.46 Y0.00 E0.14038
G1 X-3.11 Y-2.35 E0.14081
G1 X-0.39 Y-2.35 E0.14123
G1 X-0.31 Y-2.21 E0.14126
G1 X0.96 Y0.00 E0.14166
G0 X0.65 Y-0.05
;LAYER:44
G0 X0.96 Y0.00 Z0.45
;TYPE:WALL-OUTER
G1 X-0.39 Y2.35 E0.14208
G1 X-3.11 Y2.35 E0.14251
G1 X-4.46 Y0.00 E0.14293
G1 X-3.11 Y-2.35 E0.14336
G1 X-0.39 Y-2.35 E0.14378
G1 X-0.31 Y-2.21 E0.14381
G1 X0.96 Y0.00 E0.14421
G0 X0.65 Y-0.05
;LAYER:45
G0 X0.96 Y0.00 Z0.46
;TYPE:WALL-OUTER
G1 X-0.39 Y2.35 E0.14463
G1 X-3.11 Y2.35 E0.14506
G1 X-4.46 Y0.00 E0.14549
G1 X-3.11 Y-2.35 E0.14591
G1 X-0.39 Y-2.35 E0.14634
G1 X-0.31 Y-2.20 E0.14636
G1 X0.96 Y0.00 E0.14676
G0 X0.65 Y-0.05
;LAYER:46
G0 X0.96 Y0.00 Z0.47
;TYPE:WALL-OUTER
G1 X-0.39 Y2.35 E0.14719
G1 X-3.11 Y2.35 E0.14761
G1 X-4.46 Y0.00 E0.14804
G1 X-3.11 Y-2.35 E0.14846
G1 X-0.39 Y-2.35 E0.14889
G1 X-0.31 Y-2.20 E0.14891
G1 X0.96 Y0.00 E0.14931
G0 X0.65 Y-0.05
;LAYER:47
G0 X0.96 Y0.00 Z0.48
;TYPE:WALL-OUTER
G1 X-0.39 Y2.35 E0.14974
G1 X-3.11 Y2.35 E0.15016
G1 X-4.46 Y0.00 E0.15059
G1 X-3.11 Y-2.35 E0.15101
G1 X-0.39 Y-2.35 E0.15144
G1 X0.96 Y0.00 E0.15186
G0 X0.65 Y-0.05
;LAYER:48
G0 X0.96 Y0.00 Z0.49
;TYPE:WALL-OUTER
G1 X-0.39 Y2.35 E0.15229
G1 X-3.11 Y2.35 E0.15271
G1 X-4.46 Y0.00 E0.15314
G1 X-3.11 Y-2.35 E0.15356
G1 X-0.39 Y-2.35 E0.15399
G1 X-0.30 Y-2.19 E0.15402
G1 X0.96 Y0.00 E0.15441
G0 X0.65 Y-0.05
;LAYER:49
G0 X0.96 Y0.00 Z0.50
;TYPE:WALL-OUTER
G1 X-0.39 Y2.35 E0.15484
G1 X-3.11 Y2.35 E0.15526
G1 X-4.46 Y0.00 E0.15569
G1 X-3.11 Y-2.35 E0.15612
G1 X-0.39 Y-2.35 E0.15654
G1 X-0.30 Y-2.19 E0.15657
G1 X0.96 Y0.00 E0.15697
G0 X0.65 Y-0.05
;LAYER:50
G0 X0.96 Y0.00 Z0.51
;TYPE:WALL-OUTER
G1 X-0.39 Y2.35 E0.15739
G1 X-3.11 Y2.35 E0.15782
G1 X-4.46 Y0.00 E0.15824
G1 X-3.11 Y-2.35 E0.15867
G1 X-0.39 Y-2.35 E0.15909
G1 X-0.30 Y-2.18 E0.15912
G1 X0.96 Y0.00 E0.15952
G0 X0.65 Y-0.05
;LAYER:51
G0 X0.96 Y0.00 Z0.52
;TYPE:WALL-OUTER
G1 X-0.39 Y2.35 E0.15994
G1 X-3.11 Y2.35 E0.16037
G1 X-4.46 Y0.00 E0.16079
G1 X-3.11 Y-2.35 E0.16122
G1 X-0.39 Y-2.35 E0.16164
G1 X-0.30 Y-2.18 E0.16167
G1 X0.96 Y0.00 E0.16207
G0 X0.65 Y-0.05
;LAYER:52
G0 X0.96 Y0.00 Z0.53
;TYPE:WALL-OUTER
G1 X-0.39 Y2.35 E0.16249
G1 X-3.11 Y2.35 E0.16292
G1 X-4.46 Y0.00 E0.16334
G1 X-3.11 Y-2.35 E0.16377
G1 X-0.39 Y-2.35 E0.16419
G1 X0.96 Y0.00 E0.16462
G0 X0.65 Y-0.05
;LAYER:53
G0 X0.96 Y0.00 Z0.54
;TYPE:WALL-OUTER
G1 X-0.39 Y2.35 E0.16504
G1 X-3.11 Y2.35 E0.16547
G1 X-4.46 Y0.00 E0.16590
G1 X-3.11 Y-2.35 E0.16632
G1 X-0.39 Y-2.35 E0.16675
G1 X-0.29 Y-2.17 E0.16678
G1 X0.96 Y0.00 E0.16717
G0 X0.65 Y-0.05
;LAYER:54
G0 X0.96 Y0.00 Z0.55
;TYPE:WALL-OUTER
G1 X-0.39 Y2.35 E0.16760
G1 X-3.11 Y2.35 E0.16802
G1 X-4.46 Y0.00 E0.16845
G1 X-3.11 Y-2.35 E0.16887
G1 X-0.39 Y-2.35 E0.16930
G1 X-0.29 Y-2.17 E0.16933
G1 X0.96 Y0.00 E0.16972
G0 X0.65 Y-0.05
;LAYER:55
G0 X0.96 Y0.00 Z0.56
;TYPE:WALL-OUTER
G1 X-0.39 Y2.35 E0.17015
G1 X-3.11 Y2.35 E0.17057
G1 X-4.46 Y0.00 E0.17100
G1 X-3.11 Y-2.35 E0.17142
G1 X-0.39 Y-2.35 E0.17185
G1 X-0.29 Y-2.16 E0.17188
G1 X0.96 Y0.00 E0.17227
G0 X0.65 Y-0.05
;LAYER:56
G0 X0.96 Y0.00 Z0.57
;TYPE:WALL-OUTER
G1 X-0.39 Y2.35 E0.17270
G1 X-3.11 Y2.35 E0.17312
G1 X-4.46 Y0.00 E0.17355
G1 X-3.11 Y-2.35 E0.17397
G1 X-0.39 Y-2.35 E0.17440
G1 X-0.28 Y-2.16 E0.17443
G1 X0.96 Y0.00 E0.17482
G0 X0.65 Y-0.05
;LAYER:57
G0 X0.96 Y0.00 Z0.58
;TYPE:WALL-OUTER
G1 X-0.39 Y2.35 E0.17525
G1 X-3.11 Y2.35 E0.17567
G1 X-4.46 Y0.00 E0.17610
G1 X-3.11 Y-2.35 E0.17653
G1 X-0.39 Y-2.35 E0.17695
G1 X-0.28 Y-2.16 E0.17698
G1 X0.96 Y0.00 E0.17738
G0 X0.65 Y-0.05
;LAYER:58
G0 X0.96 Y0.00 Z0.59
;TYPE:WALL-OUTER
G1 X-0.39 Y2.35 E0.17780
G1 X-3.11 Y2.35 E0.17823
G1 X-4.46 Y0.00 E0.17865
G1 X-3.11 Y-2.35 E0.17908
G1 X-0.39 Y-2.35 E0.17950
G1 X-0.28 Y-2.15 E0.17954
G1 X0.96 Y0.00 E0.17993
G0 X0.65 Y-0.05
;LAYER:59
G0 X0.96 Y0.00 Z0.60
;TYPE:WALL-OUTER
G1 X-0.39 Y2.35 E0.18035
G1 X-3.11 Y2.35 E0.18078
G1 X-4.46 Y0.00 E0.18120
G1 X-3.11 Y-2.35 E0.18163
G1 X-0.39 Y-2.35 E0.18205
G1 X0.96 Y0.00 E0.18248
G0 X0.65 Y-0.05
;LAYER:60
G0 X0.96 Y0.00 Z0.61
;TYPE:WALL-OUTER
G1 X-0.39 Y2.35 E0.18290
G1 X-3.11 Y2.35 E0.18333
G1 X-4.46 Y0.00 E0.18375
G1 X-3.11 Y-2.35 E0.18418
G1 X-0.39 Y-2.35 E0.18460
G1 X-0.28 Y-2.15 E0.18464
G1 X0.96 Y0.00 E0.18503
G0 X0.65 Y-0.05
;LAYER:61
G0 X0.96 Y0.00 Z0.62
;TYPE:WALL-OUTER
G1 X-0.39 Y2.35 E0.18545
G1 X-3.11 Y2.35 E0.18588
G1 X-4.46 Y0.00 E0.18630
