;Generated with Cura_SteamEngine 13.11.2


;Layer count: 471
;LAYER:0
M107
G0 F6000 X3.56 Y-0.82 Z0.03
;TYPE:SKIRT
G1 F6000 E0.00000
G1 X3.56 Y0.82 E0.00077
G1 X2.05 Y3.43 E0.00219
G1 X0.63 Y4.25 E0.00296
G1 X-2.38 Y4.25 E0.00438
G1 X-3.80 Y3.43 E0.00514
G1 X-5.31 Y0.82 E0.00656
G1 X-5.31 Y-0.82 E0.00733
G1 X-3.80 Y-3.43 E0.00875
G1 X-2.38 Y-4.25 E0.00952
G1 X0.63 Y-4.25 E0.01094
G1 X2.05 Y-3.43 E0.01171
G1 X3.56 Y-0.82 E0.01313
G0 X3.66 Y-0.84
G1 X3.66 Y0.84 E0.01392
G1 X2.12 Y3.51 E0.01537
G1 X0.66 Y4.35 E0.01616
G1 X-2.41 Y4.35 E0.01761
G1 X-3.87 Y3.51 E0.01840
G1 X-5.41 Y0.85 E0.01984
G1 X-5.41 Y-0.84 E0.02064
G1 X-3.87 Y-3.51 E0.02208
G1 X-2.41 Y-4.35 E0.02288
G1 X0.66 Y-4.35 E0.02432
G1 X2.12 Y-3.51 E0.02511
G1 X3.66 Y-0.84 E0.02656
G0 X3.76 Y-0.87
G1 X3.76 Y0.87 E0.02738
G1 X2.19 Y3.58 E0.02885
G1 X0.69 Y4.45 E0.02967
G1 X-2.43 Y4.45 E0.03114
G1 X-3.94 Y3.58 E0.03196
G1 X-5.51 Y0.87 E0.03343
G1 X-5.51 Y-0.87 E0.03425
G1 X-3.94 Y-3.58 E0.03572
G1 X-2.44 Y-4.45 E0.03654
G1 X0.69 Y-4.45 E0.03800
G1 X2.19 Y-3.58 E0.03882
G1 X3.76 Y-0.87 E0.04029
G0 X3.86 Y-0.90
G1 X3.86 Y0.90 E0.04114
G1 X2.27 Y3.65 E0.04263
G1 X0.71 Y4.55 E0.04348
G1 X-2.46 Y4.55 E0.04497
G1 X-4.01 Y3.65 E0.04581
G1 X-5.61 Y0.90 E0.04731
G1 X-5.61 Y-0.90 E0.04816
G1 X-4.02 Y-3.65 E0.04965
G1 X-2.46 Y-4.55 E0.05049
G1 X0.71 Y-4.55 E0.05199
G1 X2.27 Y-3.65 E0.05283
G1 X3.86 Y-0.90 E0.05433
G0 X3.96 Y-0.92
G1 X3.96 Y0.92 E0.05520
G1 X2.34 Y3.72 E0.05672
G1 X0.74 Y4.65 E0.05759
G1 X-2.49 Y4.65 E0.05911
G1 X-4.09 Y3.73 E0.05998
G1 X-5.71 Y0.93 E0.06150
G1 X-5.71 Y-0.92 E0.06237
G1 X-4.09 Y-3.72 E0.06389
G1 X-2.49 Y-4.65 E0.06476
G1 X0.74 Y-4.65 E0.06628
G1 X2.34 Y-3.72 E0.06715
G1 X3.96 Y-0.92 E0.06867
G0 X4.06 Y-0.95
G1 X4.06 Y0.95 E0.06956
G1 X2.41 Y3.80 E0.07111
G1 X0.77 Y4.75 E0.07200
G1 X-2.52 Y4.75 E0.07355
G1 X-4.16 Y3.80 E0.07444
G1 X-5.81 Y0.95 E0.07599
G1 X-5.81 Y-0.95 E0.07688
G1 X-4.16 Y-3.80 E0.07843
G1 X-2.52 Y-4.75 E0.07932
G1 X0.77 Y-4.75 E0.08087
G1 X2.41 Y-3.80 E0.08176
G1 X4.06 Y-0.95 E0.08331
G0 X0.30 Y0.04
G0 X0.30 Y-0.04
G0 X0.45 Y0.00
;TYPE:WALL-OUTER
G1 X-0.21 Y1.15 E0.08393
G1 X-1.54 Y1.15 E0.08456
G1 X-2.20 Y0.00 E0.08518
G1 X-1.54 Y-1.15 E0.08580
G1 X-0.21 Y-1.15 E0.08643
G1 X0.45 Y0.00 E0.08705
G0 X0.14 Y-0.05
;LAYER:1
G0 X0.45 Y0.00 Z0.06
;TYPE:WALL-OUTER
G1 X-0.21 Y1.15 E0.08768
G1 X-1.54 Y1.15 E0.08830
G1 X-2.20 Y0.00 E0.08892
G1 X-1.54 Y-1.15 E0.08955
G1 X-0.21 Y-1.15 E0.09017
G1 X0.45 Y0.00 E0.09080
G0 X0.14 Y-0.05
;LAYER:2
G0 X0.45 Y0.00 Z0.09
;TYPE:WALL-OUTER
G1 X-0.21 Y1.15 E0.09142
G1 X-1.54 Y1.15 E0.09204
G1 X-2.20 Y0.00 E0.09267
G1 X-1.54 Y-1.15 E0.09329
G1 X-0.21 Y-1.15 E0.09392
G1 X0.45 Y0.00 E0.09454
G0 X0.14 Y-0.05
;LAYER:3
G0 X0.45 Y0.00 Z0.12
;TYPE:WALL-OUTER
G1 X-0.21 Y1.15 E0.09516
G1 X-1.54 Y1.15 E0.09579
G1 X-2.20 Y0.00 E0.09641
G1 X-1.54 Y-1.15 E0.09704
G1 X-0.21 Y-1.15 E0.09766
G1 X0.45 Y0.00 E0.09828
G0 X0.14 Y-0.05
;LAYER:4
G0 X0.45 Y0.00 Z0.15
;TYPE:WALL-OUTER
G1 X-0.21 Y1.15 E0.09891
G1 X-1.54 Y1.15 E0.09953
G1 X-2.20 Y0.00 E0.10016
G1 X-1.54 Y-1.15 E0.10078
G1 X-0.21 Y-1.15 E0.10140
G1 X0.45 Y0.00 E0.10203
G0 X0.14 Y-0.05
;LAYER:5
G0 X0.45 Y0.00 Z0.18
;TYPE:WALL-OUTER
G1 X-0.21 Y1.15 E0.10265
G1 X-1.54 Y1.15 E0.10328
G1 X-2.20 Y0.00 E0.10390
G1 X-1.54 Y-1.15 E0.10452
G1 X-0.21 Y-1.15 E0.10515
G1 X0.45 Y0.00 E0.10577
G0 X0.14 Y-0.05
;LAYER:6
G0 X0.45 Y0.00 Z0.21
;TYPE:WALL-OUTER
G1 X-0.21 Y1.15 E0.10640
G1 X-1.54 Y1.15 E0.10702
G1 X-2.20 Y0.00 E0.10764
G1 X-1.54 Y-1.15 E0.10827
G1 X-0.21 Y-1.15 E0.10889
G1 X0.45 Y0.00 E0.10952
G0 X0.14 Y-0.05
;LAYER:7
G0 X0.45 Y0.00 Z0.24
;TYPE:WALL-OUTER
G1 X-0.21 Y1.15 E0.11014
G1 X-1.54 Y1.15 E0.11076
G1 X-2.20 Y0.00 E0.11139
G1 X-1.54 Y-1.15 E0.11201
G1 X-0.21 Y-1.15 E0.11264
G1 X0.45 Y0.00 E0.11326
G0 X0.14 Y-0.05
;LAYER:8
G0 X0.45 Y0.00 Z0.27
;TYPE:WALL-OUTER
G1 X-0.21 Y1.15 E0.11389
G1 X-1.54 Y1.15 E0.11451
G1 X-2.20 Y0.00 E0.11513
G1 X-1.54 Y-1.15 E0.11576
G1 X-0.21 Y-1.15 E0.11638
G1 X0.45 Y0.00 E0.11701
G0 X0.14 Y-0.05
;LAYER:9
G0 X0.45 Y0.00 Z0.30
;TYPE:WALL-OUTER
G1 X-0.21 Y1.15 E0.11763
G1 X-1.54 Y1.15 E0.11825
G1 X-2.20 Y0.00 E0.11888
G1 X-1.54 Y-1.15 E0.11950
G1 X-0.21 Y-1.15 E0.12012
G1 X0.45 Y0.00 E0.12075
G0 X0.14 Y-0.05
;LAYER:10
G0 X0.45 Y0.00 Z0.33
;TYPE:WALL-OUTER
G1 X-0.21 Y1.15 E0.12137
G1 X-1.54 Y1.15 E0.12200
G1 X-2.20 Y0.00 E0.12262
G1 X-1.54 Y-1.15 E0.12325
G1 X-0.21 Y-1.15 E0.12387
G1 X0.45 Y0.00 E0.12449
G0 X0.14 Y-0.05
;LAYER:11
G0 X0.45 Y0.00 Z0.36
;TYPE:WALL-OUTER
G1 X-0.21 Y1.15 E0.12512
G1 X-1.54 Y1.15 E0.12574
G1 X-2.20 Y0.00 E0.12637
G1 X-1.54 Y-1.15 E0.12699
G1 X-0.21 Y-1.15 E0.12761
G1 X0.45 Y0.00 E0.12824
G0 X0.14 Y-0.05
;LAYER:12
G0 X0.45 Y0.00 Z0.39
;TYPE:WALL-OUTER
G1 X-0.21 Y1.15 E0.12886
G1 X-1.54 Y1.15 E0.12948
G1 X-2.20 Y0.00 E0.13011
G1 X-1.54 Y-1.15 E0.13073
G1 X-0.21 Y-1.15 E0.13136
G1 X0.45 Y0.00 E0.13198
G0 X0.14 Y-0.05
;LAYER:13
G0 X0.45 Y0.00 Z0.42
;TYPE:WALL-OUTER
G1 X-0.21 Y1.15 E0.13261
G1 X-1.54 Y1.15 E0.13323
G1 X-2.20 Y0.00 E0.13385
G1 X-1.54 Y-1.15 E0.13448
G1 X-0.21 Y-1.15 E0.13510
G1 X0.45 Y0.00 E0.13573
G0 X0.14 Y-0.05
;LAYER:14
G0 X0.45 Y0.00 Z0.45
;TYPE:WALL-OUTER
G1 X-0.21 Y1.15 E0.13635
G1 X-1.54 Y1.15 E0.13697
G1 X-2.20 Y0.00 E0.13760
G1 X-1.54 Y-1.15 E0.13822
G1 X-0.21 Y-1.15 E0.13885
G1 X0.45 Y0.00 E0.13947
G0 X0.14 Y-0.05
;LAYER:15
G0 X0.45 Y0.00 Z0.48
;TYPE:WALL-OUTER
G1 X-0.21 Y1.15 E0.14009
G1 X-1.54 Y1.15 E0.14072
G1 X-2.20 Y0.00 E0.14134
G1 X-1.54 Y-1.15 E0.14197
G1 X-0.21 Y-1.15 E0.14259
G1 X0.45 Y0.00 E0.14321
G0 X0.14 Y-0.05
;LAYER:16
G0 X0.45 Y0.00 Z0.51
;TYPE:WALL-OUTER
G1 X-0.21 Y1.15 E0.14384
G1 X-1.54 Y1.15 E0.14446
G1 X-2.20 Y0.00 E0.14508
G1 X-1.54 Y-1.15 E0.14571
G1 X-0.21 Y-1.15 E0.14633
G1 X0.45 Y0.00 E0.14696
G0 X0.14 Y-0.05
;LAYER:17
G0 X0.45 Y0.00 Z0.54
;TYPE:WALL-OUTER
G1 X-0.21 Y1.15 E0.14758
G1 X-1.54 Y1.15 E0.14820
G1 X-2.20 Y0.00 E0.14883
G1 X-1.54 Y-1.15 E0.14945
G1 X-0.21 Y-1.15 E0.15008
G1 X0.45 Y0.00 E0.15070
G0 X0.14 Y-0.05
;LAYER:18
G0 X0.45 Y0.00 Z0.57
;TYPE:WALL-OUTER
G1 X-0.21 Y1.15 E0.15133
G1 X-1.54 Y1.15 E0.15195
G1 X-2.20 Y0.00 E0.15257
G1 X-1.54 Y-1.15 E0.15320
G1 X-0.21 Y-1.15 E0.15382
G1 X0.45 Y0.00 E0.15444
G0 X0.14 Y-0.05
;LAYER:19
G0 X0.45 Y0.00 Z0.60
;TYPE:WALL-OUTER
G1 X-0.21 Y1.15 E0.15507
G1 X-1.54 Y1.15 E0.15569
G1 X-2.20 Y0.00 E0.15632
G1 X-1.54 Y-1.15 E0.15694
G1 X-0.21 Y-1.15 E0.15756
G1 X0.45 Y0.00 E0.15819
G0 X0.14 Y-0.05
;LAYER:20
G0 X0.45 Y0.00 Z0.63
;TYPE:WALL-OUTER
G1 X-0.21 Y1.15 E0.15881
G1 X-1.54 Y1.15 E0.15944
G1 X-2.20 Y0.00 E0.16006
G1 X-1.54 Y-1.15 E0.16068
G1 X-0.21 Y-1.15 E0.16131
G1 X0.45 Y0.00 E0.16193
G0 X0.14 Y-0.05
;LAYER:21
G0 X0.45 Y0.00 Z0.66
;TYPE:WALL-OUTER
G1 X-0.21 Y1.15 E0.16256
G1 X-1.54 Y1.15 E0.16318
G1 X-2.20 Y0.00 E0.16380
G1 X-1.54 Y-1.15 E0.16443
G1 X-0.21 Y-1.15 E0.16505
G1 X0.45 Y0.00 E0.16568
G0 X0.14 Y-0.05
;LAYER:22
G0 X0.45 Y0.00 Z0.69
;TYPE:WALL-OUTER
G1 X-0.21 Y1.15 E0.16630
G1 X-1.54 Y1.15 E0.16692
G1 X-2.20 Y0.00 E0.16755
G1 X-1.54 Y-1.15 E0.16817
G1 X-0.21 Y-1.15 E0.16880
G1 X0.45 Y0.00 E0.16942
G0 X0.14 Y-0.05
;LAYER:23
G0 X0.45 Y0.00 Z0.72
;TYPE:WALL-OUTER
G1 X-0.21 Y1.15 E0.17004
G1 X-1.54 Y1.15 E0.17067
G1 X-2.20 Y0.00 E0.17129
G1 X-1.54 Y-1.15 E0.17192
G1 X-0.21 Y-1.15 E0.17254
G1 X0.45 Y0.00 E0.17316
G0 X0.14 Y-0.05
;LAYER:24
G0 X0.45 Y0.00 Z0.75
;TYPE:WALL-OUTER
G1 X-0.21 Y1.15 E0.17379
G1 X-1.54 Y1.15 E0.17441
G1 X-2.20 Y0.00 E0.17504
G1 X-1.54 Y-1.15 E0.17566
G1 X-0.21 Y-1.15 E0.17628
G1 X0.45 Y0.00 E0.17691
G0 X0.14 Y-0.05
;LAYER:25
G0 X0.45 Y0.00 Z0.78
;TYPE:WALL-OUTER
G1 X-0.21 Y1.15 E0.17753
G1 X-1.54 Y1.15 E0.17816
G1 X-2.20 Y0.00 E0.17878
G1 X-1.54 Y-1.15 E0.17940
G1 X-0.21 Y-1.15 E0.18003
G1 X0.45 Y0.00 E0.18065
G0 X0.14 Y-0.05
;LAYER:26
G0 X0.45 Y0.00 Z0.81
;TYPE:WALL-OUTER
G1 X-0.21 Y1.15 E0.18128
G1 X-1.54 Y1.15 E0.18190
G1 X-2.20 Y0.00 E0.18252
G1 X-1.54 Y-1.15 E0.18315
G1 X-0.21 Y-1.15 E0.18377
G1 X0.45 Y0.00 E0.18440
G0 X0.14 Y-0.05
;LAYER:27
G0 X0.45 Y0.00 Z0.84
;TYPE:WALL-OUTER
G1 X-0.21 Y1.15 E0.18502
G1 X-1.54 Y1.15 E0.18564
G1 X-2.20 Y0.00 E0.18627
G1 X-1.54 Y-1.15 E0.18689
G1 X-0.21 Y-1.15 E0.18752
G1 X0.45 Y0.00 E0.18814
G0 X0.14 Y-0.05
;LAYER:28
G0 X0.45 Y0.00 Z0.87
;TYPE:WALL-OUTER
G1 X-0.21 Y1.15 E0.18876
G1 X-1.54 Y1.15 E0.18939
G1 X-2.20 Y0.00 E0.19001
G1 X-1.54 Y-1.15 E0.19064
G1 X-0.21 Y-1.15 E0.19126
G1 X0.45 Y0.00 E0.19188
G0 X0.14 Y-0.05
;LAYER:29
G0 X0.45 Y0.00 Z0.90
;TYPE:WALL-OUTER
G1 X-0.21 Y1.15 E0.19251
G1 X-1.54 Y1.15 E0.19313
G1 X-2.20 Y0.00 E0.19376
G1 X-1.54 Y-1.15 E0.19438
G1 X-0.21 Y-1.15 E0.19500
G1 X0.45 Y0.00 E0.19563
G0 X0.14 Y-0.05
;LAYER:30
G0 X0.45 Y0.00 Z0.93
;TYPE:WALL-OUTER
G1 X-0.21 Y1.15 E0.19625
G1 X-1.54 Y1.15 E0.19687
G1 X-2.20 Y0.00 E0.19750
G1 X-1.54 Y-1.15 E0.19812
G1 X-0.21 Y-1.15 E0.19875
G1 X0.45 Y0.00 E0.19937
G0 X0.14 Y-0.05
;LAYER:31
G0 X0.45 Y0.00 Z0.96
;TYPE:WALL-OUTER
G1 X-0.21 Y1.15 E0.20000
G1 X-1.54 Y1.15 E0.20062
G1 X-2.20 Y0.00 E0.20124
G1 X-1.54 Y-1.15 E0.20187
G1 X-0.21 Y-1.15 E0.20249
G1 X0.45 Y0.00 E0.20312
G0 X0.14 Y-0.05
;LAYER:32
G0 X0.45 Y0.00 Z0.99
;TYPE:WALL-OUTER
G1 X-0.21 Y1.15 E0.20374
G1 X-1.54 Y1.15 E0.20436
G1 X-2.20 Y0.00 E0.20499
G1 X-1.54 Y-1.15 E0.20561
G1 X-0.21 Y-1.15 E0.20624
G1 X0.45 Y0.00 E0.20686
G0 X0.14 Y-0.05
;LAYER:33
G0 X0.45 Y0.00 Z1.02
;TYPE:WALL-OUTER
G1 X-0.21 Y1.15 E0.20748
G1 X-1.54 Y1.15 E0.20811
G1 X-2.20 Y0.00 E0.20873
G1 X-1.54 Y-1.15 E0.20936
G1 X-0.21 Y-1.15 E0.20998
G1 X0.45 Y0.00 E0.21060
G0 X0.14 Y-0.05
;LAYER:34
G0 X0.45 Y0.00 Z1.05
;TYPE:WALL-OUTER
G1 X-0.21 Y1.15 E0.21123
G1 X-1.54 Y1.15 E0.21185
G1 X-2.20 Y0.00 E0.21248
G1 X-1.54 Y-1.15 E0.21310
G1 X-0.21 Y-1.15 E0.21372
G1 X0.45 Y0.00 E0.21435
G0 X0.14 Y-0.05
;LAYER:35
G0 X0.45 Y0.00 Z1.08
;TYPE:WALL-OUTER
G1 X-0.21 Y1.15 E0.21497
G1 X-1.54 Y1.15 E0.21559
G1 X-2.20 Y0.00 E0.21622
G1 X-1.54 Y-1.15 E0.21684
G1 X-0.21 Y-1.15 E0.21747
G1 X0.45 Y0.00 E0.21809
G0 X0.14 Y-0.05
;LAYER:36
G0 X0.45 Y0.00 Z1.11
;TYPE:WALL-OUTER
G1 X-0.21 Y1.15 E0.21872
G1 X-1.54 Y1.15 E0.21934
G1 X-2.20 Y0.00 E0.21996
G1 X-1.54 Y-1.15 E0.22059
G1 X-0.21 Y-1.15 E0.22121
G1 X0.45 Y0.00 E0.22184
G0 X0.14 Y-0.05
;LAYER:37
G0 X0.45 Y0.00 Z1.14
;TYPE:WALL-OUTER
G1 X-0.21 Y1.15 E0.22246
G1 X-1.54 Y1.15 E0.22308
G1 X-2.20 Y0.00 E0.22371
G1 X-1.54 Y-1.15 E0.22433
G1 X-0.21 Y-1.15 E0.22495
G1 X0.45 Y0.00 E0.22558
G0 X0.14 Y-0.05
;LAYER:38
G0 X0.45 Y0.00 Z1.17
;TYPE:WALL-OUTER
G1 X-0.21 Y1.15 E0.22620
G1 X-1.54 Y1.15 E0.22683
G1 X-2.20 Y0.00 E0.22745
G1 X-1.54 Y-1.15 E0.22807
G1 X-0.21 Y-1.15 E0.22870
G1 X0.45 Y0.00 E0.22932
G0 X0.14 Y-0.05
;LAYER:39
G0 X0.45 Y0.00 Z1.20
;TYPE:WALL-OUTER
G1 X-0.21 Y1.15 E0.22995
G1 X-1.54 Y1.15 E0.23057
G1 X-2.20 Y0.00 E0.23119
G1 X-1.54 Y-1.15 E0.23182
G1 X-0.21 Y-1.15 E0.23244
G1 X0.45 Y0.00 E0.23307
G0 X0.14 Y-0.05
;LAYER:40
G0 X0.45 Y0.00 Z1.23
;TYPE:WALL-OUTER
G1 X-0.21 Y1.15 E0.23369
G1 X-1.53 Y1.15 E0.23431
G1 X-2.20 Y0.00 E0.23494
G1 X-1.54 Y-1.15 E0.23556
G1 X-0.21 Y-1.15 E0.23619
G1 X0.45 Y0.00 E0.23681
G0 X0.14 Y-0.05
;LAYER:41
G0 X0.45 Y0.00 Z1.26
;TYPE:WALL-OUTER
G1 X-0.21 Y1.15 E0.23743
G1 X-1.53 Y1.15 E0.23806
G1 X-2.20 Y0.00 E0.23868
G1 X-1.54 Y-1.15 E0.23931
G1 X-0.21 Y-1.15 E0.23993
G1 X0.45 Y0.00 E0.24055
G0 X0.14 Y-0.05
;LAYER:42
G0 X0.45 Y0.00 Z1.29
;TYPE:WALL-OUTER
G1 X-0.21 Y1.15 E0.24118
G1 X-1.53 Y1.15 E0.24180
G1 X-2.20 Y0.00 E0.24243
G1 X-1.54 Y-1.15 E0.24305
G1 X-0.21 Y-1.15 E0.24367
G1 X0.45 Y0.00 E0.24430
G0 X0.14 Y-0.05
;LAYER:43
G0 X0.45 Y0.00 Z1.32
;TYPE:WALL-OUTER
G1 X-0.21 Y1.15 E0.24492
G1 X-1.53 Y1.15 E0.24554
G1 X-2.20 Y0.00 E0.24617
G1 X-1.54 Y-1.15 E0.24679
G1 X-0.21 Y-1.15 E0.24742
G1 X0.45 Y0.00 E0.24804
G0 X0.14 Y-0.05
;LAYER:44
G0 X0.45 Y0.00 Z1.35
;TYPE:WALL-OUTER
G1 X-0.21 Y1.15 E0.24867
G1 X-1.53 Y1.15 E0.24929
G1 X-2.20 Y0.00 E0.24991
G1 X-1.54 Y-1.15 E0.25054
G1 X-0.21 Y-1.15 E0.25116
G1 X0.45 Y0.00 E0.25179
G0 X0.14 Y-0.05
;LAYER:45
G0 X0.45 Y0.00 Z1.38
;TYPE:WALL-OUTER
G1 X-0.21 Y1.15 E0.25241
G1 X-1.53 Y1.15 E0.25303
G1 X-2.20 Y0.00 E0.25366
G1 X-1.54 Y-1.15 E0.25428
G1 X-0.21 Y-1.15 E0.25490
G1 X0.45 Y0.00 E0.25553
G0 X0.14 Y-0.05
;LAYER:46
G0 X0.45 Y0.00 Z1.41
;TYPE:WALL-OUTER
G1 X-0.21 Y1.15 E0.25615
G1 X-1.53 Y1.15 E0.25678
G1 X-2.20 Y0.00 E0.25740
G1 X-1.54 Y-1.15 E0.25802
G1 X-0.21 Y-1.15 E0.25865
G1 X0.45 Y0.00 E0.25927
G0 X0.14 Y-0.05
;LAYER:47
G0 X0.45 Y0.00 Z1.44
;TYPE:WALL-OUTER
G1 X-0.21 Y1.15 E0.25990
G1 X-1.53 Y1.15 E0.26052
G1 X-2.20 Y0.00 E0.26114
G1 X-1.54 Y-1.15 E0.26177
G1 X-0.21 Y-1.15 E0.26239
G1 X0.45 Y0.00 E0.26302
G0 X0.14 Y-0.05
;LAYER:48
G0 X0.45 Y0.00 Z1.47
;TYPE:WALL-OUTER
G1 X-0.21 Y1.15 E0.26364
G1 X-1.53 Y1.15 E0.26426
G1 X-2.20 Y0.00 E0.26489
G1 X-1.54 Y-1.15 E0.26551
G1 X-0.21 Y-1.15 E0.26614
G1 X0.45 Y0.00 E0.26676
G0 X0.14 Y-0.05
;LAYER:49
G0 X0.45 Y0.00 Z1.50
;TYPE:WALL-OUTER
G1 X-0.21 Y1.15 E0.26738
G1 X-1.53 Y1.15 E0.26801
G1 X-2.20 Y0.00 E0.26863
G1 X-1.54 Y-1.15 E0.26926
G1 X-0.21 Y-1.15 E0.26988
G1 X0.45 Y0.00 E0.27050
G0 X0.14 Y-0.05
;LAYER:50
G0 X0.45 Y0.00 Z1.53
;TYPE:WALL-OUTER
G1 X-0.21 Y1.15 E0.27113
G1 X-1.53 Y1.15 E0.27175
G1 X-2.20 Y0.00 E0.27237
G1 X-1.54 Y-1.15 E0.27300
G1 X-0.21 Y-1.15 E0.27362
G1 X0.45 Y0.00 E0.27425
G0 X0.14 Y-0.05
;LAYER:51
G0 X0.45 Y0.00 Z1.56
;TYPE:WALL-OUTER
G1 X-0.21 Y1.15 E0.27487
G1 X-1.53 Y1.15 E0.27549
G1 X-2.20 Y0.00 E0.27612
G1 X-1.54 Y-1.15 E0.27674
G1 X-0.21 Y-1.15 E0.27737
G1 X0.45 Y0.00 E0.27799
G0 X0.14 Y-0.05
;LAYER:52
G0 X0.45 Y0.00 Z1.59
;TYPE:WALL-OUTER
G1 X-0.21 Y1.15 E0.27861
G1 X-1.53 Y1.15 E0.27924
G1 X-2.20 Y0.00 E0.27986
G1 X-1.54 Y-1.15 E0.28049
G1 X-0.21 Y-1.15 E0.28111
G1 X0.45 Y0.00 E0.28173
G0 X0.14 Y-0.05
;LAYER:53
G0 X0.45 Y0.00 Z1.62
;TYPE:WALL-OUTER
G1 X-0.21 Y1.15 E0.28236
G1 X-1.53 Y1.15 E0.28298
G1 X-2.20 Y0.00 E0.28361
G1 X-1.54 Y-1.15 E0.28423
G1 X-0.21 Y-1.15 E0.28485
G1 X0.45 Y0.00 E0.28548
G0 X0.14 Y-0.05
;LAYER:54
G0 X0.45 Y0.00 Z1.65
;TYPE:WALL-OUTER
G1 X-0.21 Y1.15 E0.28610
G1 X-1.53 Y1.15 E0.28672
G1 X-2.20 Y0.00 E0.28735
G1 X-1.54 Y-1.15 E0.28797
G1 X-0.21 Y-1.15 E0.28860
G1 X0.45 Y0.00 E0.28922
G0 X0.14 Y-0.05
;LAYER:55
G0 X0.45 Y0.00 Z1.68
;TYPE:WALL-OUTER
G1 X-0.21 Y1.15 E0.28984
G1 X-1.53 Y1.15 E0.29047
G1 X-2.20 Y0.00 E0.29109
G1 X-1.54 Y-1.15 E0.29172
G1 X-0.21 Y-1.15 E0.29234
G1 X0.45 Y0.00 E0.29296
G0 X0.14 Y-0.05
;LAYER:56
G0 X0.45 Y0.00 Z1.71
;TYPE:WALL-OUTER
G1 X-0.21 Y1.15 E0.29359
G1 X-1.53 Y1.15 E0.29421
G1 X-2.20 Y0.00 E0.29483
G1 X-1.54 Y-1.15 E0.29546
G1 X-0.21 Y-1.15 E0.29608
G1 X0.45 Y0.00 E0.29671
G0 X0.14 Y-0.05
;LAYER:57
G0 X0.45 Y0.00 Z1.74
;TYPE:WALL-OUTER
G1 X-0.21 Y1.15 E0.29733
G1 X-1.53 Y1.15 E0.29795
G1 X-2.20 Y0.00 E0.29858
G1 X-1.54 Y-1.15 E0.29920
G1 X-0.21 Y-1.15 E0.29982
G1 X0.45 Y0.00 E0.30045
G0 X0.14 Y-0.05
;LAYER:58
G0 X0.45 Y0.00 Z1.77
;TYPE:WALL-OUTER
G1 X-0.21 Y1.15 E0.30107
G1 X-1.53 Y1.15 E0.30170
G1 X-2.20 Y0.00 E0.30232
G1 X-1.54 Y-1.15 E0.30294
G1 X-0.21 Y-1.15 E0.30357
G1 X0.45 Y0.00 E0.30419
G0 X0.14 Y-0.05
;LAYER:59
G0 X0.45 Y0.00 Z1.80
;TYPE:WALL-OUTER
G1 X-0.21 Y1.15 E0.30482
G1 X-1.53 Y1.15 E0.30544
G1 X-2.20 Y0.00 E0.30606
G1 X-1.54 Y-1.15 E0.30669
G1 X-0.21 Y-1.15 E0.30731
G1 X0.45 Y0.00 E0.30793
G0 X0.14 Y-0.05
;LAYER:60
G0 X0.45 Y0.00 Z1.83
;TYPE:WALL-OUTER
G1 X-0.21 Y1.15 E0.30856
G1 X-1.53 Y1.15 E0.30918
G1 X-2.20 Y0.00 E0.30981
G1 X-1.54 Y-1.15 E0.31043
G1 X-0.21 Y-1.15 E0.31105
G1 X0.45 Y0.00 E0.31168
G0 X0.14 Y-0.05
;LAYER:61
G0 X0.45 Y0.00 Z1.86
;TYPE:WALL-OUTER
G1 X-0.21 Y1.15 E0.31230
G1 X-1.53 Y1.15 E0.31292
G1 X-2.20 Y0.00 E0.31355
G1 X-1.54 Y-1.15 E0.31417
G1 X-0.21 Y-1.15 E0.31480
G1 X0.45 Y0.00 E0.31542
G0 X0.14 Y-0.05
;LAYER:62
G0 X0.45 Y0.00 Z1.89
;TYPE:WALL-OUTER
G1 X-0.21 Y1.15 E0.31605
G1 X-1.53 Y1.15 E0.31667
G1 X-2.20 Y0.00 E0.31729
G1 X-1.54 Y-1.15 E0.31792
G1 X-0.21 Y-1.15 E0.31854
G1 X0.45 Y0.00 E0.31916
G0 X0.14 Y-0.05
;LAYER:63
G0 X0.45 Y0.00 Z1.92
;TYPE:WALL-OUTER
G1 X-0.21 Y1.15 E0.31979
G1 X-1.53 Y1.15 E0.32041
G1 X-2.20 Y0.00 E0.32103
G1 X-1.54 Y-1.15 E0.32166
G1 X-0.21 Y-1.15 E0.32228
G1 X0.45 Y0.00 E0.32291
G0 X0.14 Y-0.05
;LAYER:64
G0 X0.45 Y0.00 Z1.95
;TYPE:WALL-OUTER
G1 X-0.21 Y1.15 E0.32353
G1 X-1.53 Y1.15 E0.32415
G1 X-2.20 Y0.00 E0.32478
G1 X-1.54 Y-1.15 E0.32540
G1 X-0.21 Y-1.15 E0.32603
G1 X0.45 Y0.00 E0.32665
G0 X0.14 Y-0.05
