;Generated with Cura_SteamEngine 13.11.2


;Layer count: 280
;LAYER:0
M107
G0 F6000 X3.09 Y0.08 Z0.03
;TYPE:SKIRT
G1 F6000 E0.00000
G1 X3.20 Y0.39 E0.00015
G1 X3.25 Y0.57 E0.00024
G1 X3.31 Y0.83 E0.00037
G1 X3.33 Y0.94 E0.00042
G1 X3.38 Y1.24 E0.00056
G1 X3.40 Y1.40 E0.00064
G1 X3.41 Y1.74 E0.00080
G1 X3.42 Y1.80 E0.00083
G1 X3.42 Y2.10 E0.00097
G1 X3.40 Y2.23 E0.00103
G1 X3.42 Y2.57 E0.00119
G1 X3.12 Y3.49 E0.00164
G1 X2.95 Y3.83 E0.00182
G1 X2.67 Y4.26 E0.00207
G1 X2.55 Y4.41 E0.00215
G1 X2.38 Y4.68 E0.00230
G1 X1.27 Y5.42 E0.00293
G1 X0.98 Y5.46 E0.00307
G1 X0.94 Y5.48 E0.00309
G1 X0.26 Y5.60 E0.00342
G1 X0.19 Y5.61 E0.00345
G1 X0.19 Y5.61 E0.00345
G1 X0.18 Y5.61 E0.00345
G1 X0.12 Y5.61 E0.00348
G1 X-0.55 Y5.57 E0.00380
G1 X-0.92 Y5.46 E0.00398
G1 X-1.14 Y5.40 E0.00409
G1 X-1.43 Y5.27 E0.00423
G1 X-1.69 Y5.27 E0.00436
G1 X-2.02 Y4.92 E0.00459
G1 X-2.25 Y4.72 E0.00473
G1 X-2.58 Y4.37 E0.00495
G1 X-2.80 Y4.07 E0.00513
G1 X-2.85 Y4.00 E0.00517
G1 X-3.51 Y3.26 E0.00564
G1 X-3.41 Y2.26 E0.00611
G1 X-3.41 Y2.23 E0.00612
G1 X-3.42 Y2.05 E0.00621
G1 X-3.42 Y1.86 E0.00630
G1 X-3.42 Y1.78 E0.00634
G1 X-3.42 Y1.66 E0.00639
G1 X-3.40 Y1.44 E0.00649
G1 X-3.39 Y1.31 E0.00656
G1 X-3.37 Y1.19 E0.00661
G1 X-3.36 Y1.14 E0.00664
G1 X-3.34 Y1.00 E0.00671
G1 X-3.29 Y0.71 E0.00684
G1 X-3.26 Y0.58 E0.00691
G1 X-3.17 Y0.29 E0.00705
G1 X-3.11 Y0.14 E0.00712
G1 X-3.25 Y-0.01 E0.00722
G1 X-3.32 Y-0.50 E0.00745
G1 X-3.40 Y-0.73 E0.00757
G1 X-3.47 Y-1.02 E0.00771
G1 X-3.52 Y-1.28 E0.00783
G1 X-3.54 Y-1.59 E0.00798
G1 X-3.54 Y-1.63 E0.00800
G1 X-3.55 Y-1.78 E0.00807
G1 X-3.49 Y-2.36 E0.00834
G1 X-3.49 Y-2.38 E0.00835
G1 X-3.48 Y-2.45 E0.00838
G1 X-3.35 Y-2.86 E0.00859
G1 X-3.33 Y-2.92 E0.00862
G1 X-3.32 Y-2.93 E0.00863
G1 X-3.28 Y-3.04 E0.00868
G1 X-3.06 Y-3.47 E0.00891
G1 X-2.96 Y-3.60 E0.00898
G1 X-2.89 Y-3.71 E0.00904
G1 X-2.76 Y-3.87 E0.00914
G1 X-2.69 Y-3.96 E0.00919
G1 X-2.39 Y-4.28 E0.00940
G1 X-1.80 Y-4.68 E0.00974
G1 X-1.37 Y-4.84 E0.00995
G1 X-1.28 Y-4.87 E0.01000
G1 X-1.22 Y-4.90 E0.01003
G1 X-0.64 Y-5.04 E0.01031
G1 X-0.09 Y-5.06 E0.01057
G1 X-0.03 Y-5.06 E0.01060
G1 X0.06 Y-5.06 E0.01064
G1 X0.10 Y-5.06 E0.01066
G1 X0.24 Y-5.06 E0.01072
G1 X0.31 Y-5.06 E0.01076
G1 X0.41 Y-5.05 E0.01080
G1 X0.45 Y-5.05 E0.01082
G1 X0.77 Y-5.01 E0.01098
G1 X1.28 Y-4.87 E0.01122
G1 X1.30 Y-4.86 E0.01123
G1 X1.37 Y-4.84 E0.01127
G1 X1.83 Y-4.67 E0.01150
G1 X2.45 Y-4.23 E0.01185
G1 X2.62 Y-4.04 E0.01197
G1 X2.81 Y-3.87 E0.01209
G1 X3.04 Y-3.49 E0.01230
G1 X3.21 Y-3.28 E0.01243
G1 X3.26 Y-3.13 E0.01251
G1 X3.26 Y-3.13 E0.01251
G1 X3.27 Y-3.11 E0.01252
G1 X3.29 Y-3.03 E0.01255
G1 X3.36 Y-2.91 E0.01262
G1 X3.43 Y-2.60 E0.01277
G1 X3.58 Y-2.12 E0.01301
G1 X3.54 Y-1.69 E0.01321
G1 X3.56 Y-1.51 E0.01330
G1 X3.49 Y-1.20 E0.01345
G1 X3.49 Y-1.15 E0.01346
G1 X3.48 Y-1.10 E0.01349
G1 X3.42 Y-0.80 E0.01363
G1 X3.30 Y-0.42 E0.01382
G1 X3.23 Y-0.26 E0.01390
G1 X3.22 Y-0.24 E0.01391
G1 X3.18 Y-0.17 E0.01395
G1 X3.11 Y0.05 E0.01406
G1 X3.09 Y0.08 E0.01408
G0 X3.20 Y0.10
G1 X3.30 Y0.36 E0.01421
G1 X3.35 Y0.55 E0.01430
G1 X3.41 Y0.81 E0.01443
G1 X3.43 Y0.93 E0.01448
G1 X3.48 Y1.23 E0.01463
G1 X3.49 Y1.39 E0.01470
G1 X3.51 Y1.71 E0.01486
G1 X3.52 Y1.80 E0.01490
G1 X3.52 Y2.11 E0.01504
G1 X3.50 Y2.23 E0.01510
G1 X3.53 Y2.58 E0.01527
G1 X3.21 Y3.52 E0.01573
G1 X3.04 Y3.88 E0.01592
G1 X2.75 Y4.33 E0.01617
G1 X2.63 Y4.47 E0.01626
G1 X2.46 Y4.75 E0.01641
G1 X1.31 Y5.51 E0.01706
G1 X1.01 Y5.56 E0.01720
G1 X0.97 Y5.58 E0.01722
G1 X0.28 Y5.70 E0.01755
G1 X0.20 Y5.71 E0.01759
G1 X0.19 Y5.71 E0.01759
G1 X0.18 Y5.71 E0.01760
G1 X0.12 Y5.71 E0.01763
G1 X-0.57 Y5.67 E0.01795
G1 X-0.94 Y5.56 E0.01814
G1 X-1.17 Y5.49 E0.01825
G1 X-1.45 Y5.37 E0.01839
G1 X-1.74 Y5.37 E0.01853
G1 X-2.08 Y4.99 E0.01877
G1 X-2.32 Y4.79 E0.01891
G1 X-2.65 Y4.44 E0.01914
G1 X-2.88 Y4.13 E0.01932
G1 X-2.93 Y4.05 E0.01937
G1 X-3.62 Y3.29 E0.01985
G1 X-3.51 Y2.27 E0.02033
G1 X-3.51 Y2.24 E0.02035
G1 X-3.52 Y2.05 E0.02043
G1 X-3.52 Y1.86 E0.02052
G1 X-3.52 Y1.78 E0.02056
G1 X-3.52 Y1.65 E0.02062
G1 X-3.50 Y1.43 E0.02072
G1 X-3.49 Y1.30 E0.02079
G1 X-3.46 Y1.15 E0.02086
G1 X-3.46 Y1.12 E0.02087
G1 X-3.44 Y0.98 E0.02094
G1 X-3.38 Y0.69 E0.02108
G1 X-3.35 Y0.55 E0.02115
G1 X-3.27 Y0.26 E0.02129
G1 X-3.23 Y0.16 E0.02134
G1 X-3.35 Y0.03 E0.02142
G1 X-3.42 Y-0.47 E0.02166
G1 X-3.50 Y-0.70 E0.02177
G1 X-3.57 Y-1.00 E0.02192
G1 X-3.62 Y-1.27 E0.02205
G1 X-3.64 Y-1.58 E0.02220
G1 X-3.64 Y-1.63 E0.02222
G1 X-3.65 Y-1.78 E0.02229
G1 X-3.59 Y-2.38 E0.02257
G1 X-3.59 Y-2.40 E0.02258
G1 X-3.58 Y-2.47 E0.02261
G1 X-3.45 Y-2.87 E0.02281
G1 X-3.42 Y-2.96 E0.02286
G1 X-3.41 Y-2.97 E0.02287
G1 X-3.38 Y-3.08 E0.02292
G1 X-3.15 Y-3.52 E0.02315
G1 X-3.06 Y-3.64 E0.02322
G1 X-2.98 Y-3.77 E0.02329
G1 X-2.84 Y-3.94 E0.02340
G1 X-2.77 Y-4.02 E0.02345
G1 X-2.46 Y-4.36 E0.02366
G1 X-1.85 Y-4.77 E0.02401
G1 X-1.41 Y-4.93 E0.02423
G1 X-1.33 Y-4.96 E0.02427
G1 X-1.26 Y-4.99 E0.02431
G1 X-0.66 Y-5.14 E0.02460
G1 X-0.10 Y-5.16 E0.02486
G1 X-0.03 Y-5.16 E0.02489
G1 X0.06 Y-5.16 E0.02493
G1 X0.10 Y-5.16 E0.02495
G1 X0.24 Y-5.16 E0.02502
G1 X0.32 Y-5.16 E0.02505
G1 X0.42 Y-5.15 E0.02510
G1 X0.46 Y-5.14 E0.02512
G1 X0.79 Y-5.11 E0.02528
G1 X1.32 Y-4.97 E0.02553
G1 X1.34 Y-4.95 E0.02555
G1 X1.40 Y-4.93 E0.02558
G1 X1.87 Y-4.76 E0.02581
G1 X2.52 Y-4.31 E0.02618
G1 X2.69 Y-4.11 E0.02631
G1 X2.88 Y-3.93 E0.02643
G1 X3.12 Y-3.54 E0.02665
G1 X3.30 Y-3.33 E0.02678
G1 X3.35 Y-3.18 E0.02685
G1 X3.36 Y-3.17 E0.02686
G1 X3.37 Y-3.12 E0.02688
G1 X3.38 Y-3.07 E0.02690
G1 X3.46 Y-2.94 E0.02697
G1 X3.52 Y-2.63 E0.02712
G1 X3.68 Y-2.13 E0.02737
G1 X3.64 Y-1.68 E0.02758
G1 X3.66 Y-1.50 E0.02767
G1 X3.60 Y-1.19 E0.02782
G1 X3.59 Y-1.14 E0.02784
G1 X3.58 Y-1.09 E0.02787
G1 X3.52 Y-0.78 E0.02801
G1 X3.40 Y-0.39 E0.02821
G1 X3.32 Y-0.22 E0.02829
G1 X3.31 Y-0.20 E0.02830
G1 X3.28 Y-0.14 E0.02833
G1 X3.20 Y0.10 E0.02845
G1 X3.20 Y0.10 E0.02845
G0 X3.31 Y0.10
G1 X3.39 Y0.33 E0.02857
G1 X3.45 Y0.52 E0.02866
G1 X3.51 Y0.79 E0.02879
G1 X3.53 Y0.91 E0.02885
G1 X3.58 Y1.22 E0.02899
G1 X3.59 Y1.38 E0.02907
G1 X3.61 Y1.70 E0.02922
G1 X3.62 Y1.79 E0.02927
G1 X3.62 Y2.12 E0.02942
G1 X3.60 Y2.23 E0.02947
G1 X3.63 Y2.59 E0.02964
G1 X3.31 Y3.56 E0.03012
G1 X3.13 Y3.93 E0.03032
G1 X2.83 Y4.39 E0.03057
G1 X2.71 Y4.53 E0.03066
G1 X2.53 Y4.82 E0.03082
G1 X1.35 Y5.61 E0.03149
G1 X1.04 Y5.66 E0.03163
G1 X1.00 Y5.68 E0.03166
G1 X0.27 Y5.80 E0.03200
G1 X0.21 Y5.81 E0.03203
G1 X0.20 Y5.81 E0.03204
G1 X0.19 Y5.81 E0.03204
G1 X0.09 Y5.80 E0.03209
G1 X-0.59 Y5.77 E0.03241
G1 X-0.98 Y5.65 E0.03260
G1 X-1.21 Y5.59 E0.03271
G1 X-1.47 Y5.47 E0.03285
G1 X-1.78 Y5.47 E0.03299
G1 X-2.15 Y5.06 E0.03326
G1 X-2.39 Y4.86 E0.03340
G1 X-2.73 Y4.50 E0.03363
G1 X-2.97 Y4.18 E0.03382
G1 X-3.01 Y4.11 E0.03386
G1 X-3.72 Y3.33 E0.03436
G1 X-3.61 Y2.27 E0.03486
G1 X-3.61 Y2.25 E0.03487
G1 X-3.62 Y2.05 E0.03496
G1 X-3.62 Y1.86 E0.03505
G1 X-3.62 Y1.78 E0.03509
G1 X-3.62 Y1.65 E0.03515
G1 X-3.60 Y1.43 E0.03525
G1 X-3.59 Y1.29 E0.03532
G1 X-3.57 Y1.16 E0.03538
G1 X-3.56 Y1.11 E0.03540
G1 X-3.54 Y0.96 E0.03547
G1 X-3.48 Y0.67 E0.03561
G1 X-3.45 Y0.53 E0.03568
G1 X-3.36 Y0.23 E0.03583
G1 X-3.34 Y0.19 E0.03585
G1 X-3.44 Y0.08 E0.03592
G1 X-3.52 Y-0.45 E0.03617
G1 X-3.60 Y-0.67 E0.03628
G1 X-3.67 Y-0.98 E0.03643
G1 X-3.71 Y-1.25 E0.03656
G1 X-3.74 Y-1.58 E0.03671
G1 X-3.74 Y-1.61 E0.03673
G1 X-3.75 Y-1.78 E0.03681
G1 X-3.69 Y-2.40 E0.03710
G1 X-3.68 Y-2.42 E0.03711
G1 X-3.68 Y-2.49 E0.03714
G1 X-3.54 Y-2.91 E0.03735
G1 X-3.51 Y-2.99 E0.03739
G1 X-3.50 Y-3.01 E0.03740
G1 X-3.47 Y-3.12 E0.03746
G1 X-3.23 Y-3.58 E0.03770
G1 X-3.13 Y-3.72 E0.03778
G1 X-3.06 Y-3.83 E0.03784
G1 X-2.92 Y-4.00 E0.03795
G1 X-2.84 Y-4.09 E0.03800
G1 X-2.52 Y-4.43 E0.03822
G1 X-1.90 Y-4.86 E0.03858
G1 X-1.44 Y-5.03 E0.03881
G1 X-1.37 Y-5.05 E0.03884
G1 X-1.29 Y-5.09 E0.03888
G1 X-0.67 Y-5.24 E0.03918
G1 X-0.10 Y-5.26 E0.03945
G1 X-0.03 Y-5.26 E0.03948
G1 X0.06 Y-5.26 E0.03953
G1 X0.10 Y-5.26 E0.03955
G1 X0.25 Y-5.26 E0.03961
G1 X0.32 Y-5.26 E0.03965
G1 X0.43 Y-5.25 E0.03970
G1 X0.47 Y-5.25 E0.03972
G1 X0.81 Y-5.21 E0.03988
G1 X1.35 Y-5.06 E0.04015
G1 X1.38 Y-5.05 E0.04016
G1 X1.44 Y-5.03 E0.04019
G1 X1.92 Y-4.85 E0.04043
G1 X2.58 Y-4.38 E0.04081
G1 X2.76 Y-4.18 E0.04094
G1 X2.96 Y-4.00 E0.04107
G1 X3.20 Y-3.60 E0.04128
G1 X3.39 Y-3.38 E0.04142
G1 X3.44 Y-3.21 E0.04150
G1 X3.45 Y-3.21 E0.04151
G1 X3.46 Y-3.17 E0.04153
G1 X3.48 Y-3.11 E0.04155
G1 X3.55 Y-2.98 E0.04163
G1 X3.62 Y-2.66 E0.04178
G1 X3.78 Y-2.14 E0.04203
G1 X3.74 Y-1.69 E0.04225
G1 X3.76 Y-1.50 E0.04234
G1 X3.69 Y-1.16 E0.04250
G1 X3.69 Y-1.12 E0.04252
G1 X3.68 Y-1.07 E0.04254
G1 X3.62 Y-0.75 E0.04269
G1 X3.49 Y-0.35 E0.04289
G1 X3.41 Y-0.19 E0.04298
G1 X3.40 Y-0.16 E0.04299
G1 X3.37 Y-0.10 E0.04302
G1 X3.31 Y0.10 E0.04312
G0 X3.41 Y0.10
G1 X3.48 Y0.30 E0.04322
G1 X3.54 Y0.50 E0.04332
G1 X3.61 Y0.77 E0.04345
G1 X3.63 Y0.89 E0.04351
G1 X3.68 Y1.20 E0.04366
G1 X3.69 Y1.38 E0.04374
G1 X3.71 Y1.68 E0.04388
G1 X3.72 Y1.79 E0.04394
G1 X3.72 Y2.12 E0.04409
G1 X3.70 Y2.24 E0.04415
G1 X3.73 Y2.61 E0.04432
G1 X3.40 Y3.60 E0.04481
G1 X3.21 Y3.98 E0.04501
G1 X2.91 Y4.45 E0.04527
G1 X2.79 Y4.59 E0.04536
G1 X2.60 Y4.89 E0.04553
G1 X1.39 Y5.70 E0.04622
G1 X1.07 Y5.75 E0.04637
G1 X1.03 Y5.77 E0.04639
G1 X0.27 Y5.90 E0.04675
G1 X0.22 Y5.91 E0.04677
G1 X0.21 Y5.91 E0.04678
G1 X0.19 Y5.91 E0.04679
G1 X0.06 Y5.90 E0.04685
G1 X-0.61 Y5.87 E0.04716
G1 X-1.00 Y5.75 E0.04736
G1 X-1.24 Y5.68 E0.04747
G1 X-1.49 Y5.57 E0.04760
G1 X-1.83 Y5.57 E0.04776
G1 X-2.22 Y5.13 E0.04804
G1 X-2.46 Y4.94 E0.04818
G1 X-2.81 Y4.57 E0.04842
G1 X-3.05 Y4.24 E0.04861
G1 X-3.09 Y4.17 E0.04865
G1 X-3.82 Y3.36 E0.04916
G1 X-3.71 Y2.27 E0.04968
G1 X-3.71 Y2.25 E0.04969
G1 X-3.72 Y2.05 E0.04978
G1 X-3.72 Y1.85 E0.04988
G1 X-3.72 Y1.77 E0.04991
G1 X-3.72 Y1.65 E0.04997
G1 X-3.70 Y1.42 E0.05008
G1 X-3.69 Y1.27 E0.05015
G1 X-3.67 Y1.14 E0.05021
G1 X-3.66 Y1.10 E0.05023
G1 X-3.64 Y0.95 E0.05030
G1 X-3.58 Y0.65 E0.05045
G1 X-3.54 Y0.50 E0.05052
G1 X-3.46 Y0.21 E0.05066
G1 X-3.54 Y0.12 E0.05072
G1 X-3.62 Y-0.43 E0.05098
G1 X-3.69 Y-0.64 E0.05109
G1 X-3.77 Y-0.96 E0.05124
G1 X-3.82 Y-1.24 E0.05137
G1 X-3.84 Y-1.58 E0.05153
G1 X-3.84 Y-1.61 E0.05155
G1 X-3.85 Y-1.78 E0.05163
G1 X-3.79 Y-2.42 E0.05193
G1 X-3.78 Y-2.44 E0.05194
G1 X-3.78 Y-2.51 E0.05197
G1 X-3.64 Y-2.91 E0.05217
G1 X-3.61 Y-3.03 E0.05223
G1 X-3.60 Y-3.06 E0.05224
G1 X-3.56 Y-3.16 E0.05229
G1 X-3.32 Y-3.63 E0.05254
G1 X-3.21 Y-3.77 E0.05263
G1 X-3.14 Y-3.88 E0.05269
G1 X-2.99 Y-4.07 E0.05280
G1 X-2.92 Y-4.16 E0.05285
G1 X-2.59 Y-4.51 E0.05308
G1 X-1.94 Y-4.95 E0.05345
G1 X-1.47 Y-5.12 E0.05368
G1 X-1.40 Y-5.15 E0.05372
G1 X-1.32 Y-5.18 E0.05376
G1 X-0.68 Y-5.34 E0.05407
G1 X-0.10 Y-5.36 E0.05434
G1 X-0.03 Y-5.36 E0.05437
G1 X0.06 Y-5.36 E0.05442
G1 X0.10 Y-5.36 E0.05444
G1 X0.25 Y-5.36 E0.05451
G1 X0.33 Y-5.36 E0.05455
G1 X0.44 Y-5.35 E0.05460
G1 X0.48 Y-5.34 E0.05462
G1 X0.83 Y-5.31 E0.05478
G1 X1.39 Y-5.16 E0.05505
G1 X1.43 Y-5.14 E0.05508
G1 X1.47 Y-5.12 E0.05510
G1 X1.97 Y-4.94 E0.05535
G1 X2.65 Y-4.46 E0.05574
G1 X2.83 Y-4.25 E0.05587
G1 X3.04 Y-4.06 E0.05600
G1 X3.29 Y-3.66 E0.05622
G1 X3.48 Y-3.43 E0.05636
G1 X3.53 Y-3.26 E0.05645
G1 X3.54 Y-3.25 E0.05645
G1 X3.57 Y-3.15 E0.05650
G1 X3.65 Y-3.01 E0.05658
G1 X3.72 Y-2.68 E0.05674
G1 X3.88 Y-2.15 E0.05700
G1 X3.84 Y-1.69 E0.05721
G1 X3.86 Y-1.49 E0.05731
G1 X3.79 Y-1.15 E0.05747
G1 X3.79 Y-1.11 E0.05749
G1 X3.78 Y-1.05 E0.05752
G1 X3.72 Y-0.73 E0.05767
G1 X3.58 Y-0.31 E0.05788
G1 X3.50 Y-0.14 E0.05797
G1 X3.49 Y-0.12 E0.05798
G1 X3.46 Y-0.06 E0.05801
G1 X3.41 Y0.10 E0.05809
G0 X3.52 Y0.10
G1 X3.58 Y0.27 E0.05817
G1 X3.64 Y0.47 E0.05827
G1 X3.70 Y0.75 E0.05841
G1 X3.73 Y0.87 E0.05847
G1 X3.78 Y1.19 E0.05862
G1 X3.79 Y1.37 E0.05870
G1 X3.81 Y1.69 E0.05885
G1 X3.82 Y1.79 E0.05890
G1 X3.82 Y2.13 E0.05906
G1 X3.80 Y2.24 E0.05911
G1 X3.83 Y2.62 E0.05929
G1 X3.49 Y3.64 E0.05979
G1 X3.30 Y4.03 E0.06000
G1 X2.99 Y4.51 E0.06027
G1 X2.87 Y4.65 E0.06035
G1 X2.68 Y4.96 E0.06053
G1 X1.42 Y5.80 E0.06124
G1 X1.10 Y5.85 E0.06139
G1 X1.06 Y5.87 E0.06141
G1 X0.32 Y5.99 E0.06176
G1 X0.22 Y6.01 E0.06181
G1 X0.21 Y6.01 E0.06182
G1 X0.20 Y6.01 E0.06182
G1 X0.09 Y6.00 E0.06187
G1 X-0.62 Y5.97 E0.06221
G1 X-1.03 Y5.84 E0.06241
G1 X-1.27 Y5.78 E0.06253
G1 X-1.51 Y5.67 E0.06265
G1 X-1.87 Y5.67 E0.06282
G1 X-2.30 Y5.20 E0.06312
G1 X-2.53 Y5.01 E0.06326
G1 X-2.89 Y4.63 E0.06350
G1 X-3.14 Y4.29 E0.06370
G1 X-3.17 Y4.23 E0.06374
G1 X-3.93 Y3.39 E0.06427
G1 X-3.81 Y2.26 E0.06480
G1 X-3.82 Y2.05 E0.06490
G1 X-3.82 Y1.86 E0.06499
G1 X-3.82 Y1.77 E0.06503
G1 X-3.82 Y1.64 E0.06509
G1 X-3.80 Y1.41 E0.06520
G1 X-3.78 Y1.26 E0.06527
G1 X-3.77 Y1.16 E0.06532
G1 X-3.76 Y1.09 E0.06535
G1 X-3.74 Y0.93 E0.06543
G1 X-3.68 Y0.62 E0.06558
G1 X-3.64 Y0.47 E0.06565
G1 X-3.57 Y0.23 E0.06577
G1 X-3.63 Y0.17 E0.06581
G1 X-3.71 Y-0.40 E0.06608
G1 X-3.79 Y-0.62 E0.06619
G1 X-3.87 Y-0.94 E0.06634
G1 X-3.91 Y-1.23 E0.06648
G1 X-3.94 Y-1.57 E0.06664
G1 X-3.94 Y-1.62 E0.06666
G1 X-3.95 Y-1.78 E0.06674
G1 X-3.89 Y-2.44 E0.06705
G1 X-3.88 Y-2.45 E0.06706
G1 X-3.88 Y-2.53 E0.06709
G1 X-3.73 Y-2.97 E0.06731
G1 X-3.70 Y-3.07 E0.06736
G1 X-3.69 Y-3.09 E0.06737
G1 X-3.65 Y-3.20 E0.06743
G1 X-3.40 Y-3.68 E0.06768
G1 X-3.30 Y-3.82 E0.06776
G1 X-3.22 Y-3.94 E0.06783
G1 X-3.07 Y-4.13 E0.06794
G1 X-2.99 Y-4.22 E0.06800
G1 X-2.65 Y-4.59 E0.06824
G1 X-1.99 Y-5.04 E0.06861
G1 X-1.51 Y-5.22 E0.06886
G1 X-1.43 Y-5.24 E0.06889
G1 X-1.36 Y-5.28 E0.06893
G1 X-0.70 Y-5.44 E0.06925
G1 X-0.11 Y-5.46 E0.06953
G1 X-0.04 Y-5.46 E0.06956
G1 X0.06 Y-5.46 E0.06961
G1 X0.10 Y-5.46 E0.06963
G1 X0.25 Y-5.46 E0.06970
G1 X0.34 Y-5.45 E0.06974
G1 X0.44 Y-5.45 E0.06979
G1 X0.49 Y-5.45 E0.06981
G1 X0.85 Y-5.41 E0.06998
G1 X1.42 Y-5.25 E0.07026
G1 X1.45 Y-5.24 E0.07027
G1 X1.50 Y-5.22 E0.07030
G1 X2.01 Y-5.03 E0.07056
G1 X2.72 Y-4.53 E0.07096
G1 X2.90 Y-4.32 E0.07109
G1 X3.12 Y-4.13 E0.07123
G1 X3.37 Y-3.72 E0.07145
G1 X3.57 Y-3.48 E0.07160
G1 X3.63 Y-3.30 E0.07169
G1 X3.63 Y-3.29 E0.07170
G1 X3.65 Y-3.21 E0.07173
G1 X3.66 Y-3.19 E0.07174
G1 X3.74 Y-3.05 E0.07182
G1 X3.82 Y-2.71 E0.07198
G1 X3.99 Y-2.16 E0.07225
G1 X3.94 Y-1.68 E0.07248
G1 X3.96 Y-1.48 E0.07257
G1 X3.89 Y-1.14 E0.07274
G1 X3.88 Y-1.09 E0.07276
G1 X3.87 Y-1.03 E0.07279
G1 X3.81 Y-0.70 E0.07295
G1 X3.67 Y-0.28 E0.07316
G1 X3.60 Y-0.11 E0.07324
G1 X3.59 Y-0.09 E0.07326
G1 X3.56 Y-0.03 E0.07329
G1 X3.52 Y0.10 E0.07335
G0 X0.09 Y1.35
G0 X0.08 Y1.33
G0 X0.22 Y1.27
;TYPE:WALL-OUTER
G1 X0.25 Y1.36 E0.07340
G1 X0.30 Y1.62 E0.07352
G1 X0.31 Y1.87 E0.07364
G1 X0.31 Y1.90 E0.07365
G1 X0.32 Y1.94 E0.07367
G1 X0.30 Y2.07 E0.07373
G1 X0.29 Y2.09 E0.07374
G1 X0.28 Y2.15 E0.07377
G1 X0.29 Y2.17 E0.07378
G1 X0.24 Y2.32 E0.07386
G1 X0.20 Y2.39 E0.07389
G1 X0.10 Y2.46 E0.07395
G1 X0.09 Y2.47 E0.07396
G1 X0.05 Y2.49 E0.07398
G1 X0.02 Y2.48 E0.07399
G1 X-0.02 Y2.49 E0.07401
G1 X-0.07 Y2.48 E0.07403
G1 X-0.11 Y2.47 E0.07405
G1 X-0.19 Y2.39 E0.07411
G1 X-0.26 Y2.26 E0.07418
G1 X-0.30 Y2.11 E0.07425
G1 X-0.30 Y2.09 E0.07426
G1 X-0.32 Y2.00 E0.07430
G1 X-0.32 Y1.88 E0.07436
G1 X-0.32 Y1.80 E0.07440
G1 X-0.29 Y1.59 E0.07450
G1 X-0.23 Y1.30 E0.07464
G1 X-0.18 Y1.19 E0.07469
G1 X-0.15 Y1.15 E0.07472
G1 X-0.09 Y1.12 E0.07475
G1 X-0.08 Y1.12 E0.07475
G1 X-0.06 Y1.12 E0.07476
G1 X-0.04 Y1.11 E0.07477
G1 X0.01 Y1.11 E0.07479
G1 X0.01 Y1.10 E0.07480
G1 X0.08 Y1.11 E0.07483
G1 X0.16 Y1.17 E0.07488
G1 X0.22 Y1.27 E0.07493
G0 X0.01 Y1.37
G0 X-0.07 Y-1.43
G0 X-0.07 Y-1.43
G0 X-0.08 Y-1.28
G1 X-0.12 Y-1.29 E0.07495
G1 X-0.13 Y-1.30 E0.07496
G1 X-0.16 Y-1.30 E0.07497
G1 X-0.17 Y-1.30 E0.07498
G1 X-0.23 Y-1.31 E0.07501
G1 X-0.26 Y-1.33 E0.07503
G1 X-0.33 Y-1.42 E0.07508
G1 X-0.35 Y-1.44 E0.07509
G1 X-0.36 Y-1.46 E0.07510
G1 X-0.44 Y-1.64 E0.07519
G1 X-0.44 Y-1.67 E0.07521
G1 X-0.43 Y-1.71 E0.07523
G1 X-0.44 Y-1.76 E0.07525
G1 X-0.43 Y-1.77 E0.07526
G1 X-0.42 Y-1.79 E0.07527
G1 X-0.43 Y-1.82 E0.07528
G1 X-0.39 Y-1.88 E0.07531
G1 X-0.36 Y-1.91 E0.07533
G1 X-0.24 Y-1.94 E0.07539
G1 X-0.21 Y-1.96 E0.07541
G1 X0.04 Y-1.96 E0.07553
G1 X0.20 Y-1.96 E0.07560
G1 X0.24 Y-1.94 E0.07562
G1 X0.34 Y-1.92 E0.07567
G1 X0.36 Y-1.91 E0.07568
G1 X0.40 Y-1.87 E0.07571
G1 X0.40 Y-1.85 E0.07571
G1 X0.43 Y-1.82 E0.07573
G1 X0.42 Y-1.79 E0.07574
G1 X0.43 Y-1.78 E0.07575
