;Generated with Cura_SteamEngine 13.11.2


;Layer count: 560
;LAYER:0
M107
G0 F6000 X-0.05 Y-0.88 Z0.03
;TYPE:SKIRT
G1 F6000 E0.00000
G1 X-0.01 Y-0.88 E0.00002
G1 X0.05 Y-0.88 E0.00005
G1 X0.07 Y-0.88 E0.00006
G1 X0.08 Y-0.88 E0.00006
G1 X0.17 Y-0.87 E0.00010
G1 X0.34 Y-0.86 E0.00018
G1 X0.41 Y-0.86 E0.00022
G1 X0.55 Y-0.84 E0.00028
G1 X0.65 Y-0.82 E0.00033
G1 X0.82 Y-0.79 E0.00041
G1 X0.97 Y-0.75 E0.00048
G1 X1.13 Y-0.70 E0.00057
G1 X1.25 Y-0.67 E0.00062
G1 X1.38 Y-0.61 E0.00069
G1 X1.48 Y-0.57 E0.00074
G1 X1.66 Y-0.49 E0.00084
G1 X1.87 Y-0.37 E0.00095
G1 X2.14 Y-0.19 E0.00110
G1 X2.37 Y-0.01 E0.00124
G1 X2.63 Y0.25 E0.00141
G1 X2.83 Y0.49 E0.00156
G1 X3.15 Y0.96 E0.00182
G1 X3.31 Y1.27 E0.00199
G1 X3.40 Y1.52 E0.00211
G1 X3.41 Y1.56 E0.00213
G1 X3.45 Y1.67 E0.00219
G1 X3.47 Y1.71 E0.00221
G1 X3.50 Y1.83 E0.00227
G1 X3.52 Y1.86 E0.00228
G1 X3.57 Y2.03 E0.00237
G1 X3.60 Y2.17 E0.00244
G1 X3.62 Y2.27 E0.00248
G1 X3.64 Y2.37 E0.00253
G1 X3.66 Y2.47 E0.00258
G1 X3.69 Y2.64 E0.00266
G1 X3.69 Y2.68 E0.00268
G1 X3.72 Y2.83 E0.00275
G1 X3.72 Y2.89 E0.00278
G1 X3.75 Y3.20 E0.00292
G1 X3.76 Y3.32 E0.00298
G1 X3.77 Y3.69 E0.00316
G1 X3.77 Y3.75 E0.00318
G1 X3.77 Y3.78 E0.00320
G1 X3.77 Y4.04 E0.00332
G1 X3.72 Y4.58 E0.00357
G1 X3.69 Y4.75 E0.00366
G1 X3.63 Y5.01 E0.00378
G1 X3.63 Y5.02 E0.00378
G1 X3.60 Y5.16 E0.00385
G1 X3.56 Y5.32 E0.00393
G1 X3.51 Y5.45 E0.00400
G1 X3.50 Y5.50 E0.00402
G1 X3.45 Y5.63 E0.00409
G1 X3.42 Y5.70 E0.00412
G1 X3.35 Y5.88 E0.00421
G1 X3.28 Y6.01 E0.00428
G1 X3.18 Y6.20 E0.00438
G1 X3.12 Y6.30 E0.00444
G1 X3.02 Y6.46 E0.00453
G1 X2.95 Y6.55 E0.00458
G1 X2.68 Y6.90 E0.00478
G1 X2.63 Y6.95 E0.00482
G1 X2.61 Y6.97 E0.00483
G1 X2.11 Y7.40 E0.00514
G1 X1.42 Y7.78 E0.00551
G1 X1.00 Y7.93 E0.00573
G1 X0.56 Y8.02 E0.00594
G1 X0.33 Y8.05 E0.00604
G1 X0.06 Y8.06 E0.00617
G1 X-0.17 Y8.06 E0.00628
G1 X-0.54 Y8.03 E0.00645
G1 X-0.85 Y7.97 E0.00660
G1 X-1.25 Y7.84 E0.00680
G1 X-1.53 Y7.73 E0.00694
G1 X-1.87 Y7.55 E0.00712
G1 X-2.06 Y7.42 E0.00723
G1 X-2.41 Y7.16 E0.00744
G1 X-2.78 Y6.76 E0.00769
G1 X-2.80 Y6.72 E0.00771
G1 X-2.92 Y6.59 E0.00780
G1 X-3.17 Y6.22 E0.00801
G1 X-3.46 Y5.62 E0.00832
G1 X-3.57 Y5.30 E0.00848
G1 X-3.68 Y4.80 E0.00872
G1 X-3.71 Y4.64 E0.00879
G1 X-3.73 Y4.47 E0.00888
G1 X-3.74 Y4.36 E0.00893
G1 X-3.76 Y4.23 E0.00899
G1 X-3.77 Y3.97 E0.00911
G1 X-3.77 Y3.83 E0.00918
G1 X-3.77 Y3.65 E0.00926
G1 X-3.77 Y3.44 E0.00936
G1 X-3.76 Y3.30 E0.00943
G1 X-3.68 Y2.55 E0.00978
G1 X-3.64 Y2.36 E0.00987
G1 X-3.55 Y1.96 E0.01007
G1 X-3.51 Y1.83 E0.01013
G1 X-3.43 Y1.59 E0.01025
G1 X-3.41 Y1.53 E0.01028
G1 X-3.34 Y1.36 E0.01036
G1 X-3.28 Y1.22 E0.01044
G1 X-3.20 Y1.05 E0.01052
G1 X-3.15 Y0.97 E0.01057
G1 X-3.07 Y0.83 E0.01064
G1 X-3.01 Y0.73 E0.01070
G1 X-2.88 Y0.55 E0.01080
G1 X-2.76 Y0.40 E0.01089
G1 X-2.60 Y0.21 E0.01101
G1 X-2.45 Y0.07 E0.01111
G1 X-2.28 Y-0.08 E0.01121
G1 X-2.15 Y-0.18 E0.01129
G1 X-1.79 Y-0.43 E0.01150
G1 X-1.35 Y-0.64 E0.01173
G1 X-0.78 Y-0.80 E0.01200
G1 X-0.45 Y-0.86 E0.01216
G1 X-0.09 Y-0.88 E0.01233
G1 X-0.05 Y-0.88 E0.01235
G0 X-0.03 Y-0.98
G1 X-0.02 Y-0.98 E0.01236
G1 X0.07 Y-0.98 E0.01240
G1 X0.10 Y-0.98 E0.01241
G1 X0.17 Y-0.97 E0.01244
G1 X0.34 Y-0.96 E0.01253
G1 X0.42 Y-0.95 E0.01256
G1 X0.56 Y-0.94 E0.01263
G1 X0.67 Y-0.92 E0.01268
G1 X0.84 Y-0.89 E0.01276
G1 X0.99 Y-0.85 E0.01284
G1 X1.17 Y-0.80 E0.01292
G1 X1.28 Y-0.76 E0.01298
G1 X1.42 Y-0.70 E0.01305
G1 X1.52 Y-0.66 E0.01310
G1 X1.71 Y-0.57 E0.01320
G1 X1.92 Y-0.46 E0.01331
G1 X2.20 Y-0.27 E0.01347
G1 X2.43 Y-0.08 E0.01361
G1 X2.70 Y0.18 E0.01378
G1 X2.91 Y0.43 E0.01394
G1 X3.23 Y0.91 E0.01421
G1 X3.40 Y1.23 E0.01438
G1 X3.49 Y1.49 E0.01451
G1 X3.51 Y1.52 E0.01453
G1 X3.55 Y1.64 E0.01458
G1 X3.56 Y1.68 E0.01460
G1 X3.60 Y1.80 E0.01466
G1 X3.61 Y1.83 E0.01468
G1 X3.66 Y2.01 E0.01477
G1 X3.70 Y2.15 E0.01484
G1 X3.72 Y2.28 E0.01490
G1 X3.74 Y2.35 E0.01493
G1 X3.76 Y2.45 E0.01498
G1 X3.79 Y2.62 E0.01506
G1 X3.79 Y2.66 E0.01508
G1 X3.82 Y2.82 E0.01516
G1 X3.82 Y2.88 E0.01519
G1 X3.85 Y3.19 E0.01533
G1 X3.86 Y3.31 E0.01539
G1 X3.87 Y3.69 E0.01557
G1 X3.87 Y3.76 E0.01560
G1 X3.87 Y3.77 E0.01561
G1 X3.87 Y4.04 E0.01573
G1 X3.82 Y4.59 E0.01599
G1 X3.79 Y4.77 E0.01608
G1 X3.73 Y5.03 E0.01620
G1 X3.73 Y5.04 E0.01620
G1 X3.70 Y5.18 E0.01628
G1 X3.65 Y5.35 E0.01636
G1 X3.61 Y5.49 E0.01642
G1 X3.59 Y5.53 E0.01645
G1 X3.54 Y5.67 E0.01651
G1 X3.51 Y5.74 E0.01655
G1 X3.44 Y5.92 E0.01664
G1 X3.37 Y6.06 E0.01672
G1 X3.27 Y6.25 E0.01682
G1 X3.20 Y6.36 E0.01688
G1 X3.10 Y6.51 E0.01697
G1 X3.03 Y6.61 E0.01702
G1 X2.76 Y6.97 E0.01723
G1 X2.70 Y7.01 E0.01727
G1 X2.68 Y7.04 E0.01728
G1 X2.17 Y7.49 E0.01760
G1 X1.46 Y7.87 E0.01798
G1 X1.02 Y8.03 E0.01820
G1 X0.57 Y8.12 E0.01842
G1 X0.34 Y8.15 E0.01852
G1 X0.06 Y8.16 E0.01866
G1 X-0.17 Y8.16 E0.01877
G1 X-0.56 Y8.13 E0.01895
G1 X-0.87 Y8.06 E0.01910
G1 X-1.28 Y7.94 E0.01930
G1 X-1.57 Y7.82 E0.01945
G1 X-1.91 Y7.63 E0.01963
G1 X-2.11 Y7.51 E0.01974
G1 X-2.48 Y7.23 E0.01996
G1 X-2.86 Y6.82 E0.02022
G1 X-2.89 Y6.78 E0.02024
G1 X-3.01 Y6.65 E0.02033
G1 X-3.26 Y6.27 E0.02054
G1 X-3.55 Y5.66 E0.02086
G1 X-3.66 Y5.33 E0.02102
G1 X-3.78 Y4.82 E0.02127
G1 X-3.81 Y4.66 E0.02135
G1 X-3.82 Y4.54 E0.02140
G1 X-3.84 Y4.37 E0.02148
G1 X-3.86 Y4.24 E0.02154
G1 X-3.87 Y3.97 E0.02167
G1 X-3.87 Y3.83 E0.02174
G1 X-3.87 Y3.65 E0.02182
G1 X-3.87 Y3.43 E0.02192
G1 X-3.86 Y3.29 E0.02199
G1 X-3.78 Y2.54 E0.02235
G1 X-3.74 Y2.34 E0.02244
G1 X-3.64 Y1.93 E0.02264
G1 X-3.60 Y1.80 E0.02270
G1 X-3.52 Y1.55 E0.02283
G1 X-3.50 Y1.50 E0.02285
G1 X-3.43 Y1.32 E0.02294
G1 X-3.37 Y1.18 E0.02302
G1 X-3.29 Y1.01 E0.02311
G1 X-3.24 Y0.92 E0.02315
G1 X-3.16 Y0.78 E0.02323
G1 X-3.09 Y0.67 E0.02329
G1 X-2.97 Y0.49 E0.02339
G1 X-2.84 Y0.33 E0.02349
G1 X-2.67 Y0.14 E0.02361
G1 X-2.52 Y-0.00 E0.02371
G1 X-2.34 Y-0.16 E0.02382
G1 X-2.21 Y-0.26 E0.02389
G1 X-1.84 Y-0.51 E0.02411
G1 X-1.38 Y-0.73 E0.02435
G1 X-0.81 Y-0.89 E0.02463
G1 X-0.46 Y-0.95 E0.02479
G1 X-0.10 Y-0.98 E0.02496
G1 X-0.03 Y-0.98 E0.02499
G0 X-0.10 Y-1.08
G1 X0.07 Y-1.08 E0.02507
G1 X0.10 Y-1.08 E0.02509
G1 X0.17 Y-1.07 E0.02512
G1 X0.35 Y-1.06 E0.02521
G1 X0.43 Y-1.05 E0.02524
G1 X0.57 Y-1.04 E0.02531
G1 X0.69 Y-1.02 E0.02537
G1 X0.86 Y-0.98 E0.02545
G1 X1.02 Y-0.95 E0.02553
G1 X1.20 Y-0.89 E0.02561
G1 X1.31 Y-0.85 E0.02567
G1 X1.46 Y-0.80 E0.02574
G1 X1.56 Y-0.76 E0.02579
G1 X1.75 Y-0.66 E0.02590
G1 X1.97 Y-0.54 E0.02601
G1 X2.26 Y-0.35 E0.02617
G1 X2.50 Y-0.16 E0.02632
G1 X2.77 Y0.11 E0.02650
G1 X2.99 Y0.37 E0.02666
G1 X3.32 Y0.86 E0.02694
G1 X3.49 Y1.19 E0.02711
G1 X3.59 Y1.45 E0.02724
G1 X3.60 Y1.49 E0.02726
G1 X3.64 Y1.61 E0.02732
G1 X3.66 Y1.65 E0.02734
G1 X3.70 Y1.77 E0.02740
G1 X3.71 Y1.81 E0.02742
G1 X3.76 Y1.98 E0.02751
G1 X3.80 Y2.13 E0.02758
G1 X3.82 Y2.26 E0.02764
G1 X3.84 Y2.33 E0.02767
G1 X3.86 Y2.43 E0.02772
G1 X3.89 Y2.61 E0.02781
G1 X3.89 Y2.65 E0.02783
G1 X3.91 Y2.81 E0.02790
G1 X3.92 Y2.87 E0.02793
G1 X3.95 Y3.19 E0.02808
G1 X3.96 Y3.31 E0.02814
G1 X3.97 Y3.69 E0.02832
G1 X3.97 Y3.74 E0.02834
G1 X3.97 Y3.77 E0.02836
G1 X3.97 Y4.05 E0.02849
G1 X3.91 Y4.61 E0.02875
G1 X3.89 Y4.79 E0.02884
G1 X3.83 Y5.06 E0.02896
G1 X3.83 Y5.06 E0.02897
G1 X3.80 Y5.21 E0.02904
G1 X3.75 Y5.38 E0.02912
G1 X3.69 Y5.57 E0.02922
G1 X3.64 Y5.71 E0.02928
G1 X3.61 Y5.78 E0.02932
G1 X3.53 Y5.96 E0.02941
G1 X3.46 Y6.11 E0.02949
G1 X3.35 Y6.30 E0.02959
G1 X3.29 Y6.41 E0.02965
G1 X3.18 Y6.57 E0.02975
G1 X3.11 Y6.67 E0.02980
G1 X2.83 Y7.04 E0.03002
G1 X2.78 Y7.08 E0.03005
G1 X2.76 Y7.11 E0.03007
G1 X2.22 Y7.57 E0.03040
G1 X1.50 Y7.96 E0.03079
G1 X1.05 Y8.12 E0.03101
G1 X0.59 Y8.22 E0.03123
G1 X0.35 Y8.25 E0.03134
G1 X0.06 Y8.27 E0.03148
G1 X-0.18 Y8.26 E0.03159
G1 X-0.57 Y8.22 E0.03178
G1 X-0.90 Y8.16 E0.03194
G1 X-1.32 Y8.03 E0.03214
G1 X-1.62 Y7.91 E0.03229
G1 X-1.97 Y7.72 E0.03248
G1 X-2.17 Y7.59 E0.03260
G1 X-2.55 Y7.31 E0.03282
G1 X-2.94 Y6.88 E0.03309
G1 X-2.96 Y6.85 E0.03311
G1 X-3.08 Y6.71 E0.03319
G1 X-3.35 Y6.32 E0.03342
G1 X-3.64 Y5.70 E0.03374
G1 X-3.76 Y5.36 E0.03391
G1 X-3.88 Y4.84 E0.03416
G1 X-3.90 Y4.67 E0.03424
G1 X-3.92 Y4.55 E0.03429
G1 X-3.94 Y4.39 E0.03437
G1 X-3.96 Y4.25 E0.03444
G1 X-3.97 Y3.98 E0.03457
G1 X-3.97 Y3.89 E0.03461
G1 X-3.97 Y3.83 E0.03464
G1 X-3.97 Y3.71 E0.03469
G1 X-3.97 Y3.70 E0.03470
G1 X-3.97 Y3.64 E0.03472
G1 X-3.97 Y3.43 E0.03483
G1 X-3.96 Y3.28 E0.03490
G1 X-3.87 Y2.52 E0.03525
G1 X-3.84 Y2.32 E0.03535
G1 X-3.74 Y1.91 E0.03555
G1 X-3.70 Y1.77 E0.03562
G1 X-3.62 Y1.52 E0.03574
G1 X-3.60 Y1.46 E0.03577
G1 X-3.53 Y1.28 E0.03586
G1 X-3.46 Y1.13 E0.03594
G1 X-3.38 Y0.96 E0.03603
G1 X-3.33 Y0.88 E0.03607
G1 X-3.24 Y0.73 E0.03615
G1 X-3.17 Y0.62 E0.03622
G1 X-3.05 Y0.43 E0.03632
G1 X-2.92 Y0.27 E0.03642
G1 X-2.74 Y0.07 E0.03654
G1 X-2.59 Y-0.08 E0.03664
G1 X-2.41 Y-0.23 E0.03676
G1 X-2.27 Y-0.34 E0.03684
G1 X-1.89 Y-0.60 E0.03705
G1 X-1.41 Y-0.82 E0.03730
G1 X-0.83 Y-0.99 E0.03759
G1 X-0.47 Y-1.05 E0.03776
G1 X-0.10 Y-1.08 E0.03793
G0 X-0.10 Y-1.17
G1 X-0.03 Y-1.17 E0.03797
G1 X-0.02 Y-1.18 E0.03797
G1 X0.08 Y-1.18 E0.03802
G1 X0.10 Y-1.17 E0.03803
G1 X0.18 Y-1.17 E0.03807
G1 X0.36 Y-1.16 E0.03815
G1 X0.45 Y-1.15 E0.03819
G1 X0.59 Y-1.13 E0.03826
G1 X0.71 Y-1.12 E0.03832
G1 X0.89 Y-1.08 E0.03840
G1 X1.05 Y-1.04 E0.03848
G1 X1.23 Y-0.99 E0.03857
G1 X1.35 Y-0.95 E0.03863
G1 X1.50 Y-0.89 E0.03870
G1 X1.60 Y-0.85 E0.03875
G1 X1.80 Y-0.75 E0.03886
G1 X2.02 Y-0.63 E0.03898
G1 X2.32 Y-0.44 E0.03915
G1 X2.57 Y-0.23 E0.03930
G1 X2.85 Y0.04 E0.03948
G1 X3.07 Y0.31 E0.03964
G1 X3.40 Y0.81 E0.03993
G1 X3.58 Y1.15 E0.04011
G1 X3.68 Y1.41 E0.04024
G1 X3.70 Y1.46 E0.04026
G1 X3.74 Y1.57 E0.04032
G1 X3.75 Y1.62 E0.04034
G1 X3.79 Y1.74 E0.04040
G1 X3.80 Y1.78 E0.04042
G1 X3.86 Y1.96 E0.04051
G1 X3.89 Y2.11 E0.04058
G1 X3.91 Y2.22 E0.04064
G1 X3.93 Y2.31 E0.04068
G1 X3.95 Y2.41 E0.04073
G1 X3.98 Y2.59 E0.04081
G1 X3.99 Y2.63 E0.04083
G1 X4.01 Y2.80 E0.04091
G1 X4.02 Y2.86 E0.04094
G1 X4.05 Y3.18 E0.04109
G1 X4.06 Y3.30 E0.04115
G1 X4.07 Y3.69 E0.04133
G1 X4.07 Y3.74 E0.04136
G1 X4.07 Y3.77 E0.04137
G1 X4.07 Y4.05 E0.04150
G1 X4.01 Y4.62 E0.04177
G1 X3.98 Y4.81 E0.04186
G1 X3.93 Y5.08 E0.04199
G1 X3.93 Y5.08 E0.04199
G1 X3.89 Y5.23 E0.04206
G1 X3.85 Y5.41 E0.04215
G1 X3.80 Y5.55 E0.04222
G1 X3.78 Y5.60 E0.04225
G1 X3.73 Y5.74 E0.04232
G1 X3.70 Y5.82 E0.04235
G1 X3.62 Y6.00 E0.04245
G1 X3.55 Y6.15 E0.04253
G1 X3.44 Y6.35 E0.04263
G1 X3.37 Y6.46 E0.04270
G1 X3.26 Y6.63 E0.04279
G1 X3.19 Y6.73 E0.04285
G1 X2.90 Y7.11 E0.04307
G1 X2.85 Y7.15 E0.04310
G1 X2.83 Y7.18 E0.04312
G1 X2.28 Y7.65 E0.04346
G1 X1.54 Y8.05 E0.04386
G1 X1.08 Y8.22 E0.04409
G1 X0.61 Y8.32 E0.04431
G1 X0.36 Y8.35 E0.04443
G1 X0.06 Y8.36 E0.04457
G1 X-0.18 Y8.36 E0.04469
G1 X-0.58 Y8.32 E0.04488
G1 X-0.92 Y8.26 E0.04504
G1 X-1.35 Y8.13 E0.04525
G1 X-1.66 Y8.00 E0.04541
G1 X-2.02 Y7.80 E0.04560
G1 X-2.23 Y7.67 E0.04571
G1 X-2.61 Y7.38 E0.04594
G1 X-3.02 Y6.94 E0.04622
G1 X-3.05 Y6.90 E0.04624
G1 X-3.16 Y6.77 E0.04633
G1 X-3.43 Y6.37 E0.04656
G1 X-3.73 Y5.74 E0.04688
G1 X-3.86 Y5.39 E0.04706
G1 X-3.97 Y4.85 E0.04732
G1 X-4.00 Y4.69 E0.04740
G1 X-4.03 Y4.51 E0.04748
G1 X-4.04 Y4.40 E0.04753
G1 X-4.06 Y4.26 E0.04760
G1 X-4.07 Y3.98 E0.04773
G1 X-4.07 Y3.88 E0.04778
G1 X-4.07 Y3.84 E0.04780
G1 X-4.07 Y3.71 E0.04786
G1 X-4.07 Y3.70 E0.04786
G1 X-4.07 Y3.64 E0.04789
G1 X-4.07 Y3.42 E0.04799
G1 X-4.06 Y3.27 E0.04806
G1 X-3.97 Y2.51 E0.04842
G1 X-3.94 Y2.30 E0.04852
G1 X-3.84 Y1.88 E0.04873
G1 X-3.80 Y1.74 E0.04879
G1 X-3.71 Y1.49 E0.04892
G1 X-3.69 Y1.43 E0.04895
G1 X-3.62 Y1.25 E0.04904
G1 X-3.55 Y1.09 E0.04912
G1 X-3.46 Y0.92 E0.04921
G1 X-3.42 Y0.83 E0.04926
G1 X-3.33 Y0.67 E0.04934
G1 X-3.26 Y0.56 E0.04941
G1 X-3.13 Y0.37 E0.04952
G1 X-2.99 Y0.20 E0.04962
G1 X-2.82 Y0.00 E0.04974
G1 X-2.66 Y-0.15 E0.04985
G1 X-2.47 Y-0.31 E0.04996
G1 X-2.33 Y-0.42 E0.05004
G1 X-1.94 Y-0.69 E0.05027
G1 X-1.45 Y-0.92 E0.05052
G1 X-0.85 Y-1.09 E0.05082
G1 X-0.48 Y-1.15 E0.05099
G1 X-0.10 Y-1.17 E0.05117
G0 X-0.11 Y-1.27
G1 X-0.04 Y-1.27 E0.05120
G1 X-0.02 Y-1.28 E0.05121
G1 X0.08 Y-1.28 E0.05126
G1 X0.11 Y-1.27 E0.05127
G1 X0.18 Y-1.27 E0.05131
G1 X0.37 Y-1.26 E0.05139
G1 X0.46 Y-1.25 E0.05144
G1 X0.60 Y-1.24 E0.05150
G1 X0.72 Y-1.22 E0.05156
G1 X0.91 Y-1.18 E0.05165
G1 X1.07 Y-1.14 E0.05173
G1 X1.26 Y-1.08 E0.05182
G1 X1.38 Y-1.04 E0.05188
G1 X1.53 Y-0.98 E0.05196
G1 X1.64 Y-0.94 E0.05201
G1 X1.85 Y-0.84 E0.05212
G1 X2.07 Y-0.71 E0.05224
G1 X2.38 Y-0.51 E0.05241
G1 X2.63 Y-0.31 E0.05257
G1 X2.92 Y-0.03 E0.05276
G1 X3.15 Y0.25 E0.05293
G1 X3.49 Y0.76 E0.05321
G1 X3.67 Y1.11 E0.05340
G1 X3.78 Y1.38 E0.05354
G1 X3.79 Y1.42 E0.05356
G1 X3.83 Y1.54 E0.05362
G1 X3.85 Y1.59 E0.05364
G1 X3.89 Y1.71 E0.05370
G1 X3.90 Y1.75 E0.05372
G1 X3.95 Y1.93 E0.05381
G1 X3.99 Y2.09 E0.05389
G1 X4.01 Y2.20 E0.05394
G1 X4.03 Y2.28 E0.05398
G1 X4.05 Y2.39 E0.05403
G1 X4.08 Y2.58 E0.05412
G1 X4.09 Y2.62 E0.05414
G1 X4.11 Y2.78 E0.05422
G1 X4.12 Y2.85 E0.05425
G1 X4.15 Y3.17 E0.05440
G1 X4.16 Y3.30 E0.05446
G1 X4.17 Y3.69 E0.05464
G1 X4.17 Y3.74 E0.05467
G1 X4.17 Y3.77 E0.05468
G1 X4.17 Y4.06 E0.05482
G1 X4.11 Y4.63 E0.05509
G1 X4.08 Y4.82 E0.05518
G1 X4.03 Y5.10 E0.05531
G1 X4.03 Y5.10 E0.05531
G1 X3.99 Y5.26 E0.05539
G1 X3.94 Y5.44 E0.05548
G1 X3.89 Y5.59 E0.05555
G1 X3.88 Y5.64 E0.05557
G1 X3.82 Y5.78 E0.05565
G1 X3.79 Y5.86 E0.05568
G1 X3.71 Y6.05 E0.05578
G1 X3.64 Y6.20 E0.05586
G1 X3.53 Y6.40 E0.05597
G1 X3.46 Y6.51 E0.05603
G1 X3.35 Y6.68 E0.05613
G1 X3.27 Y6.79 E0.05619
G1 X2.98 Y7.18 E0.05642
G1 X2.92 Y7.22 E0.05645
G1 X2.90 Y7.25 E0.05647
G1 X2.34 Y7.73 E0.05682
G1 X1.58 Y8.14 E0.05722
G1 X1.10 Y8.32 E0.05746
G1 X0.62 Y8.42 E0.05769
G1 X0.37 Y8.45 E0.05781
G1 X0.06 Y8.47 E0.05796
G1 X-0.19 Y8.46 E0.05807
G1 X-0.60 Y8.42 E0.05827
G1 X-0.94 Y8.35 E0.05843
G1 X-1.39 Y8.22 E0.05865
G1 X-1.70 Y8.09 E0.05881
G1 X-2.07 Y7.89 E0.05901
G1 X-2.28 Y7.75 E0.05913
G1 X-2.68 Y7.45 E0.05936
G1 X-3.10 Y7.00 E0.05965
G1 X-3.12 Y6.97 E0.05967
G1 X-3.24 Y6.84 E0.05975
G1 X-3.52 Y6.42 E0.05999
G1 X-3.83 Y5.78 E0.06033
G1 X-3.95 Y5.41 E0.06051
G1 X-4.07 Y4.87 E0.06077
G1 X-4.10 Y4.70 E0.06085
G1 X-4.12 Y4.58 E0.06091
G1 X-4.14 Y4.41 E0.06099
G1 X-4.16 Y4.26 E0.06106
G1 X-4.17 Y3.98 E0.06119
G1 X-4.17 Y3.88 E0.06124
G1 X-4.17 Y3.84 E0.06126
G1 X-4.17 Y3.71 E0.06132
G1 X-4.17 Y3.70 E0.06132
G1 X-4.17 Y3.64 E0.06135
G1 X-4.17 Y3.42 E0.06145
G1 X-4.16 Y3.26 E0.06153
G1 X-4.07 Y2.49 E0.06189
G1 X-4.03 Y2.28 E0.06199
G1 X-3.93 Y1.86 E0.06220
G1 X-3.89 Y1.71 E0.06227
G1 X-3.81 Y1.46 E0.06239
G1 X-3.78 Y1.39 E0.06243
G1 X-3.71 Y1.21 E0.06252
G1 X-3.64 Y1.05 E0.06260
G1 X-3.55 Y0.87 E0.06270
G1 X-3.50 Y0.78 E0.06274
G1 X-3.41 Y0.62 E0.06283
G1 X-3.34 Y0.51 E0.06289
G1 X-3.21 Y0.31 E0.06300
G1 X-3.07 Y0.14 E0.06311
G1 X-2.89 Y-0.06 E0.06324
G1 X-2.72 Y-0.22 E0.06334
G1 X-2.53 Y-0.39 E0.06346
G1 X-2.39 Y-0.50 E0.06355
G1 X-1.99 Y-0.77 E0.06378
G1 X-1.49 Y-1.01 E0.06404
G1 X-0.87 Y-1.19 E0.06434
G1 X-0.50 Y-1.25 E0.06452
G1 X-0.11 Y-1.27 E0.06470
G0 X-0.11 Y-1.38
G1 X-0.06 Y-1.38 E0.06472
G1 X-0.02 Y-1.38 E0.06474
G1 X0.06 Y-1.38 E0.06478
G1 X0.08 Y-1.38 E0.06479
G1 X0.10 Y-1.38 E0.06480
G1 X0.19 Y-1.37 E0.06484
G1 X0.38 Y-1.36 E0.06493
G1 X0.47 Y-1.35 E0.06497
G1 X0.62 Y-1.33 E0.06504
G1 X0.74 Y-1.31 E0.06510
G1 X0.93 Y-1.28 E0.06519
G1 X1.10 Y-1.24 E0.06528
G1 X1.29 Y-1.18 E0.06537
G1 X1.41 Y-1.13 E0.06543
G1 X1.57 Y-1.08 E0.06551
G1 X1.68 Y-1.03 E0.06556
G1 X1.89 Y-0.93 E0.06567
G1 X2.13 Y-0.80 E0.06580
G1 X2.44 Y-0.60 E0.06598
G1 X2.70 Y-0.38 E0.06613
G1 X3.00 Y-0.09 E0.06633
G1 X3.23 Y0.19 E0.06650
G1 X3.58 Y0.71 E0.06680
G1 X3.76 Y1.07 E0.06699
G1 X3.87 Y1.35 E0.06713
G1 X3.88 Y1.39 E0.06715
G1 X3.93 Y1.51 E0.06721
G1 X3.94 Y1.55 E0.06723
G1 X3.98 Y1.68 E0.06729
G1 X3.99 Y1.72 E0.06731
G1 X4.05 Y1.90 E0.06740
G1 X4.09 Y2.07 E0.06748
G1 X4.11 Y2.16 E0.06753
G1 X4.13 Y2.26 E0.06758
G1 X4.15 Y2.38 E0.06763
G1 X4.18 Y2.56 E0.06772
G1 X4.19 Y2.61 E0.06774
G1 X4.21 Y2.77 E0.06782
G1 X4.22 Y2.84 E0.06785
G1 X4.25 Y3.16 E0.06800
G1 X4.26 Y3.29 E0.06806
G1 X4.27 Y3.69 E0.06825
G1 X4.27 Y3.73 E0.06827
G1 X4.27 Y3.76 E0.06828
G1 X4.27 Y4.07 E0.06843
G1 X4.21 Y4.64 E0.06870
G1 X4.18 Y4.84 E0.06879
G1 X4.12 Y5.12 E0.06893
G1 X4.12 Y5.12 E0.06893
G1 X4.09 Y5.28 E0.06901
G1 X4.04 Y5.47 E0.06910
G1 X3.99 Y5.62 E0.06917
G1 X3.97 Y5.67 E0.06920
