;Generated with Cura_SteamEngine 13.11.2


;Layer count: 560
;LAYER:0
M107
G0 F6000 X0.01 Y0.90 Z0.06
;TYPE:SKIRT
G1 F6000 E0.00000
G1 X0.16 Y0.91 E0.00014
G1 X0.28 Y0.92 E0.00026
G1 X0.82 Y0.97 E0.00076
G1 X1.11 Y1.02 E0.00105
G1 X1.44 Y1.12 E0.00137
G1 X1.66 Y1.19 E0.00158
G1 X2.04 Y1.35 E0.00197
G1 X2.26 Y1.47 E0.00221
G1 X2.59 Y1.67 E0.00257
G1 X2.86 Y1.87 E0.00288
G1 X3.21 Y2.20 E0.00334
G1 X3.38 Y2.38 E0.00357
G1 X3.66 Y2.73 E0.00399
G1 X3.83 Y2.96 E0.00426
G1 X4.09 Y3.43 E0.00477
G1 X4.19 Y3.64 E0.00499
G1 X4.30 Y3.92 E0.00527
G1 X4.32 Y3.97 E0.00532
G1 X4.40 Y4.19 E0.00554
G1 X4.43 Y4.27 E0.00562
G1 X4.49 Y4.48 E0.00583
G1 X4.50 Y4.51 E0.00586
G1 X4.57 Y4.74 E0.00608
G1 X4.59 Y4.83 E0.00616
G1 X4.65 Y5.09 E0.00641
G1 X4.66 Y5.15 E0.00648
G1 X4.71 Y5.40 E0.00672
G1 X4.72 Y5.45 E0.00676
G1 X4.76 Y5.70 E0.00700
G1 X4.77 Y5.75 E0.00705
G1 X4.80 Y6.02 E0.00730
G1 X4.81 Y6.07 E0.00735
G1 X4.84 Y6.33 E0.00760
G1 X4.84 Y6.37 E0.00763
G1 X4.86 Y6.59 E0.00785
G1 X4.87 Y6.67 E0.00792
G1 X4.90 Y7.50 E0.00870
G1 X4.89 Y7.66 E0.00885
G1 X4.85 Y8.49 E0.00963
G1 X4.83 Y8.65 E0.00978
G1 X4.78 Y8.97 E0.01008
G1 X4.77 Y9.06 E0.01018
G1 X4.67 Y9.52 E0.01062
G1 X4.64 Y9.63 E0.01073
G1 X4.56 Y9.92 E0.01101
G1 X4.52 Y10.05 E0.01113
G1 X4.42 Y10.32 E0.01141
G1 X4.37 Y10.44 E0.01153
G1 X4.26 Y10.70 E0.01180
G1 X4.19 Y10.83 E0.01193
G1 X4.06 Y11.07 E0.01219
G1 X3.99 Y11.18 E0.01231
G1 X3.85 Y11.41 E0.01256
G1 X3.77 Y11.52 E0.01269
G1 X3.62 Y11.71 E0.01292
G1 X3.57 Y11.78 E0.01300
G1 X3.34 Y12.05 E0.01333
G1 X3.07 Y12.30 E0.01367
G1 X2.53 Y12.71 E0.01432
G1 X2.20 Y12.91 E0.01468
G1 X1.66 Y13.16 E0.01524
G1 X1.31 Y13.28 E0.01559
G1 X0.72 Y13.41 E0.01616
G1 X0.42 Y13.45 E0.01644
G1 X-0.00 Y13.47 E0.01684
G1 X-0.33 Y13.46 E0.01715
G1 X-0.99 Y13.36 E0.01778
G1 X-1.32 Y13.28 E0.01810
G1 X-1.73 Y13.13 E0.01851
G1 X-2.00 Y13.01 E0.01879
G1 X-2.51 Y12.72 E0.01933
G1 X-2.76 Y12.55 E0.01962
G1 X-3.18 Y12.20 E0.02014
G1 X-3.45 Y11.92 E0.02050
G1 X-3.93 Y11.28 E0.02125
G1 X-4.13 Y10.95 E0.02161
G1 X-4.45 Y10.23 E0.02235
G1 X-4.54 Y9.98 E0.02260
G1 X-4.63 Y9.66 E0.02292
G1 X-4.65 Y9.60 E0.02297
G1 X-4.71 Y9.36 E0.02321
G1 X-4.73 Y9.26 E0.02331
G1 X-4.78 Y9.00 E0.02355
G1 X-4.78 Y8.96 E0.02360
G1 X-4.82 Y8.69 E0.02385
G1 X-4.84 Y8.59 E0.02394
G1 X-4.86 Y8.31 E0.02421
G1 X-4.87 Y8.24 E0.02427
G1 X-4.89 Y7.90 E0.02460
G1 X-4.89 Y7.77 E0.02472
G1 X-4.89 Y7.58 E0.02489
G1 X-4.89 Y7.50 E0.02497
G1 X-4.89 Y7.33 E0.02513
G1 X-4.89 Y7.27 E0.02519
G1 X-4.89 Y7.00 E0.02544
G1 X-4.88 Y6.97 E0.02547
G1 X-4.87 Y6.71 E0.02572
G1 X-4.86 Y6.55 E0.02587
G1 X-4.65 Y5.09 E0.02725
G1 X-4.61 Y4.88 E0.02745
G1 X-4.51 Y4.53 E0.02780
G1 X-4.48 Y4.43 E0.02790
G1 X-4.35 Y4.03 E0.02829
G1 X-4.32 Y3.95 E0.02837
G1 X-4.22 Y3.69 E0.02863
G1 X-4.15 Y3.54 E0.02879
G1 X-4.03 Y3.30 E0.02904
G1 X-3.97 Y3.21 E0.02914
G1 X-3.85 Y3.00 E0.02937
G1 X-3.76 Y2.87 E0.02952
G1 X-3.60 Y2.65 E0.02978
G1 X-3.50 Y2.51 E0.02994
G1 X-3.32 Y2.31 E0.03019
G1 X-3.21 Y2.20 E0.03034
G1 X-3.06 Y2.06 E0.03053
G1 X-3.01 Y2.01 E0.03059
G1 X-2.78 Y1.81 E0.03089
G1 X-2.47 Y1.59 E0.03124
G1 X-2.01 Y1.34 E0.03173
G1 X-1.71 Y1.21 E0.03204
G1 X-1.26 Y1.06 E0.03249
G1 X-0.97 Y1.00 E0.03276
G1 X-0.52 Y0.93 E0.03319
G1 X-0.34 Y0.91 E0.03336
G1 X-0.10 Y0.90 E0.03358
G1 X0.01 Y0.90 E0.03369
G0 X0.01 Y1.00
G1 X0.15 Y1.01 E0.03383
G1 X0.27 Y1.02 E0.03394
G1 X0.80 Y1.07 E0.03444
G1 X1.09 Y1.12 E0.03471
G1 X1.41 Y1.21 E0.03503
G1 X1.62 Y1.29 E0.03524
G1 X1.99 Y1.45 E0.03562
G1 X2.21 Y1.56 E0.03585
G1 X2.53 Y1.75 E0.03620
G1 X2.79 Y1.95 E0.03651
G1 X3.14 Y2.27 E0.03696
G1 X3.30 Y2.44 E0.03718
G1 X3.58 Y2.79 E0.03759
G1 X3.74 Y3.02 E0.03786
G1 X4.00 Y3.48 E0.03836
G1 X4.10 Y3.68 E0.03857
G1 X4.21 Y3.95 E0.03884
G1 X4.23 Y4.01 E0.03890
G1 X4.31 Y4.22 E0.03911
G1 X4.33 Y4.30 E0.03919
G1 X4.40 Y4.51 E0.03940
G1 X4.41 Y4.54 E0.03943
G1 X4.47 Y4.77 E0.03965
G1 X4.49 Y4.85 E0.03973
G1 X4.55 Y5.11 E0.03998
G1 X4.57 Y5.17 E0.04004
G1 X4.61 Y5.42 E0.04028
G1 X4.62 Y5.47 E0.04032
G1 X4.66 Y5.72 E0.04056
G1 X4.67 Y5.77 E0.04061
G1 X4.71 Y6.03 E0.04086
G1 X4.71 Y6.08 E0.04090
G1 X4.74 Y6.34 E0.04115
G1 X4.74 Y6.38 E0.04118
G1 X4.76 Y6.60 E0.04139
G1 X4.77 Y6.68 E0.04147
G1 X4.80 Y7.50 E0.04224
G1 X4.80 Y7.66 E0.04239
G1 X4.75 Y8.48 E0.04317
G1 X4.73 Y8.63 E0.04331
G1 X4.68 Y8.95 E0.04361
G1 X4.67 Y9.04 E0.04370
G1 X4.57 Y9.50 E0.04414
G1 X4.55 Y9.61 E0.04424
G1 X4.47 Y9.89 E0.04452
G1 X4.43 Y10.02 E0.04465
G1 X4.33 Y10.29 E0.04492
G1 X4.28 Y10.40 E0.04503
G1 X4.17 Y10.66 E0.04530
G1 X4.11 Y10.78 E0.04542
G1 X3.97 Y11.02 E0.04568
G1 X3.91 Y11.13 E0.04580
G1 X3.76 Y11.35 E0.04605
G1 X3.69 Y11.46 E0.04618
G1 X3.54 Y11.65 E0.04640
G1 X3.49 Y11.71 E0.04648
G1 X3.26 Y11.98 E0.04680
G1 X3.01 Y12.22 E0.04713
G1 X2.47 Y12.63 E0.04777
G1 X2.16 Y12.82 E0.04812
G1 X1.62 Y13.07 E0.04868
G1 X1.28 Y13.19 E0.04901
G1 X0.70 Y13.32 E0.04957
G1 X0.41 Y13.35 E0.04984
G1 X-0.00 Y13.37 E0.05023
G1 X-0.32 Y13.36 E0.05054
G1 X-0.97 Y13.26 E0.05115
G1 X-1.29 Y13.18 E0.05147
G1 X-1.69 Y13.04 E0.05186
G1 X-1.96 Y12.92 E0.05214
G1 X-2.45 Y12.64 E0.05268
G1 X-2.70 Y12.47 E0.05296
G1 X-3.11 Y12.12 E0.05346
G1 X-3.37 Y11.85 E0.05382
G1 X-3.85 Y11.23 E0.05455
G1 X-4.04 Y10.90 E0.05491
G1 X-4.36 Y10.20 E0.05563
G1 X-4.45 Y9.95 E0.05588
G1 X-4.54 Y9.64 E0.05619
G1 X-4.55 Y9.58 E0.05624
G1 X-4.61 Y9.33 E0.05648
G1 X-4.63 Y9.24 E0.05657
G1 X-4.68 Y8.98 E0.05682
G1 X-4.68 Y8.94 E0.05686
G1 X-4.72 Y8.68 E0.05711
G1 X-4.74 Y8.58 E0.05720
G1 X-4.76 Y8.30 E0.05747
G1 X-4.77 Y8.24 E0.05752
G1 X-4.79 Y7.89 E0.05785
G1 X-4.79 Y7.79 E0.05795
G1 X-4.80 Y7.59 E0.05814
G1 X-4.79 Y7.50 E0.05822
G1 X-4.80 Y7.33 E0.05837
G1 X-4.79 Y7.27 E0.05843
G1 X-4.78 Y7.00 E0.05869
G1 X-4.78 Y6.98 E0.05871
G1 X-4.77 Y6.72 E0.05896
G1 X-4.76 Y6.56 E0.05910
G1 X-4.55 Y5.11 E0.06048
G1 X-4.51 Y4.91 E0.06068
G1 X-4.41 Y4.55 E0.06102
G1 X-4.39 Y4.46 E0.06111
G1 X-4.25 Y4.07 E0.06150
G1 X-4.22 Y3.99 E0.06158
G1 X-4.12 Y3.73 E0.06184
G1 X-4.06 Y3.58 E0.06200
G1 X-3.94 Y3.35 E0.06224
G1 X-3.89 Y3.26 E0.06234
G1 X-3.76 Y3.05 E0.06257
G1 X-3.68 Y2.92 E0.06271
G1 X-3.53 Y2.71 E0.06296
G1 X-3.42 Y2.58 E0.06312
G1 X-3.25 Y2.38 E0.06337
G1 X-3.14 Y2.27 E0.06351
G1 X-2.99 Y2.13 E0.06370
G1 X-2.95 Y2.09 E0.06376
G1 X-2.71 Y1.88 E0.06405
G1 X-2.42 Y1.67 E0.06439
G1 X-1.97 Y1.43 E0.06487
G1 X-1.68 Y1.30 E0.06517
G1 X-1.23 Y1.16 E0.06561
G1 X-0.95 Y1.09 E0.06588
G1 X-0.51 Y1.03 E0.06630
G1 X-0.33 Y1.01 E0.06647
G1 X-0.10 Y1.00 E0.06668
G1 X0.01 Y1.00 E0.06679
G0 X0.01 Y1.10
G1 X0.15 Y1.11 E0.06692
G1 X0.26 Y1.12 E0.06703
G1 X0.79 Y1.17 E0.06753
G1 X1.07 Y1.22 E0.06779
G1 X1.38 Y1.31 E0.06810
G1 X1.59 Y1.38 E0.06830
G1 X1.95 Y1.53 E0.06868
G1 X2.16 Y1.64 E0.06890
G1 X2.47 Y1.84 E0.06924
G1 X2.73 Y2.03 E0.06954
G1 X3.07 Y2.34 E0.06998
G1 X3.23 Y2.51 E0.07020
G1 X3.50 Y2.85 E0.07060
G1 X3.65 Y3.07 E0.07086
G1 X3.91 Y3.53 E0.07135
G1 X4.01 Y3.72 E0.07156
G1 X4.12 Y3.99 E0.07183
G1 X4.14 Y4.04 E0.07188
G1 X4.21 Y4.25 E0.07209
G1 X4.24 Y4.33 E0.07217
G1 X4.30 Y4.54 E0.07238
G1 X4.31 Y4.57 E0.07241
G1 X4.38 Y4.79 E0.07262
G1 X4.39 Y4.87 E0.07270
G1 X4.45 Y5.13 E0.07295
G1 X4.47 Y5.19 E0.07301
G1 X4.52 Y5.44 E0.07325
G1 X4.52 Y5.48 E0.07329
G1 X4.56 Y5.73 E0.07353
G1 X4.57 Y5.78 E0.07357
G1 X4.61 Y6.04 E0.07382
G1 X4.61 Y6.09 E0.07386
G1 X4.64 Y6.35 E0.07411
G1 X4.64 Y6.38 E0.07414
G1 X4.66 Y6.61 E0.07435
G1 X4.67 Y6.68 E0.07442
G1 X4.70 Y7.50 E0.07520
G1 X4.70 Y7.65 E0.07534
G1 X4.65 Y8.47 E0.07611
G1 X4.63 Y8.62 E0.07625
G1 X4.59 Y8.93 E0.07655
G1 X4.57 Y9.02 E0.07663
G1 X4.47 Y9.48 E0.07707
G1 X4.45 Y9.58 E0.07717
G1 X4.37 Y9.86 E0.07745
G1 X4.33 Y9.98 E0.07757
G1 X4.24 Y10.25 E0.07783
G1 X4.19 Y10.36 E0.07795
G1 X4.08 Y10.62 E0.07821
G1 X4.02 Y10.73 E0.07833
G1 X3.88 Y10.97 E0.07859
G1 X3.82 Y11.07 E0.07870
G1 X3.68 Y11.29 E0.07895
G1 X3.61 Y11.40 E0.07907
G1 X3.46 Y11.59 E0.07929
G1 X3.41 Y11.65 E0.07936
G1 X3.19 Y11.91 E0.07968
G1 X2.94 Y12.14 E0.08000
G1 X2.42 Y12.55 E0.08063
G1 X2.11 Y12.73 E0.08097
G1 X1.58 Y12.98 E0.08151
G1 X1.25 Y13.09 E0.08184
G1 X0.69 Y13.22 E0.08239
G1 X0.40 Y13.26 E0.08266
G1 X-0.00 Y13.27 E0.08304
G1 X-0.31 Y13.26 E0.08333
G1 X-0.95 Y13.16 E0.08394
G1 X-1.27 Y13.09 E0.08424
G1 X-1.66 Y12.95 E0.08463
G1 X-1.91 Y12.83 E0.08490
G1 X-2.40 Y12.55 E0.08543
G1 X-2.64 Y12.39 E0.08570
G1 X-3.04 Y12.05 E0.08619
G1 X-3.30 Y11.79 E0.08654
G1 X-3.76 Y11.17 E0.08726
G1 X-3.95 Y10.86 E0.08761
G1 X-4.27 Y10.16 E0.08833
G1 X-4.35 Y9.92 E0.08856
G1 X-4.44 Y9.61 E0.08887
G1 X-4.45 Y9.56 E0.08892
G1 X-4.51 Y9.31 E0.08916
G1 X-4.53 Y9.22 E0.08925
G1 X-4.58 Y8.97 E0.08949
G1 X-4.59 Y8.93 E0.08953
G1 X-4.63 Y8.66 E0.08978
G1 X-4.64 Y8.57 E0.08986
G1 X-4.66 Y8.29 E0.09013
G1 X-4.67 Y8.23 E0.09019
G1 X-4.69 Y7.89 E0.09051
G1 X-4.69 Y7.81 E0.09058
G1 X-4.70 Y7.58 E0.09080
G1 X-4.69 Y7.54 E0.09083
G1 X-4.70 Y7.33 E0.09103
G1 X-4.69 Y7.28 E0.09108
G1 X-4.68 Y7.01 E0.09134
G1 X-4.68 Y6.98 E0.09136
G1 X-4.67 Y6.72 E0.09161
G1 X-4.66 Y6.57 E0.09175
G1 X-4.45 Y5.13 E0.09312
G1 X-4.41 Y4.93 E0.09331
G1 X-4.32 Y4.58 E0.09365
G1 X-4.29 Y4.49 E0.09374
G1 X-4.16 Y4.10 E0.09413
G1 X-4.13 Y4.02 E0.09420
G1 X-4.03 Y3.77 E0.09446
G1 X-3.97 Y3.62 E0.09461
G1 X-3.85 Y3.39 E0.09485
G1 X-3.80 Y3.31 E0.09494
G1 X-3.68 Y3.10 E0.09517
G1 X-3.60 Y2.98 E0.09531
G1 X-3.44 Y2.77 E0.09555
G1 X-3.34 Y2.64 E0.09571
G1 X-3.17 Y2.45 E0.09595
G1 X-3.07 Y2.34 E0.09609
G1 X-2.92 Y2.20 E0.09628
G1 X-2.88 Y2.16 E0.09633
G1 X-2.65 Y1.96 E0.09662
G1 X-2.36 Y1.76 E0.09695
G1 X-1.92 Y1.52 E0.09742
G1 X-1.64 Y1.40 E0.09771
G1 X-1.21 Y1.25 E0.09814
G1 X-0.94 Y1.19 E0.09840
G1 X-0.50 Y1.13 E0.09882
G1 X-0.32 Y1.11 E0.09898
G1 X-0.10 Y1.11 E0.09920
G1 X0.01 Y1.10 E0.09929
G0 X0.00 Y1.20
G1 X0.15 Y1.21 E0.09943
G1 X0.25 Y1.22 E0.09953
G1 X0.78 Y1.27 E0.10002
G1 X1.04 Y1.32 E0.10028
G1 X1.35 Y1.40 E0.10058
G1 X1.55 Y1.47 E0.10077
G1 X1.91 Y1.63 E0.10114
G1 X2.11 Y1.73 E0.10136
G1 X2.42 Y1.92 E0.10170
G1 X2.66 Y2.10 E0.10198
G1 X3.00 Y2.41 E0.10242
G1 X3.15 Y2.58 E0.10262
G1 X3.42 Y2.91 E0.10302
G1 X3.57 Y3.12 E0.10327
G1 X3.83 Y3.57 E0.10376
G1 X3.92 Y3.77 E0.10396
G1 X4.02 Y4.03 E0.10422
G1 X4.04 Y4.08 E0.10428
G1 X4.12 Y4.28 E0.10448
G1 X4.14 Y4.36 E0.10456
G1 X4.21 Y4.57 E0.10476
G1 X4.22 Y4.60 E0.10479
G1 X4.28 Y4.82 E0.10501
G1 X4.30 Y4.90 E0.10508
G1 X4.36 Y5.15 E0.10533
G1 X4.37 Y5.21 E0.10538
G1 X4.42 Y5.46 E0.10562
G1 X4.42 Y5.50 E0.10566
G1 X4.47 Y5.75 E0.10590
G1 X4.47 Y5.79 E0.10594
G1 X4.51 Y6.05 E0.10619
G1 X4.51 Y6.10 E0.10623
G1 X4.54 Y6.36 E0.10648
G1 X4.54 Y6.39 E0.10651
G1 X4.56 Y6.61 E0.10672
G1 X4.57 Y6.69 E0.10679
G1 X4.60 Y7.50 E0.10756
G1 X4.59 Y7.65 E0.10769
G1 X4.55 Y8.46 E0.10846
G1 X4.53 Y8.61 E0.10860
G1 X4.49 Y8.92 E0.10889
G1 X4.47 Y9.01 E0.10897
G1 X4.38 Y9.46 E0.10941
G1 X4.35 Y9.56 E0.10951
G1 X4.28 Y9.84 E0.10978
G1 X4.24 Y9.95 E0.10989
G1 X4.14 Y10.22 E0.11016
G1 X4.10 Y10.32 E0.11027
G1 X3.98 Y10.57 E0.11053
G1 X3.93 Y10.69 E0.11065
G1 X3.80 Y10.92 E0.11090
G1 X3.74 Y11.02 E0.11101
G1 X3.60 Y11.24 E0.11125
G1 X3.53 Y11.34 E0.11137
G1 X3.38 Y11.52 E0.11159
G1 X3.34 Y11.58 E0.11166
G1 X3.12 Y11.84 E0.11197
G1 X2.88 Y12.07 E0.11228
G1 X2.36 Y12.47 E0.11290
G1 X2.06 Y12.65 E0.11323
G1 X1.54 Y12.89 E0.11376
G1 X1.23 Y12.99 E0.11408
G1 X0.67 Y13.12 E0.11462
G1 X0.40 Y13.16 E0.11488
G1 X-0.00 Y13.17 E0.11525
G1 X-0.30 Y13.16 E0.11553
G1 X-0.93 Y13.07 E0.11613
G1 X-1.24 Y12.99 E0.11643
G1 X-1.62 Y12.85 E0.11681
G1 X-1.87 Y12.74 E0.11706
G1 X-2.35 Y12.47 E0.11759
G1 X-2.58 Y12.31 E0.11785
G1 X-2.97 Y11.98 E0.11833
G1 X-3.22 Y11.72 E0.11867
G1 X-3.68 Y11.11 E0.11938
G1 X-3.86 Y10.81 E0.11972
G1 X-4.17 Y10.12 E0.12043
G1 X-4.26 Y9.89 E0.12066
G1 X-4.34 Y9.58 E0.12096
G1 X-4.36 Y9.53 E0.12101
G1 X-4.41 Y9.29 E0.12124
G1 X-4.43 Y9.20 E0.12133
G1 X-4.48 Y8.95 E0.12157
G1 X-4.49 Y8.91 E0.12161
G1 X-4.53 Y8.65 E0.12185
G1 X-4.54 Y8.56 E0.12194
G1 X-4.57 Y8.28 E0.12220
G1 X-4.57 Y8.22 E0.12226
G1 X-4.59 Y7.89 E0.12257
G1 X-4.59 Y7.77 E0.12268
G1 X-4.59 Y7.58 E0.12286
G1 X-4.59 Y7.50 E0.12294
G1 X-4.59 Y7.33 E0.12309
G1 X-4.59 Y7.28 E0.12315
G1 X-4.59 Y7.01 E0.12340
G1 X-4.58 Y6.99 E0.12342
G1 X-4.57 Y6.73 E0.12366
G1 X-4.56 Y6.58 E0.12380
G1 X-4.36 Y5.14 E0.12517
G1 X-4.32 Y4.95 E0.12535
G1 X-4.22 Y4.61 E0.12569
G1 X-4.19 Y4.52 E0.12578
G1 X-4.07 Y4.13 E0.12616
G1 X-4.04 Y4.06 E0.12624
G1 X-3.94 Y3.81 E0.12648
G1 X-3.88 Y3.67 E0.12663
G1 X-3.76 Y3.44 E0.12687
G1 X-3.71 Y3.36 E0.12696
G1 X-3.59 Y3.15 E0.12718
G1 X-3.52 Y3.04 E0.12732
G1 X-3.37 Y2.83 E0.12756
G1 X-3.27 Y2.70 E0.12771
G1 X-3.10 Y2.52 E0.12794
G1 X-3.00 Y2.41 E0.12808
G1 X-2.86 Y2.28 E0.12826
G1 X-2.81 Y2.24 E0.12832
G1 X-2.59 Y2.04 E0.12860
G1 X-2.31 Y1.85 E0.12892
G1 X-1.88 Y1.61 E0.12938
G1 X-1.61 Y1.49 E0.12966
G1 X-1.18 Y1.35 E0.13009
G1 X-0.92 Y1.29 E0.13034
G1 X-0.49 Y1.23 E0.13074
G1 X-0.32 Y1.21 E0.13091
G1 X-0.10 Y1.21 E0.13111
G1 X0.00 Y1.20 E0.13121
G0 X0.00 Y1.30
G1 X0.14 Y1.31 E0.13134
G1 X0.25 Y1.32 E0.13144
G1 X0.76 Y1.37 E0.13192
G1 X1.02 Y1.41 E0.13217
G1 X1.32 Y1.50 E0.13247
G1 X1.51 Y1.57 E0.13266
G1 X1.87 Y1.72 E0.13302
G1 X2.06 Y1.82 E0.13323
G1 X2.36 Y2.00 E0.13356
G1 X2.60 Y2.18 E0.13384
G1 X2.93 Y2.48 E0.13426
G1 X3.08 Y2.64 E0.13446
G1 X3.34 Y2.97 E0.13485
G1 X3.49 Y3.18 E0.13510
G1 X3.74 Y3.62 E0.13557
G1 X3.83 Y3.81 E0.13577
G1 X3.93 Y4.06 E0.13603
G1 X3.95 Y4.11 E0.13608
G1 X4.02 Y4.32 E0.13628
G1 X4.05 Y4.39 E0.13635
G1 X4.11 Y4.60 E0.13656
G1 X4.12 Y4.63 E0.13659
G1 X4.18 Y4.85 E0.13680
G1 X4.20 Y4.92 E0.13688
G1 X4.26 Y5.17 E0.13712
G1 X4.27 Y5.23 E0.13717
G1 X4.32 Y5.48 E0.13741
G1 X4.33 Y5.52 E0.13745
G1 X4.37 Y5.76 E0.13768
G1 X4.37 Y5.81 E0.13773
G1 X4.41 Y6.07 E0.13797
G1 X4.41 Y6.11 E0.13801
G1 X4.44 Y6.37 E0.13826
G1 X4.44 Y6.40 E0.13829
G1 X4.46 Y6.62 E0.13849
G1 X4.47 Y6.69 E0.13856
G1 X4.50 Y7.51 E0.13933
G1 X4.49 Y7.65 E0.13946
G1 X4.45 Y8.46 E0.14022
G1 X4.43 Y8.60 E0.14035
G1 X4.39 Y8.90 E0.14064
G1 X4.37 Y8.99 E0.14073
G1 X4.28 Y9.44 E0.14116
G1 X4.26 Y9.53 E0.14125
G1 X4.18 Y9.81 E0.14152
G1 X4.14 Y9.92 E0.14163
G1 X4.05 Y10.18 E0.14189
G1 X4.01 Y10.28 E0.14200
G1 X3.89 Y10.53 E0.14225
G1 X3.84 Y10.64 E0.14237
G1 X3.71 Y10.87 E0.14262
G1 X3.65 Y10.97 E0.14272
G1 X3.52 Y11.18 E0.14296
G1 X3.44 Y11.28 E0.14308
G1 X3.31 Y11.46 E0.14329
G1 X3.26 Y11.52 E0.14336
G1 X3.05 Y11.77 E0.14367
G1 X2.81 Y11.99 E0.14397
G1 X2.31 Y12.38 E0.14457
G1 X2.02 Y12.56 E0.14489
G1 X1.51 Y12.79 E0.14542
G1 X1.20 Y12.90 E0.14573
G1 X0.65 Y13.02 E0.14625
G1 X0.39 Y13.06 E0.14651
G1 X-0.00 Y13.07 E0.14687
G1 X-0.29 Y13.06 E0.14714
G1 X-0.91 Y12.97 E0.14773
G1 X-1.21 Y12.90 E0.14802
G1 X-1.58 Y12.76 E0.14839
G1 X-1.82 Y12.65 E0.14864
G1 X-2.30 Y12.38 E0.14915
G1 X-2.52 Y12.23 E0.14941
G1 X-2.91 Y11.90 E0.14988
G1 X-3.14 Y11.66 E0.15021
G1 X-3.60 Y11.06 E0.15091
G1 X-3.77 Y10.77 E0.15123
G1 X-4.08 Y10.08 E0.15194
G1 X-4.16 Y9.86 E0.15216
G1 X-4.25 Y9.56 E0.15246
G1 X-4.26 Y9.51 E0.15250
G1 X-4.32 Y9.27 E0.15274
G1 X-4.34 Y9.18 E0.15282
G1 X-4.38 Y8.93 E0.15306
G1 X-4.39 Y8.89 E0.15310
G1 X-4.43 Y8.64 E0.15334
G1 X-4.44 Y8.55 E0.15342
G1 X-4.47 Y8.27 E0.15368
G1 X-4.47 Y8.22 E0.15374
G1 X-4.49 Y7.88 E0.15405
G1 X-4.49 Y7.77 E0.15415
G1 X-4.49 Y7.58 E0.15433
G1 X-4.49 Y7.51 E0.15441
G1 X-4.49 Y7.34 E0.15457
G1 X-4.49 Y7.28 E0.15462
G1 X-4.49 Y7.01 E0.15487
G1 X-4.49 Y6.99 E0.15489
G1 X-4.47 Y6.74 E0.15513
G1 X-4.46 Y6.60 E0.15526
G1 X-4.26 Y5.16 E0.15662
G1 X-4.22 Y4.98 E0.15680
G1 X-4.12 Y4.64 E0.15713
G1 X-4.10 Y4.55 E0.15722
G1 X-3.97 Y4.17 E0.15760
G1 X-3.94 Y4.09 E0.15767
G1 X-3.85 Y3.85 E0.15792
G1 X-3.79 Y3.71 E0.15806
G1 X-3.67 Y3.49 E0.15830
G1 X-3.63 Y3.41 E0.15838
G1 X-3.51 Y3.21 E0.15860
G1 X-3.43 Y3.09 E0.15873
G1 X-3.29 Y2.89 E0.15897
G1 X-3.19 Y2.77 E0.15911
G1 X-3.03 Y2.58 E0.15935
G1 X-2.93 Y2.48 E0.15948
G1 X-2.79 Y2.35 E0.15966
G1 X-2.75 Y2.31 E0.15971
G1 X-2.53 Y2.12 E0.15998
G1 X-2.26 Y1.93 E0.16030
G1 X-1.84 Y1.70 E0.16075
G1 X-1.57 Y1.58 E0.16102
G1 X-1.15 Y1.45 E0.16144
G1 X-0.90 Y1.39 E0.16168
G1 X-0.48 Y1.33 E0.16208
G1 X-0.31 Y1.31 E0.16224
G1 X-0.10 Y1.30 E0.16244
G1 X0.00 Y1.30 E0.16253
G0 X-0.03 Y4.55
G0 X-0.03 Y4.55
G0 X-0.04 Y4.41
;TYPE:WALL-OUTER
G1 X0.32 Y4.44 E0.16287
G1 X0.39 Y4.46 E0.16294
G1 X0.61 Y4.56 E0.16317
G1 X0.74 Y4.69 E0.16334
G1 X0.86 Y4.83 E0.16351
G1 X0.99 Y5.06 E0.16376
