;Generated with Cura_SteamEngine 13.11.2


;Layer count: 140
;LAYER:0
M107
G0 F6000 X-3.11 Y0.12 Z0.06
;TYPE:SKIRT
G1 F6000 E0.00000
G1 X-3.27 Y-0.20 E0.00033
G1 X-3.38 Y-0.45 E0.00059
G1 X-3.49 Y-0.82 E0.00096
G1 X-3.54 Y-1.03 E0.00115
G1 X-3.55 Y-1.07 E0.00120
G1 X-3.57 Y-1.13 E0.00126
G1 X-3.62 Y-1.46 E0.00157
G1 X-3.63 Y-1.74 E0.00183
G1 X-3.63 Y-1.87 E0.00195
G1 X-3.62 Y-2.24 E0.00230
G1 X-3.53 Y-2.64 E0.00268
G1 X-3.50 Y-2.82 E0.00286
G1 X-3.18 Y-3.56 E0.00362
G1 X-2.67 Y-4.18 E0.00437
G1 X-2.22 Y-4.56 E0.00493
G1 X-1.89 Y-4.75 E0.00528
G1 X-1.80 Y-4.79 E0.00538
G1 X-1.62 Y-4.88 E0.00557
G1 X-1.47 Y-4.94 E0.00572
G1 X-1.08 Y-5.07 E0.00610
G1 X-0.78 Y-5.12 E0.00639
G1 X-0.65 Y-5.15 E0.00651
G1 X-0.22 Y-5.18 E0.00692
G1 X-0.08 Y-5.18 E0.00706
G1 X-0.05 Y-5.18 E0.00708
G1 X0.11 Y-5.18 E0.00723
G1 X0.21 Y-5.18 E0.00732
G1 X0.47 Y-5.16 E0.00757
G1 X1.14 Y-5.06 E0.00821
G1 X1.23 Y-5.03 E0.00830
G1 X1.32 Y-5.01 E0.00839
G1 X1.58 Y-4.89 E0.00865
G1 X1.74 Y-4.83 E0.00882
G1 X1.75 Y-4.83 E0.00882
G1 X1.92 Y-4.77 E0.00899
G1 X2.02 Y-4.70 E0.00911
G1 X2.03 Y-4.69 E0.00912
G1 X2.07 Y-4.66 E0.00917
G1 X2.61 Y-4.26 E0.00980
G1 X2.67 Y-4.21 E0.00988
G1 X2.68 Y-4.20 E0.00988
G1 X2.71 Y-4.18 E0.00993
G1 X2.87 Y-3.95 E0.01018
G1 X3.24 Y-3.46 E0.01076
G1 X3.35 Y-3.16 E0.01107
G1 X3.48 Y-2.88 E0.01135
G1 X3.61 Y-2.28 E0.01193
G1 X3.64 Y-1.81 E0.01237
G1 X3.59 Y-1.25 E0.01290
G1 X3.53 Y-0.95 E0.01319
G1 X3.44 Y-0.66 E0.01347
G1 X3.41 Y-0.56 E0.01357
G1 X3.26 Y-0.17 E0.01397
G1 X3.11 Y0.12 E0.01428
G1 X3.16 Y0.25 E0.01441
G1 X3.19 Y0.36 E0.01451
G1 X3.23 Y0.47 E0.01462
G1 X3.24 Y0.51 E0.01466
G1 X3.27 Y0.61 E0.01476
G1 X3.29 Y0.70 E0.01484
G1 X3.31 Y0.81 E0.01495
G1 X3.32 Y0.85 E0.01499
G1 X3.34 Y0.93 E0.01506
G1 X3.34 Y0.94 E0.01507
G1 X3.36 Y1.03 E0.01516
G1 X3.37 Y1.09 E0.01522
G1 X3.38 Y1.21 E0.01533
G1 X3.39 Y1.26 E0.01538
G1 X3.40 Y1.36 E0.01548
G1 X3.40 Y1.39 E0.01551
G1 X3.41 Y1.48 E0.01559
G1 X3.41 Y1.50 E0.01561
G1 X3.42 Y1.60 E0.01570
G1 X3.42 Y1.65 E0.01575
G1 X3.42 Y1.75 E0.01584
G1 X3.42 Y1.78 E0.01587
G1 X3.42 Y1.89 E0.01597
G1 X3.42 Y1.96 E0.01604
G1 X3.42 Y2.09 E0.01616
G1 X3.42 Y2.15 E0.01622
G1 X3.40 Y2.35 E0.01641
G1 X3.39 Y2.47 E0.01653
G1 X3.36 Y2.69 E0.01673
G1 X3.33 Y2.80 E0.01684
G1 X3.30 Y2.97 E0.01700
G1 X3.26 Y3.09 E0.01712
G1 X3.22 Y3.22 E0.01725
G1 X3.20 Y3.29 E0.01731
G1 X3.15 Y3.41 E0.01744
G1 X3.11 Y3.53 E0.01755
G1 X3.04 Y3.66 E0.01770
G1 X3.00 Y3.76 E0.01779
G1 X2.93 Y3.89 E0.01793
G1 X2.87 Y3.98 E0.01804
G1 X2.75 Y4.16 E0.01824
G1 X2.62 Y4.34 E0.01845
G1 X2.38 Y4.61 E0.01878
G1 X2.18 Y4.79 E0.01904
G1 X2.00 Y4.94 E0.01926
G1 X1.89 Y5.02 E0.01939
G1 X1.73 Y5.12 E0.01957
G1 X1.58 Y5.21 E0.01973
G1 X1.37 Y5.32 E0.01996
G1 X1.14 Y5.41 E0.02018
G1 X0.83 Y5.51 E0.02049
G1 X0.54 Y5.57 E0.02077
G1 X0.13 Y5.61 E0.02116
G1 X-0.27 Y5.60 E0.02154
G1 X-0.71 Y5.53 E0.02196
G1 X-1.03 Y5.45 E0.02226
G1 X-1.26 Y5.36 E0.02250
G1 X-1.37 Y5.31 E0.02261
G1 X-1.56 Y5.22 E0.02281
G1 X-1.76 Y5.11 E0.02302
G1 X-1.91 Y5.01 E0.02319
G1 X-1.97 Y4.96 E0.02327
G1 X-2.11 Y4.85 E0.02343
G1 X-2.27 Y4.72 E0.02363
G1 X-2.46 Y4.52 E0.02389
G1 X-2.60 Y4.37 E0.02408
G1 X-2.72 Y4.21 E0.02427
G1 X-2.79 Y4.11 E0.02438
G1 X-2.88 Y3.96 E0.02455
G1 X-2.96 Y3.82 E0.02470
G1 X-3.08 Y3.60 E0.02494
G1 X-3.14 Y3.44 E0.02510
G1 X-3.21 Y3.25 E0.02528
G1 X-3.25 Y3.13 E0.02540
G1 X-3.31 Y2.91 E0.02562
G1 X-3.34 Y2.78 E0.02574
G1 X-3.37 Y2.64 E0.02588
G1 X-3.37 Y2.60 E0.02592
G1 X-3.39 Y2.48 E0.02603
G1 X-3.40 Y2.39 E0.02612
G1 X-3.41 Y2.26 E0.02624
G1 X-3.42 Y2.20 E0.02629
G1 X-3.42 Y2.09 E0.02640
G1 X-3.42 Y2.04 E0.02645
G1 X-3.43 Y1.94 E0.02654
G1 X-3.43 Y1.81 E0.02666
G1 X-3.42 Y1.76 E0.02671
G1 X-3.42 Y1.65 E0.02682
G1 X-3.42 Y1.58 E0.02688
G1 X-3.40 Y1.41 E0.02704
G1 X-3.40 Y1.37 E0.02708
G1 X-3.39 Y1.26 E0.02718
G1 X-3.38 Y1.21 E0.02723
G1 X-3.37 Y1.09 E0.02734
G1 X-3.36 Y1.02 E0.02741
G1 X-3.33 Y0.86 E0.02756
G1 X-3.32 Y0.81 E0.02761
G1 X-3.29 Y0.69 E0.02773
G1 X-3.26 Y0.59 E0.02782
G1 X-3.21 Y0.40 E0.02801
G1 X-3.18 Y0.31 E0.02810
G1 X-3.14 Y0.19 E0.02822
G1 X-3.11 Y0.12 E0.02829
G1 X-3.11 Y0.12 E0.02829
G0 X-3.22 Y0.12
G1 X-3.36 Y-0.15 E0.02858
G1 X-3.47 Y-0.42 E0.02885
G1 X-3.59 Y-0.80 E0.02923
G1 X-3.64 Y-1.01 E0.02943
G1 X-3.65 Y-1.06 E0.02948
G1 X-3.66 Y-1.11 E0.02953
G1 X-3.72 Y-1.45 E0.02985
G1 X-3.73 Y-1.74 E0.03012
G1 X-3.73 Y-1.87 E0.03025
G1 X-3.71 Y-2.25 E0.03061
G1 X-3.63 Y-2.67 E0.03101
G1 X-3.60 Y-2.85 E0.03118
G1 X-3.26 Y-3.61 E0.03196
G1 X-2.75 Y-4.25 E0.03274
G1 X-2.28 Y-4.65 E0.03331
G1 X-1.94 Y-4.83 E0.03368
G1 X-1.84 Y-4.88 E0.03378
G1 X-1.66 Y-4.97 E0.03397
G1 X-1.50 Y-5.03 E0.03413
G1 X-1.11 Y-5.17 E0.03452
G1 X-0.81 Y-5.22 E0.03481
G1 X-0.67 Y-5.25 E0.03494
G1 X-0.23 Y-5.28 E0.03536
G1 X-0.08 Y-5.28 E0.03550
G1 X-0.05 Y-5.28 E0.03552
G1 X0.11 Y-5.28 E0.03567
G1 X0.21 Y-5.28 E0.03577
G1 X0.48 Y-5.26 E0.03603
G1 X1.17 Y-5.16 E0.03668
G1 X1.25 Y-5.12 E0.03676
G1 X1.35 Y-5.11 E0.03686
G1 X1.62 Y-4.98 E0.03714
G1 X1.79 Y-4.92 E0.03730
G1 X1.79 Y-4.92 E0.03731
G1 X1.97 Y-4.86 E0.03748
G1 X2.07 Y-4.78 E0.03760
G1 X2.08 Y-4.78 E0.03761
G1 X2.14 Y-4.73 E0.03769
G1 X2.65 Y-4.35 E0.03828
G1 X2.74 Y-4.28 E0.03839
G1 X2.75 Y-4.27 E0.03840
G1 X2.79 Y-4.25 E0.03845
G1 X2.94 Y-4.03 E0.03870
G1 X3.33 Y-3.51 E0.03930
G1 X3.45 Y-3.19 E0.03963
G1 X3.57 Y-2.91 E0.03992
G1 X3.71 Y-2.29 E0.04051
G1 X3.74 Y-1.81 E0.04096
G1 X3.68 Y-1.24 E0.04151
G1 X3.63 Y-0.93 E0.04180
G1 X3.54 Y-0.63 E0.04209
G1 X3.50 Y-0.53 E0.04219
G1 X3.35 Y-0.13 E0.04260
G1 X3.22 Y0.13 E0.04287
G1 X3.25 Y0.22 E0.04296
G1 X3.29 Y0.33 E0.04307
G1 X3.33 Y0.44 E0.04318
G1 X3.34 Y0.48 E0.04322
G1 X3.37 Y0.59 E0.04332
G1 X3.39 Y0.68 E0.04341
G1 X3.41 Y0.79 E0.04352
G1 X3.42 Y0.83 E0.04356
G1 X3.43 Y0.91 E0.04363
G1 X3.44 Y0.92 E0.04364
G1 X3.45 Y1.01 E0.04373
G1 X3.46 Y1.08 E0.04379
G1 X3.48 Y1.20 E0.04391
G1 X3.49 Y1.25 E0.04396
G1 X3.50 Y1.36 E0.04406
G1 X3.50 Y1.38 E0.04408
G1 X3.51 Y1.47 E0.04417
G1 X3.51 Y1.50 E0.04419
G1 X3.52 Y1.60 E0.04428
G1 X3.52 Y1.65 E0.04433
G1 X3.52 Y1.75 E0.04443
G1 X3.52 Y1.77 E0.04445
G1 X3.53 Y1.89 E0.04456
G1 X3.52 Y1.97 E0.04463
G1 X3.52 Y2.09 E0.04475
G1 X3.52 Y2.15 E0.04481
G1 X3.50 Y2.36 E0.04500
G1 X3.49 Y2.49 E0.04512
G1 X3.45 Y2.71 E0.04534
G1 X3.43 Y2.82 E0.04544
G1 X3.39 Y2.99 E0.04561
G1 X3.36 Y3.12 E0.04573
G1 X3.32 Y3.26 E0.04586
G1 X3.29 Y3.32 E0.04593
G1 X3.24 Y3.45 E0.04606
G1 X3.20 Y3.57 E0.04618
G1 X3.13 Y3.71 E0.04632
G1 X3.09 Y3.80 E0.04642
G1 X3.01 Y3.94 E0.04657
G1 X2.95 Y4.04 E0.04668
G1 X2.84 Y4.22 E0.04688
G1 X2.69 Y4.41 E0.04710
G1 X2.45 Y4.68 E0.04744
G1 X2.25 Y4.87 E0.04770
G1 X2.06 Y5.02 E0.04793
G1 X1.95 Y5.10 E0.04807
G1 X1.78 Y5.21 E0.04825
G1 X1.63 Y5.30 E0.04842
G1 X1.41 Y5.41 E0.04865
G1 X1.17 Y5.50 E0.04888
G1 X0.85 Y5.61 E0.04920
G1 X0.55 Y5.67 E0.04949
G1 X0.14 Y5.71 E0.04989
G1 X-0.28 Y5.70 E0.05028
G1 X-0.73 Y5.63 E0.05071
G1 X-1.06 Y5.55 E0.05102
G1 X-1.30 Y5.45 E0.05127
G1 X-1.42 Y5.40 E0.05139
G1 X-1.61 Y5.31 E0.05159
G1 X-1.81 Y5.19 E0.05181
G1 X-1.97 Y5.09 E0.05198
G1 X-2.03 Y5.04 E0.05206
G1 X-2.18 Y4.93 E0.05223
G1 X-2.34 Y4.79 E0.05243
G1 X-2.53 Y4.59 E0.05269
G1 X-2.68 Y4.43 E0.05290
G1 X-2.80 Y4.27 E0.05309
G1 X-2.87 Y4.17 E0.05320
G1 X-2.97 Y4.02 E0.05337
G1 X-3.05 Y3.87 E0.05353
G1 X-3.17 Y3.64 E0.05378
G1 X-3.24 Y3.47 E0.05394
G1 X-3.31 Y3.29 E0.05413
G1 X-3.35 Y3.16 E0.05426
G1 X-3.41 Y2.93 E0.05448
G1 X-3.44 Y2.80 E0.05460
G1 X-3.46 Y2.66 E0.05474
G1 X-3.47 Y2.61 E0.05479
G1 X-3.49 Y2.49 E0.05490
G1 X-3.50 Y2.40 E0.05499
G1 X-3.51 Y2.27 E0.05511
G1 X-3.52 Y2.21 E0.05517
G1 X-3.52 Y2.09 E0.05527
G1 X-3.52 Y2.04 E0.05533
G1 X-3.53 Y1.94 E0.05542
G1 X-3.53 Y1.81 E0.05554
G1 X-3.52 Y1.76 E0.05559
G1 X-3.52 Y1.64 E0.05570
G1 X-3.52 Y1.58 E0.05576
G1 X-3.50 Y1.40 E0.05593
G1 X-3.50 Y1.36 E0.05597
G1 X-3.49 Y1.25 E0.05607
G1 X-3.48 Y1.20 E0.05612
G1 X-3.47 Y1.08 E0.05623
G1 X-3.45 Y1.00 E0.05630
G1 X-3.42 Y0.84 E0.05646
G1 X-3.41 Y0.79 E0.05651
G1 X-3.39 Y0.67 E0.05663
G1 X-3.36 Y0.56 E0.05673
G1 X-3.31 Y0.37 E0.05691
G1 X-3.28 Y0.28 E0.05701
G1 X-3.23 Y0.15 E0.05713
G1 X-3.22 Y0.12 E0.05717
G0 X-3.33 Y0.13
G1 X-3.45 Y-0.11 E0.05742
G1 X-3.57 Y-0.38 E0.05769
G1 X-3.69 Y-0.77 E0.05808
G1 X-3.74 Y-0.99 E0.05829
G1 X-3.74 Y-1.03 E0.05832
G1 X-3.76 Y-1.09 E0.05839
G1 X-3.82 Y-1.44 E0.05872
G1 X-3.83 Y-1.73 E0.05899
G1 X-3.83 Y-1.87 E0.05913
G1 X-3.82 Y-2.27 E0.05950
G1 X-3.73 Y-2.68 E0.05990
G1 X-3.70 Y-2.88 E0.06008
G1 X-3.35 Y-3.66 E0.06089
G1 X-2.82 Y-4.32 E0.06169
G1 X-2.33 Y-4.73 E0.06228
G1 X-1.98 Y-4.92 E0.06266
G1 X-1.89 Y-4.97 E0.06276
G1 X-1.70 Y-5.06 E0.06296
G1 X-1.54 Y-5.12 E0.06312
G1 X-1.13 Y-5.27 E0.06352
G1 X-0.82 Y-5.31 E0.06382
G1 X-0.69 Y-5.35 E0.06395
G1 X-0.23 Y-5.38 E0.06438
G1 X-0.10 Y-5.38 E0.06450
G1 X-0.05 Y-5.38 E0.06455
G1 X0.11 Y-5.38 E0.06470
G1 X0.21 Y-5.38 E0.06480
G1 X0.49 Y-5.36 E0.06506
G1 X1.19 Y-5.26 E0.06573
G1 X1.29 Y-5.22 E0.06582
G1 X1.38 Y-5.20 E0.06591
G1 X1.66 Y-5.08 E0.06620
G1 X1.82 Y-5.01 E0.06636
G1 X2.02 Y-4.95 E0.06655
G1 X2.12 Y-4.87 E0.06668
G1 X2.13 Y-4.86 E0.06669
G1 X2.19 Y-4.82 E0.06676
G1 X2.69 Y-4.45 E0.06734
G1 X2.81 Y-4.36 E0.06749
G1 X2.82 Y-4.34 E0.06750
G1 X2.86 Y-4.32 E0.06755
G1 X3.01 Y-4.09 E0.06780
G1 X3.42 Y-3.56 E0.06843
G1 X3.54 Y-3.23 E0.06876
G1 X3.67 Y-2.94 E0.06906
G1 X3.81 Y-2.31 E0.06967
G1 X3.84 Y-1.81 E0.07014
G1 X3.79 Y-1.22 E0.07069
G1 X3.72 Y-0.90 E0.07100
G1 X3.63 Y-0.60 E0.07130
G1 X3.60 Y-0.50 E0.07140
G1 X3.44 Y-0.09 E0.07181
G1 X3.33 Y0.14 E0.07205
G1 X3.35 Y0.18 E0.07209
G1 X3.38 Y0.29 E0.07221
G1 X3.42 Y0.41 E0.07232
G1 X3.43 Y0.45 E0.07236
G1 X3.46 Y0.56 E0.07247
G1 X3.48 Y0.65 E0.07256
G1 X3.51 Y0.77 E0.07267
G1 X3.52 Y0.81 E0.07271
G1 X3.53 Y0.89 E0.07278
G1 X3.54 Y0.90 E0.07279
G1 X3.55 Y1.00 E0.07289
G1 X3.56 Y1.06 E0.07295
G1 X3.58 Y1.18 E0.07306
G1 X3.59 Y1.24 E0.07312
G1 X3.60 Y1.35 E0.07322
G1 X3.60 Y1.38 E0.07324
G1 X3.61 Y1.46 E0.07333
G1 X3.61 Y1.49 E0.07335
G1 X3.62 Y1.59 E0.07345
G1 X3.62 Y1.64 E0.07350
G1 X3.62 Y1.75 E0.07359
G1 X3.62 Y1.77 E0.07362
G1 X3.62 Y1.89 E0.07373
G1 X3.62 Y1.97 E0.07380
G1 X3.62 Y2.10 E0.07393
G1 X3.62 Y2.16 E0.07398
G1 X3.60 Y2.37 E0.07418
G1 X3.59 Y2.50 E0.07430
G1 X3.55 Y2.73 E0.07452
G1 X3.53 Y2.84 E0.07463
G1 X3.49 Y3.02 E0.07480
G1 X3.45 Y3.14 E0.07492
G1 X3.41 Y3.29 E0.07506
G1 X3.39 Y3.35 E0.07513
G1 X3.34 Y3.49 E0.07526
G1 X3.29 Y3.61 E0.07539
G1 X3.22 Y3.75 E0.07554
G1 X3.17 Y3.85 E0.07564
G1 X3.10 Y3.99 E0.07579
G1 X3.04 Y4.09 E0.07590
G1 X2.92 Y4.28 E0.07611
G1 X2.77 Y4.47 E0.07633
G1 X2.53 Y4.74 E0.07668
G1 X2.32 Y4.95 E0.07695
G1 X2.12 Y5.10 E0.07719
G1 X2.00 Y5.19 E0.07733
G1 X1.84 Y5.30 E0.07751
G1 X1.67 Y5.39 E0.07769
G1 X1.45 Y5.50 E0.07793
G1 X1.21 Y5.60 E0.07817
G1 X0.88 Y5.70 E0.07850
G1 X0.57 Y5.77 E0.07880
G1 X0.14 Y5.81 E0.07920
G1 X-0.29 Y5.80 E0.07960
G1 X-0.75 Y5.73 E0.08005
G1 X-1.09 Y5.64 E0.08037
G1 X-1.34 Y5.55 E0.08062
G1 X-1.46 Y5.49 E0.08075
G1 X-1.65 Y5.40 E0.08095
G1 X-1.86 Y5.28 E0.08118
G1 X-2.02 Y5.17 E0.08136
G1 X-2.09 Y5.12 E0.08144
G1 X-2.24 Y5.01 E0.08161
G1 X-2.40 Y4.86 E0.08182
G1 X-2.61 Y4.66 E0.08209
G1 X-2.75 Y4.49 E0.08230
G1 X-2.88 Y4.33 E0.08250
G1 X-2.95 Y4.22 E0.08261
G1 X-3.05 Y4.07 E0.08279
G1 X-3.14 Y3.91 E0.08296
G1 X-3.26 Y3.68 E0.08320
G1 X-3.33 Y3.51 E0.08337
G1 X-3.40 Y3.32 E0.08357
G1 X-3.44 Y3.19 E0.08370
G1 X-3.50 Y2.96 E0.08392
G1 X-3.54 Y2.82 E0.08405
G1 X-3.56 Y2.68 E0.08419
G1 X-3.57 Y2.63 E0.08424
G1 X-3.59 Y2.50 E0.08436
G1 X-3.60 Y2.41 E0.08444
G1 X-3.61 Y2.28 E0.08457
G1 X-3.62 Y2.22 E0.08463
G1 X-3.62 Y2.10 E0.08474
G1 X-3.62 Y2.04 E0.08479
G1 X-3.63 Y1.94 E0.08488
G1 X-3.63 Y1.81 E0.08501
G1 X-3.62 Y1.76 E0.08506
G1 X-3.62 Y1.64 E0.08517
G1 X-3.62 Y1.57 E0.08523
G1 X-3.60 Y1.39 E0.08540
G1 X-3.60 Y1.35 E0.08544
G1 X-3.59 Y1.24 E0.08554
G1 X-3.58 Y1.18 E0.08560
G1 X-3.57 Y1.06 E0.08571
G1 X-3.55 Y0.99 E0.08579
G1 X-3.52 Y0.82 E0.08595
G1 X-3.51 Y0.77 E0.08599
G1 X-3.48 Y0.64 E0.08611
G1 X-3.46 Y0.54 E0.08622
G1 X-3.40 Y0.34 E0.08641
G1 X-3.37 Y0.24 E0.08651
G1 X-3.33 Y0.13 E0.08662
G0 X-3.44 Y0.13
G1 X-3.54 Y-0.07 E0.08684
G1 X-3.66 Y-0.35 E0.08712
G1 X-3.78 Y-0.74 E0.08751
G1 X-3.84 Y-0.97 E0.08773
G1 X-3.84 Y-1.00 E0.08776
G1 X-3.86 Y-1.07 E0.08783
G1 X-3.92 Y-1.43 E0.08817
G1 X-3.93 Y-1.73 E0.08845
G1 X-3.93 Y-1.87 E0.08859
G1 X-3.91 Y-2.28 E0.08897
G1 X-3.83 Y-2.69 E0.08937
G1 X-3.79 Y-2.90 E0.08957
G1 X-3.43 Y-3.72 E0.09040
G1 X-2.89 Y-4.39 E0.09122
G1 X-2.39 Y-4.81 E0.09183
G1 X-2.03 Y-5.01 E0.09222
G1 X-1.93 Y-5.06 E0.09232
G1 X-1.74 Y-5.15 E0.09253
G1 X-1.58 Y-5.22 E0.09269
G1 X-1.16 Y-5.36 E0.09311
G1 X-0.85 Y-5.41 E0.09340
G1 X-0.70 Y-5.45 E0.09354
G1 X-0.23 Y-5.48 E0.09399
G1 X-0.10 Y-5.48 E0.09411
G1 X-0.05 Y-5.48 E0.09416
G1 X0.09 Y-5.48 E0.09429
G1 X0.22 Y-5.48 E0.09441
G1 X0.50 Y-5.46 E0.09468
G1 X1.22 Y-5.35 E0.09536
G1 X1.30 Y-5.32 E0.09545
G1 X1.41 Y-5.30 E0.09555
G1 X1.71 Y-5.16 E0.09586
G1 X1.87 Y-5.11 E0.09601
G1 X2.06 Y-5.04 E0.09621
G1 X2.17 Y-4.96 E0.09634
G1 X2.19 Y-4.95 E0.09635
G1 X2.26 Y-4.89 E0.09644
G1 X2.75 Y-4.52 E0.09702
G1 X2.88 Y-4.43 E0.09717
G1 X2.89 Y-4.42 E0.09719
G1 X2.93 Y-4.39 E0.09723
G1 X3.11 Y-4.14 E0.09752
G1 X3.51 Y-3.61 E0.09814
G1 X3.63 Y-3.27 E0.09849
G1 X3.76 Y-2.97 E0.09879
G1 X3.90 Y-2.32 E0.09941
G1 X3.94 Y-1.81 E0.09990
G1 X3.88 Y-1.21 E0.10046
G1 X3.82 Y-0.88 E0.10078
G1 X3.73 Y-0.57 E0.10108
G1 X3.69 Y-0.47 E0.10119
G1 X3.54 Y-0.05 E0.10161
G1 X3.44 Y0.14 E0.10181
G1 X3.44 Y0.15 E0.10181
G1 X3.48 Y0.27 E0.10193
G1 X3.52 Y0.39 E0.10205
G1 X3.53 Y0.42 E0.10209
G1 X3.56 Y0.54 E0.10220
G1 X3.58 Y0.63 E0.10229
G1 X3.61 Y0.75 E0.10240
G1 X3.62 Y0.79 E0.10244
G1 X3.63 Y0.87 E0.10252
G1 X3.63 Y0.88 E0.10253
G1 X3.65 Y0.98 E0.10262
G1 X3.66 Y1.05 E0.10269
G1 X3.68 Y1.17 E0.10280
G1 X3.69 Y1.23 E0.10286
G1 X3.70 Y1.34 E0.10296
G1 X3.70 Y1.37 E0.10299
G1 X3.71 Y1.46 E0.10307
G1 X3.71 Y1.48 E0.10310
G1 X3.72 Y1.58 E0.10319
G1 X3.72 Y1.64 E0.10325
G1 X3.72 Y1.74 E0.10334
G1 X3.72 Y1.77 E0.10337
G1 X3.72 Y1.89 E0.10348
G1 X3.72 Y1.97 E0.10356
G1 X3.72 Y2.10 E0.10368
G1 X3.72 Y2.16 E0.10374
G1 X3.70 Y2.38 E0.10394
G1 X3.69 Y2.51 E0.10407
G1 X3.65 Y2.74 E0.10429
G1 X3.63 Y2.86 E0.10440
G1 X3.59 Y3.04 E0.10457
G1 X3.55 Y3.17 E0.10470
G1 X3.51 Y3.32 E0.10485
G1 X3.48 Y3.38 E0.10491
G1 X3.43 Y3.52 E0.10505
G1 X3.38 Y3.65 E0.10518
G1 X3.31 Y3.80 E0.10533
G1 X3.26 Y3.89 E0.10543
G1 X3.19 Y4.03 E0.10558
G1 X3.12 Y4.14 E0.10570
G1 X3.00 Y4.33 E0.10592
G1 X2.85 Y4.53 E0.10615
G1 X2.60 Y4.82 E0.10650
G1 X2.38 Y5.02 E0.10679
G1 X2.18 Y5.18 E0.10703
G1 X2.06 Y5.27 E0.10717
G1 X1.89 Y5.38 E0.10736
G1 X1.72 Y5.48 E0.10754
G1 X1.49 Y5.59 E0.10779
G1 X1.24 Y5.69 E0.10804
G1 X0.90 Y5.80 E0.10837
G1 X0.58 Y5.87 E0.10868
G1 X0.14 Y5.91 E0.10910
G1 X-0.30 Y5.90 E0.10951
G1 X-0.77 Y5.83 E0.10996
G1 X-1.12 Y5.74 E0.11030
G1 X-1.37 Y5.64 E0.11056
G1 X-1.50 Y5.58 E0.11068
G1 X-1.70 Y5.49 E0.11089
G1 X-1.92 Y5.36 E0.11113
G1 X-2.08 Y5.25 E0.11132
G1 X-2.15 Y5.20 E0.11140
G1 X-2.30 Y5.09 E0.11158
G1 X-2.47 Y4.94 E0.11179
G1 X-2.68 Y4.73 E0.11207
G1 X-2.83 Y4.56 E0.11228
G1 X-2.96 Y4.39 E0.11248
G1 X-3.03 Y4.28 E0.11260
G1 X-3.14 Y4.12 E0.11278
G1 X-3.23 Y3.96 E0.11296
G1 X-3.35 Y3.72 E0.11321
G1 X-3.42 Y3.55 E0.11338
G1 X-3.49 Y3.35 E0.11358
G1 X-3.54 Y3.21 E0.11372
G1 X-3.60 Y2.98 E0.11394
G1 X-3.63 Y2.84 E0.11408
G1 X-3.66 Y2.69 E0.11422
G1 X-3.67 Y2.64 E0.11427
G1 X-3.69 Y2.52 E0.11439
G1 X-3.70 Y2.42 E0.11448
G1 X-3.71 Y2.29 E0.11461
G1 X-3.72 Y2.22 E0.11467
G1 X-3.72 Y2.10 E0.11478
G1 X-3.72 Y2.05 E0.11483
G1 X-3.73 Y1.94 E0.11493
G1 X-3.73 Y1.81 E0.11505
G1 X-3.72 Y1.75 E0.11511
G1 X-3.72 Y1.63 E0.11522
G1 X-3.72 Y1.56 E0.11529
G1 X-3.70 Y1.39 E0.11545
G1 X-3.70 Y1.34 E0.11549
G1 X-3.69 Y1.23 E0.11560
G1 X-3.68 Y1.17 E0.11566
G1 X-3.66 Y1.05 E0.11578
G1 X-3.65 Y0.97 E0.11585
G1 X-3.62 Y0.80 E0.11601
G1 X-3.61 Y0.75 E0.11606
G1 X-3.58 Y0.62 E0.11618
G1 X-3.55 Y0.51 E0.11629
G1 X-3.50 Y0.31 E0.11648
G1 X-3.46 Y0.21 E0.11658
G1 X-3.44 Y0.13 E0.11666
G0 X-3.55 Y0.14
G1 X-3.63 Y-0.03 E0.11684
G1 X-3.75 Y-0.31 E0.11713
G1 X-3.88 Y-0.72 E0.11753
G1 X-3.93 Y-0.95 E0.11775
G1 X-3.94 Y-0.98 E0.11779
G1 X-3.96 Y-1.05 E0.11785
G1 X-4.02 Y-1.42 E0.11821
G1 X-4.03 Y-1.73 E0.11849
G1 X-4.03 Y-1.88 E0.11863
G1 X-4.01 Y-2.29 E0.11902
G1 X-3.93 Y-2.70 E0.11942
