;Generated with Cura_SteamEngine 13.11.2


;Layer count: 1119
;LAYER:0
M107
G0 F6000 X-0.06 Y1.32 Z0.03
;TYPE:SKIRT
G1 F6000 E0.00000
G1 X0.20 Y1.32 E0.00012
G1 X0.91 Y1.39 E0.00046
G1 X1.23 Y1.45 E0.00061
G1 X1.57 Y1.55 E0.00078
G1 X1.78 Y1.63 E0.00088
G1 X2.26 Y1.84 E0.00113
G1 X2.60 Y2.09 E0.00133
G1 X2.84 Y2.24 E0.00146
G1 X3.35 Y2.73 E0.00179
G1 X3.44 Y2.86 E0.00187
G1 X3.79 Y3.31 E0.00214
G1 X3.92 Y3.56 E0.00227
G1 X3.99 Y3.66 E0.00233
G1 X4.21 Y4.10 E0.00256
G1 X4.33 Y4.47 E0.00274
G1 X4.36 Y4.54 E0.00278
G1 X4.38 Y4.61 E0.00281
G1 X4.47 Y4.87 E0.00294
G1 X4.52 Y5.09 E0.00305
G1 X4.56 Y5.30 E0.00315
G1 X4.59 Y5.44 E0.00321
G1 X4.61 Y5.53 E0.00326
G1 X4.65 Y5.80 E0.00339
G1 X4.67 Y5.88 E0.00343
G1 X4.69 Y6.10 E0.00353
G1 X4.72 Y6.36 E0.00365
G1 X4.73 Y6.47 E0.00370
G1 X4.77 Y7.01 E0.00396
G1 X4.77 Y7.14 E0.00402
G1 X4.77 Y7.24 E0.00407
G1 X4.77 Y7.59 E0.00423
G1 X4.77 Y7.73 E0.00430
G1 X4.74 Y8.14 E0.00449
G1 X4.72 Y8.44 E0.00463
G1 X4.68 Y8.69 E0.00475
G1 X4.62 Y8.98 E0.00489
G1 X4.60 Y9.11 E0.00495
G1 X4.59 Y9.17 E0.00498
G1 X4.51 Y9.53 E0.00515
G1 X4.38 Y9.90 E0.00534
G1 X4.30 Y10.06 E0.00542
G1 X4.30 Y10.07 E0.00543
G1 X4.28 Y10.12 E0.00545
G1 X4.18 Y10.36 E0.00558
G1 X4.03 Y10.65 E0.00573
G1 X3.94 Y10.79 E0.00580
G1 X3.77 Y11.09 E0.00597
G1 X3.46 Y11.49 E0.00621
G1 X3.28 Y11.67 E0.00633
G1 X3.26 Y11.69 E0.00634
G1 X2.87 Y12.07 E0.00659
G1 X2.47 Y12.35 E0.00682
G1 X2.16 Y12.53 E0.00699
G1 X1.51 Y12.81 E0.00732
G1 X1.14 Y12.92 E0.00751
G1 X0.62 Y13.02 E0.00775
G1 X0.39 Y13.04 E0.00787
G1 X0.05 Y13.06 E0.00803
G1 X-0.18 Y13.06 E0.00814
G1 X-0.71 Y13.01 E0.00838
G1 X-1.10 Y12.93 E0.00857
G1 X-1.77 Y12.70 E0.00891
G1 X-2.11 Y12.55 E0.00908
G1 X-2.70 Y12.21 E0.00940
G1 X-3.21 Y11.75 E0.00972
G1 X-3.27 Y11.67 E0.00977
G1 X-3.46 Y11.48 E0.00989
G1 X-3.78 Y11.06 E0.01014
G1 X-3.92 Y10.82 E0.01027
G1 X-3.98 Y10.72 E0.01033
G1 X-4.18 Y10.36 E0.01052
G1 X-4.30 Y10.07 E0.01067
G1 X-4.38 Y9.90 E0.01076
G1 X-4.51 Y9.51 E0.01095
G1 X-4.61 Y9.06 E0.01117
G1 X-4.62 Y9.01 E0.01119
G1 X-4.63 Y8.95 E0.01122
G1 X-4.69 Y8.66 E0.01136
G1 X-4.72 Y8.43 E0.01147
G1 X-4.73 Y8.20 E0.01158
G1 X-4.75 Y8.05 E0.01165
G1 X-4.75 Y7.97 E0.01169
G1 X-4.77 Y7.68 E0.01182
G1 X-4.77 Y7.59 E0.01187
G1 X-4.77 Y7.31 E0.01200
G1 X-4.77 Y7.26 E0.01202
G1 X-4.77 Y7.19 E0.01206
G1 X-4.77 Y7.01 E0.01214
G1 X-4.73 Y6.43 E0.01241
G1 X-4.72 Y6.28 E0.01248
G1 X-4.59 Y5.43 E0.01289
G1 X-4.58 Y5.39 E0.01291
G1 X-4.52 Y5.09 E0.01305
G1 X-4.46 Y4.84 E0.01317
G1 X-4.37 Y4.58 E0.01330
G1 X-4.34 Y4.48 E0.01335
G1 X-4.32 Y4.41 E0.01338
G1 X-4.19 Y4.06 E0.01356
G1 X-4.00 Y3.67 E0.01376
G1 X-3.93 Y3.57 E0.01382
G1 X-3.77 Y3.28 E0.01398
G1 X-3.49 Y2.91 E0.01419
G1 X-3.46 Y2.88 E0.01421
G1 X-3.33 Y2.70 E0.01432
G1 X-2.84 Y2.24 E0.01463
G1 X-2.84 Y2.24 E0.01464
G1 X-2.80 Y2.19 E0.01467
G1 X-1.87 Y1.62 E0.01518
G1 X-0.95 Y1.40 E0.01562
G1 X-0.64 Y1.35 E0.01577
G1 X-0.06 Y1.32 E0.01604
G0 X-0.06 Y1.42
G1 X0.20 Y1.42 E0.01616
G1 X0.90 Y1.49 E0.01650
G1 X1.20 Y1.55 E0.01664
G1 X1.54 Y1.65 E0.01680
G1 X1.74 Y1.72 E0.01691
G1 X2.21 Y1.93 E0.01715
G1 X2.54 Y2.17 E0.01734
G1 X2.78 Y2.32 E0.01747
G1 X3.28 Y2.79 E0.01780
G1 X3.37 Y2.92 E0.01787
G1 X3.37 Y2.93 E0.01787
G1 X3.71 Y3.37 E0.01813
G1 X3.83 Y3.60 E0.01826
G1 X3.91 Y3.71 E0.01832
G1 X4.12 Y4.14 E0.01854
G1 X4.24 Y4.51 E0.01873
G1 X4.26 Y4.57 E0.01876
G1 X4.29 Y4.64 E0.01879
G1 X4.37 Y4.90 E0.01892
G1 X4.43 Y5.12 E0.01903
G1 X4.46 Y5.32 E0.01913
G1 X4.49 Y5.46 E0.01919
G1 X4.51 Y5.54 E0.01923
G1 X4.55 Y5.81 E0.01936
G1 X4.57 Y5.90 E0.01940
G1 X4.59 Y6.11 E0.01950
G1 X4.59 Y6.11 E0.01950
G1 X4.62 Y6.37 E0.01962
G1 X4.63 Y6.47 E0.01967
G1 X4.66 Y7.01 E0.01993
G1 X4.67 Y7.14 E0.01999
G1 X4.67 Y7.24 E0.02003
G1 X4.67 Y7.58 E0.02020
G1 X4.67 Y7.72 E0.02026
G1 X4.64 Y8.18 E0.02048
G1 X4.62 Y8.43 E0.02059
G1 X4.59 Y8.67 E0.02071
G1 X4.51 Y9.03 E0.02088
G1 X4.51 Y9.03 E0.02088
G1 X4.50 Y9.09 E0.02091
G1 X4.49 Y9.15 E0.02094
G1 X4.41 Y9.51 E0.02111
G1 X4.28 Y9.87 E0.02129
G1 X4.21 Y10.02 E0.02137
G1 X4.21 Y10.04 E0.02138
G1 X4.19 Y10.08 E0.02140
G1 X4.09 Y10.32 E0.02152
G1 X3.94 Y10.60 E0.02167
G1 X3.86 Y10.72 E0.02174
G1 X3.68 Y11.03 E0.02191
G1 X3.38 Y11.42 E0.02214
G1 X3.20 Y11.60 E0.02226
G1 X3.18 Y11.62 E0.02227
G1 X2.81 Y11.99 E0.02252
G1 X2.42 Y12.27 E0.02275
G1 X2.11 Y12.44 E0.02291
G1 X1.48 Y12.71 E0.02324
G1 X1.12 Y12.82 E0.02341
G1 X0.61 Y12.92 E0.02366
G1 X0.38 Y12.94 E0.02376
G1 X0.05 Y12.96 E0.02392
G1 X-0.18 Y12.95 E0.02403
G1 X-0.70 Y12.91 E0.02427
G1 X-1.08 Y12.83 E0.02445
G1 X-1.74 Y12.61 E0.02478
G1 X-2.07 Y12.46 E0.02495
G1 X-2.64 Y12.13 E0.02526
G1 X-3.14 Y11.68 E0.02558
G1 X-3.19 Y11.61 E0.02562
G1 X-3.39 Y11.42 E0.02575
G1 X-3.70 Y11.01 E0.02599
G1 X-3.83 Y10.76 E0.02612
G1 X-3.90 Y10.67 E0.02618
G1 X-4.09 Y10.32 E0.02636
G1 X-4.19 Y10.05 E0.02650
G1 X-4.29 Y9.86 E0.02660
G1 X-4.41 Y9.48 E0.02679
G1 X-4.51 Y9.04 E0.02700
G1 X-4.52 Y8.99 E0.02702
G1 X-4.53 Y8.93 E0.02705
G1 X-4.59 Y8.65 E0.02719
G1 X-4.62 Y8.42 E0.02730
G1 X-4.63 Y8.20 E0.02740
G1 X-4.65 Y8.04 E0.02747
G1 X-4.65 Y7.96 E0.02751
G1 X-4.67 Y7.68 E0.02764
G1 X-4.67 Y7.59 E0.02769
G1 X-4.67 Y7.31 E0.02782
G1 X-4.67 Y7.25 E0.02785
G1 X-4.67 Y7.19 E0.02788
G1 X-4.67 Y7.02 E0.02796
G1 X-4.63 Y6.44 E0.02823
G1 X-4.62 Y6.29 E0.02830
G1 X-4.49 Y5.45 E0.02870
G1 X-4.48 Y5.40 E0.02872
G1 X-4.43 Y5.11 E0.02886
G1 X-4.37 Y4.87 E0.02898
G1 X-4.26 Y4.55 E0.02913
G1 X-4.24 Y4.51 E0.02916
G1 X-4.22 Y4.45 E0.02919
G1 X-4.10 Y4.10 E0.02936
G1 X-3.91 Y3.72 E0.02956
G1 X-3.85 Y3.62 E0.02961
G1 X-3.84 Y3.62 E0.02962
G1 X-3.69 Y3.34 E0.02977
G1 X-3.41 Y2.98 E0.02998
G1 X-3.38 Y2.95 E0.03000
G1 X-3.26 Y2.77 E0.03011
G1 X-2.78 Y2.32 E0.03041
G1 X-2.77 Y2.31 E0.03042
G1 X-2.73 Y2.27 E0.03045
G1 X-1.83 Y1.72 E0.03094
G1 X-0.93 Y1.49 E0.03138
G1 X-0.63 Y1.45 E0.03152
G1 X-0.06 Y1.42 E0.03179
G0 X-0.06 Y1.52
G1 X0.19 Y1.52 E0.03191
G1 X0.88 Y1.59 E0.03223
G1 X1.18 Y1.65 E0.03238
G1 X1.51 Y1.74 E0.03254
G1 X1.71 Y1.82 E0.03264
G1 X2.16 Y2.01 E0.03287
G1 X2.49 Y2.26 E0.03306
G1 X2.71 Y2.40 E0.03319
G1 X3.20 Y2.86 E0.03350
G1 X3.29 Y2.99 E0.03358
G1 X3.30 Y2.99 E0.03358
G1 X3.62 Y3.42 E0.03383
G1 X3.75 Y3.66 E0.03396
G1 X3.82 Y3.76 E0.03402
G1 X4.03 Y4.18 E0.03424
G1 X4.15 Y4.54 E0.03442
G1 X4.17 Y4.61 E0.03445
G1 X4.19 Y4.67 E0.03448
G1 X4.28 Y4.93 E0.03461
G1 X4.33 Y5.14 E0.03471
G1 X4.36 Y5.33 E0.03480
G1 X4.39 Y5.48 E0.03487
G1 X4.41 Y5.56 E0.03491
G1 X4.46 Y5.83 E0.03504
G1 X4.47 Y5.91 E0.03508
G1 X4.49 Y6.12 E0.03518
G1 X4.52 Y6.38 E0.03530
G1 X4.53 Y6.48 E0.03535
G1 X4.57 Y7.01 E0.03560
G1 X4.57 Y7.14 E0.03566
G1 X4.57 Y7.24 E0.03571
G1 X4.57 Y7.58 E0.03587
G1 X4.57 Y7.72 E0.03593
G1 X4.53 Y8.17 E0.03614
G1 X4.52 Y8.42 E0.03626
G1 X4.49 Y8.65 E0.03637
G1 X4.41 Y9.01 E0.03654
G1 X4.40 Y9.07 E0.03657
G1 X4.39 Y9.13 E0.03660
G1 X4.31 Y9.48 E0.03677
G1 X4.19 Y9.83 E0.03694
G1 X4.12 Y9.97 E0.03702
G1 X4.11 Y10.00 E0.03703
G1 X4.10 Y10.05 E0.03706
G1 X4.00 Y10.28 E0.03717
G1 X3.85 Y10.55 E0.03732
G1 X3.77 Y10.67 E0.03739
G1 X3.60 Y10.98 E0.03755
G1 X3.31 Y11.36 E0.03778
G1 X3.13 Y11.53 E0.03790
G1 X3.11 Y11.56 E0.03791
G1 X2.74 Y11.91 E0.03815
G1 X2.37 Y12.18 E0.03837
G1 X2.07 Y12.35 E0.03853
G1 X1.44 Y12.62 E0.03885
G1 X1.09 Y12.73 E0.03902
G1 X0.59 Y12.82 E0.03926
G1 X0.37 Y12.84 E0.03937
G1 X0.04 Y12.86 E0.03952
G1 X-0.17 Y12.85 E0.03962
G1 X-0.68 Y12.81 E0.03986
G1 X-1.05 Y12.73 E0.04004
G1 X-1.70 Y12.52 E0.04036
G1 X-2.02 Y12.37 E0.04053
G1 X-2.58 Y12.05 E0.04083
G1 X-3.06 Y11.61 E0.04114
G1 X-3.12 Y11.54 E0.04118
G1 X-3.31 Y11.35 E0.04131
G1 X-3.61 Y10.96 E0.04154
G1 X-3.75 Y10.70 E0.04168
G1 X-3.82 Y10.61 E0.04173
G1 X-4.00 Y10.28 E0.04191
G1 X-4.12 Y9.98 E0.04206
G1 X-4.19 Y9.82 E0.04214
G1 X-4.32 Y9.45 E0.04232
G1 X-4.41 Y9.02 E0.04253
G1 X-4.42 Y8.97 E0.04256
G1 X-4.44 Y8.91 E0.04259
G1 X-4.49 Y8.63 E0.04272
G1 X-4.52 Y8.41 E0.04282
G1 X-4.53 Y8.17 E0.04294
G1 X-4.55 Y8.03 E0.04300
G1 X-4.55 Y7.96 E0.04304
G1 X-4.57 Y7.68 E0.04317
G1 X-4.57 Y7.59 E0.04321
G1 X-4.57 Y7.31 E0.04334
G1 X-4.57 Y7.25 E0.04337
G1 X-4.57 Y7.18 E0.04340
G1 X-4.57 Y7.02 E0.04348
G1 X-4.53 Y6.45 E0.04375
G1 X-4.52 Y6.30 E0.04382
G1 X-4.39 Y5.46 E0.04422
G1 X-4.38 Y5.42 E0.04424
G1 X-4.33 Y5.13 E0.04438
G1 X-4.27 Y4.90 E0.04449
G1 X-4.16 Y4.59 E0.04464
G1 X-4.15 Y4.54 E0.04467
G1 X-4.13 Y4.48 E0.04470
G1 X-4.01 Y4.14 E0.04487
G1 X-3.83 Y3.77 E0.04506
G1 X-3.76 Y3.67 E0.04511
G1 X-3.76 Y3.66 E0.04512
G1 X-3.60 Y3.39 E0.04527
G1 X-3.34 Y3.04 E0.04547
G1 X-3.31 Y3.02 E0.04549
G1 X-3.18 Y2.83 E0.04560
G1 X-2.72 Y2.40 E0.04589
G1 X-2.70 Y2.39 E0.04590
G1 X-2.66 Y2.35 E0.04593
G1 X-1.79 Y1.81 E0.04641
G1 X-0.91 Y1.59 E0.04684
G1 X-0.62 Y1.55 E0.04698
G1 X-0.06 Y1.52 E0.04724
G0 X-0.06 Y1.62
G1 X0.18 Y1.62 E0.04735
G1 X0.87 Y1.69 E0.04768
G1 X1.16 Y1.75 E0.04782
G1 X1.48 Y1.84 E0.04797
G1 X1.67 Y1.91 E0.04807
G1 X2.11 Y2.10 E0.04829
G1 X2.44 Y2.34 E0.04849
G1 X2.65 Y2.48 E0.04861
G1 X3.12 Y2.92 E0.04891
G1 X3.21 Y3.06 E0.04899
G1 X3.22 Y3.06 E0.04899
G1 X3.54 Y3.47 E0.04924
G1 X3.66 Y3.71 E0.04936
G1 X3.73 Y3.82 E0.04942
G1 X3.93 Y4.21 E0.04963
G1 X4.05 Y4.57 E0.04981
G1 X4.08 Y4.64 E0.04984
G1 X4.10 Y4.70 E0.04987
G1 X4.18 Y4.95 E0.05000
G1 X4.23 Y5.16 E0.05010
G1 X4.27 Y5.36 E0.05019
G1 X4.30 Y5.50 E0.05026
G1 X4.31 Y5.58 E0.05030
G1 X4.36 Y5.84 E0.05042
G1 X4.37 Y5.92 E0.05046
G1 X4.39 Y6.14 E0.05056
G1 X4.43 Y6.39 E0.05068
G1 X4.43 Y6.49 E0.05073
G1 X4.47 Y7.02 E0.05098
G1 X4.47 Y7.14 E0.05104
G1 X4.47 Y7.24 E0.05108
G1 X4.47 Y7.58 E0.05124
G1 X4.47 Y7.72 E0.05131
G1 X4.43 Y8.16 E0.05152
G1 X4.42 Y8.41 E0.05163
G1 X4.39 Y8.64 E0.05174
G1 X4.33 Y8.93 E0.05188
G1 X4.30 Y9.05 E0.05194
G1 X4.29 Y9.10 E0.05197
G1 X4.22 Y9.45 E0.05213
G1 X4.10 Y9.79 E0.05230
G1 X4.03 Y9.93 E0.05238
G1 X4.02 Y9.96 E0.05239
G1 X4.00 Y10.01 E0.05241
G1 X3.91 Y10.24 E0.05253
G1 X3.77 Y10.50 E0.05267
G1 X3.69 Y10.62 E0.05274
G1 X3.52 Y10.93 E0.05290
G1 X3.24 Y11.29 E0.05312
G1 X3.05 Y11.47 E0.05324
G1 X3.03 Y11.49 E0.05325
G1 X2.68 Y11.84 E0.05349
G1 X2.31 Y12.10 E0.05370
G1 X2.02 Y12.26 E0.05385
G1 X1.41 Y12.53 E0.05417
G1 X1.07 Y12.63 E0.05434
G1 X0.58 Y12.72 E0.05457
G1 X0.37 Y12.74 E0.05467
G1 X0.04 Y12.76 E0.05482
G1 X-0.17 Y12.76 E0.05492
G1 X-0.67 Y12.71 E0.05516
G1 X-1.02 Y12.64 E0.05533
G1 X-1.67 Y12.43 E0.05565
G1 X-1.98 Y12.28 E0.05581
G1 X-2.52 Y11.96 E0.05610
G1 X-2.99 Y11.54 E0.05640
G1 X-3.04 Y11.47 E0.05644
G1 X-3.24 Y11.28 E0.05657
G1 X-3.53 Y10.90 E0.05680
G1 X-3.66 Y10.66 E0.05693
G1 X-3.73 Y10.56 E0.05698
G1 X-3.91 Y10.23 E0.05716
G1 X-4.02 Y9.95 E0.05730
G1 X-4.10 Y9.78 E0.05739
G1 X-4.22 Y9.43 E0.05756
G1 X-4.30 Y9.06 E0.05774
G1 X-4.30 Y9.05 E0.05775
G1 X-4.33 Y8.94 E0.05780
G1 X-4.34 Y8.89 E0.05782
G1 X-4.39 Y8.61 E0.05796
G1 X-4.42 Y8.40 E0.05806
G1 X-4.43 Y8.20 E0.05815
G1 X-4.45 Y8.02 E0.05823
G1 X-4.45 Y7.95 E0.05827
G1 X-4.47 Y7.67 E0.05840
G1 X-4.47 Y7.58 E0.05844
G1 X-4.47 Y7.31 E0.05857
G1 X-4.47 Y7.26 E0.05859
G1 X-4.47 Y7.24 E0.05860
G1 X-4.47 Y7.18 E0.05863
G1 X-4.47 Y7.03 E0.05870
G1 X-4.43 Y6.46 E0.05897
G1 X-4.42 Y6.32 E0.05904
G1 X-4.29 Y5.48 E0.05944
G1 X-4.28 Y5.44 E0.05946
G1 X-4.23 Y5.15 E0.05959
G1 X-4.17 Y4.93 E0.05970
G1 X-4.07 Y4.62 E0.05986
G1 X-4.05 Y4.57 E0.05988
G1 X-4.04 Y4.51 E0.05991
G1 X-3.92 Y4.18 E0.06008
G1 X-3.74 Y3.82 E0.06026
G1 X-3.68 Y3.73 E0.06031
G1 X-3.67 Y3.71 E0.06032
G1 X-3.52 Y3.45 E0.06047
G1 X-3.26 Y3.11 E0.06067
G1 X-3.23 Y3.08 E0.06069
G1 X-3.10 Y2.90 E0.06079
G1 X-2.66 Y2.48 E0.06108
G1 X-2.64 Y2.47 E0.06109
G1 X-2.60 Y2.42 E0.06112
G1 X-1.75 Y1.90 E0.06158
G1 X-0.89 Y1.69 E0.06200
G1 X-0.61 Y1.65 E0.06214
G1 X-0.06 Y1.62 E0.06240
G0 X-0.06 Y1.72
G1 X0.18 Y1.72 E0.06251
G1 X0.86 Y1.79 E0.06283
G1 X1.13 Y1.84 E0.06296
G1 X1.45 Y1.93 E0.06311
G1 X1.63 Y2.00 E0.06320
G1 X2.06 Y2.19 E0.06342
G1 X2.37 Y2.42 E0.06361
G1 X2.59 Y2.56 E0.06373
G1 X3.05 Y2.99 E0.06402
G1 X3.14 Y3.12 E0.06410
G1 X3.15 Y3.13 E0.06411
G1 X3.45 Y3.53 E0.06434
G1 X3.58 Y3.76 E0.06447
G1 X3.65 Y3.87 E0.06453
G1 X3.84 Y4.25 E0.06473
G1 X3.95 Y4.60 E0.06490
G1 X3.98 Y4.68 E0.06494
G1 X4.00 Y4.73 E0.06497
G1 X4.08 Y4.98 E0.06509
G1 X4.13 Y5.18 E0.06519
G1 X4.16 Y5.34 E0.06526
G1 X4.20 Y5.52 E0.06535
G1 X4.22 Y5.60 E0.06539
G1 X4.26 Y5.86 E0.06551
G1 X4.27 Y5.93 E0.06555
G1 X4.30 Y6.15 E0.06565
G1 X4.32 Y6.40 E0.06577
G1 X4.34 Y6.49 E0.06581
G1 X4.37 Y7.02 E0.06606
G1 X4.37 Y7.14 E0.06612
G1 X4.37 Y7.24 E0.06616
G1 X4.37 Y7.58 E0.06632
G1 X4.37 Y7.71 E0.06638
G1 X4.34 Y8.12 E0.06658
G1 X4.34 Y8.12 E0.06658
G1 X4.32 Y8.40 E0.06671
G1 X4.29 Y8.62 E0.06681
G1 X4.22 Y8.97 E0.06698
G1 X4.21 Y9.03 E0.06701
G1 X4.20 Y9.08 E0.06704
G1 X4.12 Y9.42 E0.06720
G1 X4.01 Y9.75 E0.06736
G1 X3.94 Y9.89 E0.06743
G1 X3.93 Y9.93 E0.06746
G1 X3.91 Y9.97 E0.06748
G1 X3.82 Y10.19 E0.06759
G1 X3.68 Y10.45 E0.06773
G1 X3.60 Y10.57 E0.06779
G1 X3.43 Y10.87 E0.06796
G1 X3.16 Y11.22 E0.06817
G1 X2.98 Y11.40 E0.06829
G1 X2.96 Y11.42 E0.06830
G1 X2.62 Y11.76 E0.06853
G1 X2.26 Y12.01 E0.06873
G1 X1.98 Y12.17 E0.06888
G1 X1.37 Y12.43 E0.06919
G1 X1.04 Y12.53 E0.06935
G1 X0.56 Y12.62 E0.06958
G1 X0.36 Y12.65 E0.06968
G1 X0.04 Y12.66 E0.06983
G1 X-0.16 Y12.65 E0.06993
G1 X-0.65 Y12.61 E0.07016
G1 X-1.00 Y12.54 E0.07032
G1 X-1.63 Y12.33 E0.07064
G1 X-1.93 Y12.20 E0.07079
G1 X-2.46 Y11.88 E0.07108
G1 X-2.91 Y11.48 E0.07137
G1 X-2.97 Y11.40 E0.07141
G1 X-3.16 Y11.22 E0.07154
G1 X-3.44 Y10.85 E0.07176
G1 X-3.58 Y10.60 E0.07189
G1 X-3.64 Y10.51 E0.07194
G1 X-3.82 Y10.19 E0.07211
G1 X-3.93 Y9.91 E0.07225
G1 X-4.01 Y9.75 E0.07234
G1 X-4.13 Y9.40 E0.07251
G1 X-4.22 Y8.98 E0.07271
G1 X-4.23 Y8.92 E0.07274
G1 X-4.24 Y8.87 E0.07276
G1 X-4.30 Y8.60 E0.07290
G1 X-4.32 Y8.39 E0.07299
G1 X-4.34 Y8.15 E0.07311
G1 X-4.35 Y8.02 E0.07317
G1 X-4.36 Y7.95 E0.07320
G1 X-4.37 Y7.67 E0.07333
G1 X-4.37 Y7.58 E0.07337
G1 X-4.37 Y7.31 E0.07350
G1 X-4.37 Y7.26 E0.07353
G1 X-4.37 Y7.25 E0.07353
G1 X-4.37 Y7.18 E0.07356
G1 X-4.37 Y7.03 E0.07363
G1 X-4.33 Y6.47 E0.07390
G1 X-4.32 Y6.33 E0.07396
G1 X-4.19 Y5.49 E0.07436
G1 X-4.18 Y5.45 E0.07438
G1 X-4.13 Y5.17 E0.07452
G1 X-4.08 Y4.96 E0.07462
G1 X-3.98 Y4.68 E0.07476
G1 X-3.96 Y4.60 E0.07480
G1 X-3.94 Y4.54 E0.07483
G1 X-3.83 Y4.22 E0.07499
G1 X-3.65 Y3.87 E0.07517
G1 X-3.59 Y3.78 E0.07522
G1 X-3.58 Y3.76 E0.07523
G1 X-3.43 Y3.50 E0.07537
G1 X-3.18 Y3.17 E0.07557
G1 X-3.15 Y3.14 E0.07559
G1 X-3.03 Y2.97 E0.07569
G1 X-2.60 Y2.56 E0.07597
G1 X-2.57 Y2.55 E0.07598
G1 X-2.53 Y2.50 E0.07601
G1 X-1.72 Y2.00 E0.07646
G1 X-0.87 Y1.79 E0.07687
G1 X-0.60 Y1.75 E0.07700
G1 X-0.06 Y1.72 E0.07725
G0 X-0.00 Y4.97
G0 X-0.00 Y4.97
G0 X-0.00 Y4.82
;TYPE:WALL-OUTER
G1 X0.41 Y4.86 E0.07745
G1 X0.49 Y4.89 E0.07749
G1 X0.55 Y4.95 E0.07753
G1 X0.62 Y4.98 E0.07757
G1 X0.69 Y5.02 E0.07760
G1 X0.78 Y5.16 E0.07768
G1 X0.84 Y5.22 E0.07772
G1 X0.97 Y5.43 E0.07784
G1 X1.03 Y5.64 E0.07794
G1 X1.10 Y5.84 E0.07804
G1 X1.13 Y5.99 E0.07811
G1 X1.20 Y6.33 E0.07828
G1 X1.22 Y6.53 E0.07837
G1 X1.27 Y7.14 E0.07866
G1 X1.26 Y7.25 E0.07871
G1 X1.27 Y7.55 E0.07885
G1 X1.24 Y7.93 E0.07903
G1 X1.23 Y8.10 E0.07911
G1 X1.18 Y8.34 E0.07922
G1 X1.13 Y8.57 E0.07934
G1 X1.04 Y8.81 E0.07945
G1 X1.01 Y8.86 E0.07948
G1 X0.94 Y8.96 E0.07954
G1 X0.84 Y9.15 E0.07964
G1 X0.68 Y9.30 E0.07975
G1 X0.62 Y9.38 E0.07979
G1 X0.31 Y9.52 E0.07995
G1 X0.11 Y9.55 E0.08005
G1 X0.01 Y9.56 E0.08010
G1 X-0.20 Y9.54 E0.08019
G1 X-0.50 Y9.44 E0.08034
G1 X-0.61 Y9.38 E0.08040
G1 X-0.68 Y9.29 E0.08045
G1 X-0.84 Y9.15 E0.08055
G1 X-0.94 Y8.96 E0.08066
G1 X-1.01 Y8.87 E0.08071
G1 X-1.09 Y8.67 E0.08081
G1 X-1.13 Y8.57 E0.08086
G1 X-1.18 Y8.34 E0.08097
G1 X-1.23 Y8.10 E0.08109
G1 X-1.24 Y7.93 E0.08117
G1 X-1.27 Y7.55 E0.08134
G1 X-1.26 Y7.25 E0.08149
G1 X-1.27 Y7.15 E0.08154
G1 X-1.24 Y6.73 E0.08173
G1 X-1.10 Y5.83 E0.08216
G1 X-0.97 Y5.44 E0.08236
G1 X-0.87 Y5.26 E0.08245
G1 X-0.84 Y5.21 E0.08248
G1 X-0.82 Y5.19 E0.08249
G1 X-0.79 Y5.16 E0.08251
G1 X-0.69 Y5.02 E0.08259
G1 X-0.54 Y4.94 E0.08267
G1 X-0.50 Y4.89 E0.08270
G1 X-0.27 Y4.84 E0.08281
G1 X-0.00 Y4.82 E0.08294
G0 X-0.01 Y5.07
;LAYER:1
G0 X-0.00 Y4.26 Z0.06
;TYPE:WALL-OUTER
G1 X0.24 Y4.28 E0.08305
G1 X0.39 Y4.32 E0.08313
G1 X0.51 Y4.37 E0.08319
G1 X0.69 Y4.49 E0.08329
G1 X0.76 Y4.58 E0.08334
G1 X0.96 Y4.86 E0.08351
G1 X1.06 Y5.09 E0.08362
G1 X1.16 Y5.40 E0.08378
G1 X1.39 Y6.63 E0.08437
