;Generated with Cura_SteamEngine 13.11.2


;Layer count: 839
;LAYER:0
M107
G0 F6000 X0.03 Y-0.03 Z0.03
;TYPE:SKIRT
G1 F6000 E0.00000
G1 X0.16 Y-0.03 E0.00006
G1 X0.24 Y-0.02 E0.00010
G1 X0.39 Y-0.01 E0.00017
G1 X0.47 Y-0.01 E0.00021
G1 X0.61 Y0.01 E0.00028
G1 X0.69 Y0.02 E0.00032
G1 X0.87 Y0.05 E0.00040
G1 X1.01 Y0.08 E0.00047
G1 X1.21 Y0.13 E0.00056
G1 X1.34 Y0.16 E0.00063
G1 X1.53 Y0.23 E0.00072
G1 X1.68 Y0.29 E0.00080
G1 X2.20 Y0.51 E0.00106
G1 X2.57 Y0.80 E0.00128
G1 X2.59 Y0.81 E0.00129
G1 X2.61 Y0.83 E0.00131
G1 X2.87 Y1.03 E0.00146
G1 X2.92 Y1.10 E0.00150
G1 X2.96 Y1.13 E0.00153
G1 X3.33 Y1.55 E0.00179
G1 X3.44 Y1.69 E0.00187
G1 X3.61 Y1.93 E0.00201
G1 X3.78 Y2.22 E0.00217
G1 X3.91 Y2.51 E0.00232
G1 X3.91 Y2.52 E0.00232
G1 X3.97 Y2.65 E0.00239
G1 X4.01 Y2.73 E0.00243
G1 X4.08 Y2.93 E0.00253
G1 X4.12 Y3.06 E0.00259
G1 X4.18 Y3.26 E0.00269
G1 X4.20 Y3.33 E0.00273
G1 X4.25 Y3.52 E0.00282
G1 X4.26 Y3.58 E0.00285
G1 X4.28 Y3.66 E0.00289
G1 X4.29 Y3.68 E0.00290
G1 X4.32 Y3.81 E0.00296
G1 X4.35 Y3.96 E0.00303
G1 X4.40 Y4.29 E0.00319
G1 X4.41 Y4.39 E0.00323
G1 X4.41 Y4.43 E0.00326
G1 X4.42 Y4.46 E0.00327
G1 X4.45 Y4.70 E0.00338
G1 X4.45 Y4.82 E0.00344
G1 X4.49 Y5.58 E0.00380
G1 X4.49 Y5.68 E0.00384
G1 X4.48 Y5.97 E0.00398
G1 X4.47 Y6.14 E0.00406
G1 X4.45 Y6.32 E0.00415
G1 X4.44 Y6.43 E0.00420
G1 X4.43 Y6.49 E0.00423
G1 X4.41 Y6.70 E0.00432
G1 X4.39 Y6.80 E0.00437
G1 X4.35 Y7.02 E0.00448
G1 X4.33 Y7.12 E0.00453
G1 X4.28 Y7.34 E0.00463
G1 X4.24 Y7.46 E0.00469
G1 X4.19 Y7.62 E0.00477
G1 X4.15 Y7.76 E0.00484
G1 X4.09 Y7.93 E0.00492
G1 X3.97 Y8.20 E0.00506
G1 X3.88 Y8.40 E0.00517
G1 X3.74 Y8.65 E0.00530
G1 X3.65 Y8.78 E0.00537
G1 X3.55 Y8.92 E0.00546
G1 X3.42 Y9.12 E0.00557
G1 X3.29 Y9.27 E0.00566
G1 X3.23 Y9.35 E0.00571
G1 X2.80 Y9.80 E0.00600
G1 X2.40 Y10.08 E0.00623
G1 X2.26 Y10.18 E0.00631
G1 X2.04 Y10.30 E0.00643
G1 X1.91 Y10.37 E0.00650
G1 X1.69 Y10.47 E0.00661
G1 X1.52 Y10.53 E0.00670
G1 X1.29 Y10.61 E0.00681
G1 X1.16 Y10.65 E0.00688
G1 X0.88 Y10.72 E0.00701
G1 X0.62 Y10.77 E0.00714
G1 X0.16 Y10.81 E0.00735
G1 X-0.16 Y10.81 E0.00750
G1 X-0.61 Y10.77 E0.00772
G1 X-0.87 Y10.72 E0.00784
G1 X-1.15 Y10.65 E0.00797
G1 X-1.29 Y10.61 E0.00804
G1 X-1.52 Y10.53 E0.00816
G1 X-1.68 Y10.47 E0.00824
G1 X-1.90 Y10.37 E0.00836
G1 X-2.03 Y10.30 E0.00842
G1 X-2.24 Y10.18 E0.00854
G1 X-2.38 Y10.09 E0.00862
G1 X-2.78 Y9.81 E0.00884
G1 X-3.22 Y9.36 E0.00914
G1 X-3.27 Y9.29 E0.00918
G1 X-3.44 Y9.08 E0.00931
G1 X-3.82 Y8.51 E0.00963
G1 X-4.00 Y8.15 E0.00982
G1 X-4.16 Y7.71 E0.01004
G1 X-4.18 Y7.65 E0.01007
G1 X-4.25 Y7.43 E0.01018
G1 X-4.30 Y7.26 E0.01026
G1 X-4.38 Y6.88 E0.01045
G1 X-4.40 Y6.74 E0.01051
G1 X-4.43 Y6.50 E0.01062
G1 X-4.44 Y6.42 E0.01066
G1 X-4.45 Y6.33 E0.01070
G1 X-4.48 Y6.10 E0.01081
G1 X-4.49 Y5.77 E0.01097
G1 X-4.49 Y5.73 E0.01099
G1 X-4.49 Y5.70 E0.01100
G1 X-4.49 Y5.61 E0.01105
G1 X-4.49 Y5.50 E0.01110
G1 X-4.49 Y5.43 E0.01113
G1 X-4.48 Y5.20 E0.01124
G1 X-4.47 Y5.12 E0.01128
G1 X-4.42 Y4.43 E0.01160
G1 X-4.39 Y4.24 E0.01169
G1 X-4.28 Y3.62 E0.01199
G1 X-4.26 Y3.53 E0.01203
G1 X-4.20 Y3.30 E0.01214
G1 X-4.16 Y3.17 E0.01221
G1 X-4.04 Y2.82 E0.01238
G1 X-3.98 Y2.66 E0.01246
G1 X-3.93 Y2.55 E0.01252
G1 X-3.86 Y2.39 E0.01260
G1 X-3.79 Y2.24 E0.01268
G1 X-3.63 Y1.96 E0.01283
G1 X-3.46 Y1.71 E0.01297
G1 X-3.27 Y1.47 E0.01312
G1 X-3.16 Y1.35 E0.01319
G1 X-3.10 Y1.29 E0.01323
G1 X-2.95 Y1.12 E0.01334
G1 X-2.93 Y1.10 E0.01335
G1 X-2.87 Y1.03 E0.01339
G1 X-2.19 Y0.50 E0.01380
G1 X-1.67 Y0.28 E0.01406
G1 X-1.54 Y0.23 E0.01413
G1 X-1.35 Y0.17 E0.01423
G1 X-1.21 Y0.12 E0.01430
G1 X-1.01 Y0.08 E0.01439
G1 X-0.88 Y0.05 E0.01446
G1 X-0.70 Y0.02 E0.01454
G1 X-0.62 Y0.01 E0.01458
G1 X-0.47 Y-0.01 E0.01465
G1 X-0.39 Y-0.01 E0.01469
G1 X-0.24 Y-0.02 E0.01476
G1 X-0.16 Y-0.03 E0.01479
G1 X-0.03 Y-0.03 E0.01486
G1 X0.03 Y-0.03 E0.01488
G0 X0.03 Y0.07
G1 X0.15 Y0.07 E0.01494
G1 X0.23 Y0.08 E0.01498
G1 X0.38 Y0.09 E0.01505
G1 X0.46 Y0.09 E0.01509
G1 X0.60 Y0.11 E0.01515
G1 X0.68 Y0.12 E0.01519
G1 X0.85 Y0.15 E0.01527
G1 X0.99 Y0.17 E0.01534
G1 X1.18 Y0.22 E0.01543
G1 X1.31 Y0.26 E0.01549
G1 X1.50 Y0.32 E0.01559
G1 X1.64 Y0.38 E0.01566
G1 X2.15 Y0.60 E0.01592
G1 X2.52 Y0.88 E0.01614
G1 X2.53 Y0.89 E0.01615
G1 X2.54 Y0.90 E0.01616
G1 X2.80 Y1.10 E0.01631
G1 X2.85 Y1.17 E0.01635
G1 X2.89 Y1.21 E0.01637
G1 X3.25 Y1.62 E0.01663
G1 X3.36 Y1.75 E0.01671
G1 X3.53 Y1.98 E0.01685
G1 X3.69 Y2.26 E0.01700
G1 X3.82 Y2.55 E0.01715
G1 X3.82 Y2.56 E0.01715
G1 X3.88 Y2.69 E0.01722
G1 X3.91 Y2.77 E0.01726
G1 X3.99 Y2.97 E0.01736
G1 X4.03 Y3.09 E0.01742
G1 X4.09 Y3.29 E0.01752
G1 X4.11 Y3.36 E0.01755
G1 X4.15 Y3.54 E0.01764
G1 X4.17 Y3.61 E0.01767
G1 X4.18 Y3.68 E0.01771
G1 X4.19 Y3.71 E0.01772
G1 X4.22 Y3.83 E0.01778
G1 X4.25 Y3.97 E0.01785
G1 X4.30 Y4.30 E0.01800
G1 X4.31 Y4.41 E0.01806
G1 X4.32 Y4.44 E0.01807
G1 X4.32 Y4.47 E0.01808
G1 X4.35 Y4.70 E0.01819
G1 X4.36 Y4.83 E0.01825
G1 X4.39 Y5.58 E0.01861
G1 X4.39 Y5.68 E0.01865
G1 X4.38 Y5.97 E0.01879
G1 X4.37 Y6.13 E0.01887
G1 X4.35 Y6.34 E0.01896
G1 X4.34 Y6.42 E0.01900
G1 X4.33 Y6.48 E0.01903
G1 X4.31 Y6.68 E0.01913
G1 X4.29 Y6.78 E0.01917
G1 X4.26 Y7.00 E0.01928
G1 X4.23 Y7.10 E0.01932
G1 X4.18 Y7.32 E0.01943
G1 X4.15 Y7.43 E0.01949
G1 X4.11 Y7.54 E0.01954
G1 X4.05 Y7.73 E0.01963
G1 X4.00 Y7.89 E0.01971
G1 X3.88 Y8.16 E0.01985
G1 X3.79 Y8.35 E0.01995
G1 X3.65 Y8.59 E0.02008
G1 X3.57 Y8.72 E0.02016
G1 X3.47 Y8.86 E0.02024
G1 X3.34 Y9.06 E0.02035
G1 X3.21 Y9.22 E0.02044
G1 X3.16 Y9.29 E0.02049
G1 X2.74 Y9.72 E0.02077
G1 X2.35 Y10.00 E0.02099
G1 X2.20 Y10.09 E0.02107
G1 X1.99 Y10.21 E0.02119
G1 X1.87 Y10.28 E0.02126
G1 X1.65 Y10.38 E0.02137
G1 X1.49 Y10.44 E0.02145
G1 X1.26 Y10.52 E0.02156
G1 X1.13 Y10.56 E0.02162
G1 X0.86 Y10.63 E0.02176
G1 X0.60 Y10.67 E0.02188
G1 X0.16 Y10.71 E0.02209
G1 X-0.15 Y10.71 E0.02224
G1 X-0.60 Y10.67 E0.02244
G1 X-0.85 Y10.63 E0.02256
G1 X-1.12 Y10.56 E0.02270
G1 X-1.25 Y10.52 E0.02276
G1 X-1.48 Y10.44 E0.02288
G1 X-1.64 Y10.38 E0.02296
G1 X-1.86 Y10.28 E0.02307
G1 X-1.99 Y10.21 E0.02314
G1 X-2.19 Y10.09 E0.02325
G1 X-2.33 Y10.01 E0.02332
G1 X-2.72 Y9.73 E0.02355
G1 X-3.14 Y9.30 E0.02383
G1 X-3.19 Y9.23 E0.02387
G1 X-3.36 Y9.02 E0.02400
G1 X-3.73 Y8.46 E0.02432
G1 X-3.91 Y8.11 E0.02450
G1 X-4.07 Y7.68 E0.02472
G1 X-4.09 Y7.62 E0.02475
G1 X-4.16 Y7.41 E0.02485
G1 X-4.20 Y7.24 E0.02493
G1 X-4.28 Y6.86 E0.02512
G1 X-4.30 Y6.73 E0.02518
G1 X-4.33 Y6.49 E0.02529
G1 X-4.34 Y6.41 E0.02533
G1 X-4.35 Y6.33 E0.02537
G1 X-4.38 Y6.09 E0.02548
G1 X-4.39 Y5.77 E0.02563
G1 X-4.39 Y5.73 E0.02565
G1 X-4.39 Y5.70 E0.02566
G1 X-4.39 Y5.61 E0.02571
G1 X-4.39 Y5.50 E0.02576
G1 X-4.39 Y5.43 E0.02579
G1 X-4.38 Y5.20 E0.02590
G1 X-4.37 Y5.13 E0.02593
G1 X-4.32 Y4.44 E0.02626
G1 X-4.30 Y4.26 E0.02634
G1 X-4.18 Y3.64 E0.02664
G1 X-4.16 Y3.55 E0.02668
G1 X-4.10 Y3.33 E0.02679
G1 X-4.06 Y3.20 E0.02685
G1 X-3.95 Y2.86 E0.02702
G1 X-3.88 Y2.69 E0.02711
G1 X-3.82 Y2.55 E0.02718
G1 X-3.77 Y2.43 E0.02724
G1 X-3.70 Y2.29 E0.02732
G1 X-3.55 Y2.01 E0.02746
G1 X-3.38 Y1.77 E0.02760
G1 X-3.19 Y1.54 E0.02774
G1 X-3.09 Y1.41 E0.02782
G1 X-3.04 Y1.36 E0.02785
G1 X-2.88 Y1.19 E0.02796
G1 X-2.85 Y1.17 E0.02798
G1 X-2.80 Y1.10 E0.02802
G1 X-2.14 Y0.59 E0.02841
G1 X-1.63 Y0.38 E0.02867
G1 X-1.51 Y0.33 E0.02873
G1 X-1.32 Y0.26 E0.02883
G1 X-1.18 Y0.22 E0.02890
G1 X-0.99 Y0.17 E0.02899
G1 X-0.86 Y0.15 E0.02905
G1 X-0.69 Y0.12 E0.02913
G1 X-0.61 Y0.11 E0.02917
G1 X-0.46 Y0.09 E0.02924
G1 X-0.38 Y0.09 E0.02928
G1 X-0.24 Y0.08 E0.02935
G1 X-0.16 Y0.07 E0.02938
G1 X-0.03 Y0.07 E0.02944
G1 X0.03 Y0.07 E0.02947
G0 X0.03 Y0.17
G1 X0.15 Y0.17 E0.02953
G1 X0.23 Y0.18 E0.02956
G1 X0.37 Y0.19 E0.02963
G1 X0.45 Y0.19 E0.02967
G1 X0.59 Y0.21 E0.02974
G1 X0.67 Y0.22 E0.02977
G1 X0.83 Y0.25 E0.02985
G1 X0.97 Y0.27 E0.02992
G1 X1.16 Y0.32 E0.03001
G1 X1.28 Y0.35 E0.03007
G1 X1.47 Y0.42 E0.03016
G1 X1.61 Y0.47 E0.03023
G1 X2.10 Y0.69 E0.03048
G1 X2.45 Y0.96 E0.03070
G1 X2.47 Y0.97 E0.03070
G1 X2.49 Y0.99 E0.03072
G1 X2.73 Y1.17 E0.03086
G1 X2.77 Y1.23 E0.03089
G1 X2.83 Y1.28 E0.03092
G1 X3.18 Y1.68 E0.03118
G1 X3.28 Y1.81 E0.03125
G1 X3.44 Y2.04 E0.03138
G1 X3.60 Y2.31 E0.03153
G1 X3.73 Y2.59 E0.03168
G1 X3.73 Y2.60 E0.03168
G1 X3.79 Y2.73 E0.03175
G1 X3.82 Y2.81 E0.03179
G1 X3.89 Y3.00 E0.03189
G1 X3.93 Y3.12 E0.03194
G1 X3.99 Y3.32 E0.03204
G1 X4.01 Y3.38 E0.03207
G1 X4.05 Y3.56 E0.03216
G1 X4.07 Y3.63 E0.03219
G1 X4.09 Y3.70 E0.03223
G1 X4.09 Y3.71 E0.03223
G1 X4.09 Y3.73 E0.03224
G1 X4.12 Y3.85 E0.03230
G1 X4.15 Y3.99 E0.03237
G1 X4.20 Y4.31 E0.03252
G1 X4.21 Y4.45 E0.03258
G1 X4.22 Y4.45 E0.03259
G1 X4.22 Y4.48 E0.03260
G1 X4.25 Y4.71 E0.03271
G1 X4.26 Y4.83 E0.03277
G1 X4.28 Y5.58 E0.03312
G1 X4.29 Y5.68 E0.03317
G1 X4.28 Y5.96 E0.03330
G1 X4.27 Y6.12 E0.03337
G1 X4.25 Y6.28 E0.03345
G1 X4.24 Y6.41 E0.03351
G1 X4.23 Y6.47 E0.03354
G1 X4.21 Y6.67 E0.03363
G1 X4.20 Y6.76 E0.03368
G1 X4.16 Y6.98 E0.03378
G1 X4.14 Y7.07 E0.03383
G1 X4.08 Y7.29 E0.03393
G1 X4.05 Y7.40 E0.03398
G1 X4.00 Y7.56 E0.03406
G1 X3.96 Y7.70 E0.03413
G1 X3.90 Y7.85 E0.03421
G1 X3.79 Y8.12 E0.03435
G1 X3.70 Y8.30 E0.03444
G1 X3.57 Y8.54 E0.03457
G1 X3.49 Y8.67 E0.03464
G1 X3.39 Y8.81 E0.03472
G1 X3.26 Y9.00 E0.03483
G1 X3.13 Y9.15 E0.03493
G1 X3.08 Y9.23 E0.03497
G1 X2.67 Y9.65 E0.03524
G1 X2.29 Y9.92 E0.03546
G1 X2.15 Y10.01 E0.03554
G1 X1.94 Y10.12 E0.03565
G1 X1.82 Y10.19 E0.03572
G1 X1.61 Y10.28 E0.03583
G1 X1.45 Y10.35 E0.03590
G1 X1.23 Y10.42 E0.03601
G1 X1.11 Y10.46 E0.03608
G1 X0.84 Y10.53 E0.03620
G1 X0.59 Y10.57 E0.03632
G1 X0.15 Y10.61 E0.03653
G1 X-0.15 Y10.61 E0.03667
G1 X-0.58 Y10.57 E0.03688
G1 X-0.83 Y10.53 E0.03699
G1 X-1.09 Y10.46 E0.03712
G1 X-1.23 Y10.42 E0.03719
G1 X-1.45 Y10.35 E0.03730
G1 X-1.60 Y10.28 E0.03738
G1 X-1.82 Y10.19 E0.03749
G1 X-1.94 Y10.12 E0.03755
G1 X-2.14 Y10.01 E0.03766
G1 X-2.27 Y9.92 E0.03774
G1 X-2.65 Y9.66 E0.03795
G1 X-3.06 Y9.24 E0.03823
G1 X-3.11 Y9.17 E0.03827
G1 X-3.28 Y8.96 E0.03839
G1 X-3.65 Y8.41 E0.03871
G1 X-3.82 Y8.07 E0.03889
G1 X-3.97 Y7.64 E0.03910
G1 X-3.99 Y7.59 E0.03913
G1 X-4.06 Y7.38 E0.03923
G1 X-4.10 Y7.22 E0.03931
G1 X-4.18 Y6.84 E0.03949
G1 X-4.20 Y6.71 E0.03955
G1 X-4.23 Y6.48 E0.03966
G1 X-4.24 Y6.40 E0.03970
G1 X-4.25 Y6.31 E0.03974
G1 X-4.28 Y6.09 E0.03985
G1 X-4.29 Y5.77 E0.03999
G1 X-4.28 Y5.73 E0.04002
G1 X-4.29 Y5.70 E0.04003
G1 X-4.29 Y5.61 E0.04007
G1 X-4.28 Y5.58 E0.04008
G1 X-4.29 Y5.50 E0.04012
G1 X-4.28 Y5.44 E0.04015
G1 X-4.28 Y5.21 E0.04026
G1 X-4.27 Y5.13 E0.04030
G1 X-4.22 Y4.45 E0.04062
G1 X-4.20 Y4.27 E0.04070
G1 X-4.08 Y3.66 E0.04099
G1 X-4.06 Y3.58 E0.04104
G1 X-4.01 Y3.35 E0.04114
G1 X-3.97 Y3.23 E0.04120
G1 X-3.86 Y2.89 E0.04137
G1 X-3.79 Y2.73 E0.04145
G1 X-3.74 Y2.61 E0.04152
G1 X-3.68 Y2.47 E0.04159
G1 X-3.61 Y2.33 E0.04166
G1 X-3.46 Y2.06 E0.04180
G1 X-3.30 Y1.83 E0.04194
G1 X-3.12 Y1.60 E0.04207
G1 X-3.01 Y1.48 E0.04215
G1 X-2.96 Y1.43 E0.04218
G1 X-2.81 Y1.26 E0.04229
G1 X-2.78 Y1.24 E0.04231
G1 X-2.73 Y1.17 E0.04235
G1 X-2.09 Y0.68 E0.04273
G1 X-1.60 Y0.47 E0.04298
G1 X-1.48 Y0.42 E0.04304
G1 X-1.29 Y0.36 E0.04313
G1 X-1.15 Y0.32 E0.04320
G1 X-0.96 Y0.27 E0.04329
G1 X-0.84 Y0.25 E0.04335
G1 X-0.68 Y0.22 E0.04343
G1 X-0.60 Y0.21 E0.04347
G1 X-0.45 Y0.19 E0.04353
G1 X-0.37 Y0.19 E0.04357
G1 X-0.23 Y0.18 E0.04364
G1 X-0.15 Y0.17 E0.04367
G1 X-0.03 Y0.17 E0.04373
G1 X0.03 Y0.17 E0.04376
G0 X0.02 Y0.27
G1 X0.15 Y0.27 E0.04382
G1 X0.22 Y0.28 E0.04385
G1 X0.36 Y0.28 E0.04392
G1 X0.44 Y0.29 E0.04395
G1 X0.58 Y0.31 E0.04402
G1 X0.65 Y0.32 E0.04406
G1 X0.82 Y0.34 E0.04413
G1 X0.95 Y0.37 E0.04420
G1 X1.13 Y0.42 E0.04429
G1 X1.25 Y0.45 E0.04434
G1 X1.43 Y0.51 E0.04443
G1 X1.57 Y0.56 E0.04450
G1 X2.04 Y0.77 E0.04475
G1 X2.40 Y1.05 E0.04496
G1 X2.41 Y1.05 E0.04496
G1 X2.42 Y1.06 E0.04497
G1 X2.66 Y1.25 E0.04511
G1 X2.70 Y1.30 E0.04515
G1 X2.75 Y1.35 E0.04518
G1 X3.10 Y1.74 E0.04542
G1 X3.20 Y1.87 E0.04550
G1 X3.36 Y2.09 E0.04563
G1 X3.51 Y2.36 E0.04577
G1 X3.64 Y2.63 E0.04592
G1 X3.64 Y2.64 E0.04592
G1 X3.69 Y2.77 E0.04598
G1 X3.73 Y2.85 E0.04602
G1 X3.80 Y3.04 E0.04612
G1 X3.84 Y3.15 E0.04618
G1 X3.89 Y3.34 E0.04627
G1 X3.91 Y3.41 E0.04630
G1 X3.96 Y3.59 E0.04639
G1 X3.97 Y3.65 E0.04642
G1 X3.99 Y3.72 E0.04646
G1 X3.99 Y3.74 E0.04646
G1 X3.99 Y3.76 E0.04647
G1 X4.03 Y3.88 E0.04653
G1 X4.05 Y4.01 E0.04659
G1 X4.10 Y4.32 E0.04674
G1 X4.11 Y4.46 E0.04681
G1 X4.12 Y4.47 E0.04681
G1 X4.12 Y4.50 E0.04682
G1 X4.15 Y4.72 E0.04693
G1 X4.16 Y4.84 E0.04699
G1 X4.18 Y5.59 E0.04734
G1 X4.19 Y5.68 E0.04738
G1 X4.18 Y5.96 E0.04751
G1 X4.17 Y6.11 E0.04759
G1 X4.15 Y6.30 E0.04767
G1 X4.14 Y6.40 E0.04772
G1 X4.14 Y6.45 E0.04775
G1 X4.11 Y6.66 E0.04784
G1 X4.10 Y6.75 E0.04789
G1 X4.06 Y6.96 E0.04799
G1 X4.04 Y7.05 E0.04803
G1 X3.99 Y7.26 E0.04813
G1 X3.96 Y7.37 E0.04819
G1 X3.91 Y7.53 E0.04827
G1 X3.86 Y7.67 E0.04833
G1 X3.81 Y7.82 E0.04841
G1 X3.70 Y8.08 E0.04854
G1 X3.61 Y8.26 E0.04864
G1 X3.48 Y8.49 E0.04876
G1 X3.40 Y8.61 E0.04883
G1 X3.31 Y8.75 E0.04891
G1 X3.18 Y8.94 E0.04901
G1 X3.05 Y9.10 E0.04911
G1 X3.00 Y9.16 E0.04915
G1 X2.61 Y9.57 E0.04942
G1 X2.24 Y9.83 E0.04963
G1 X2.10 Y9.92 E0.04971
G1 X1.90 Y10.04 E0.04982
G1 X1.78 Y10.10 E0.04988
G1 X1.57 Y10.19 E0.04999
G1 X1.42 Y10.25 E0.05006
G1 X1.20 Y10.33 E0.05017
G1 X1.08 Y10.36 E0.05023
G1 X0.82 Y10.43 E0.05036
G1 X0.58 Y10.47 E0.05047
G1 X0.15 Y10.51 E0.05068
G1 X-0.14 Y10.51 E0.05081
G1 X-0.57 Y10.47 E0.05101
G1 X-0.81 Y10.43 E0.05113
G1 X-1.07 Y10.36 E0.05125
G1 X-1.20 Y10.33 E0.05132
G1 X-1.41 Y10.25 E0.05142
G1 X-1.56 Y10.19 E0.05150
G1 X-1.77 Y10.10 E0.05161
G1 X-1.89 Y10.04 E0.05167
G1 X-2.09 Y9.92 E0.05178
G1 X-2.22 Y9.84 E0.05185
G1 X-2.59 Y9.58 E0.05206
G1 X-2.99 Y9.17 E0.05233
G1 X-3.04 Y9.10 E0.05237
G1 X-3.20 Y8.90 E0.05249
G1 X-3.56 Y8.36 E0.05280
G1 X-3.73 Y8.03 E0.05297
G1 X-3.88 Y7.61 E0.05318
G1 X-3.90 Y7.56 E0.05321
G1 X-3.96 Y7.35 E0.05331
G1 X-4.01 Y7.19 E0.05339
G1 X-4.08 Y6.82 E0.05357
G1 X-4.10 Y6.70 E0.05363
G1 X-4.13 Y6.47 E0.05373
G1 X-4.14 Y6.39 E0.05377
G1 X-4.15 Y6.29 E0.05382
G1 X-4.18 Y6.08 E0.05392
G1 X-4.19 Y5.78 E0.05406
G1 X-4.18 Y5.73 E0.05408
G1 X-4.19 Y5.70 E0.05410
G1 X-4.19 Y5.61 E0.05414
G1 X-4.18 Y5.59 E0.05415
G1 X-4.19 Y5.50 E0.05419
G1 X-4.18 Y5.44 E0.05422
G1 X-4.18 Y5.21 E0.05433
G1 X-4.17 Y5.14 E0.05436
G1 X-4.12 Y4.46 E0.05468
G1 X-4.10 Y4.29 E0.05476
G1 X-3.98 Y3.68 E0.05505
G1 X-3.96 Y3.60 E0.05509
G1 X-3.91 Y3.38 E0.05520
G1 X-3.87 Y3.26 E0.05526
G1 X-3.76 Y2.93 E0.05542
G1 X-3.70 Y2.77 E0.05550
G1 X-3.63 Y2.62 E0.05558
G1 X-3.59 Y2.51 E0.05563
G1 X-3.52 Y2.38 E0.05571
G1 X-3.37 Y2.12 E0.05585
G1 X-3.22 Y1.89 E0.05598
G1 X-3.04 Y1.66 E0.05611
G1 X-2.94 Y1.55 E0.05618
G1 X-2.88 Y1.50 E0.05622
G1 X-2.74 Y1.34 E0.05632
G1 X-2.71 Y1.31 E0.05634
G1 X-2.66 Y1.25 E0.05638
G1 X-2.04 Y0.76 E0.05675
G1 X-1.56 Y0.56 E0.05699
G1 X-1.44 Y0.51 E0.05705
G1 X-1.26 Y0.45 E0.05714
G1 X-1.13 Y0.41 E0.05721
G1 X-0.94 Y0.37 E0.05730
G1 X-0.82 Y0.34 E0.05735
G1 X-0.66 Y0.32 E0.05743
G1 X-0.58 Y0.31 E0.05747
G1 X-0.44 Y0.29 E0.05753
G1 X-0.37 Y0.28 E0.05757
G1 X-0.23 Y0.28 E0.05764
G1 X-0.15 Y0.27 E0.05767
G1 X-0.03 Y0.27 E0.05773
G1 X0.02 Y0.27 E0.05775
G0 X0.02 Y0.37
G1 X0.15 Y0.37 E0.05781
G1 X0.22 Y0.38 E0.05785
G1 X0.35 Y0.38 E0.05791
G1 X0.43 Y0.39 E0.05795
G1 X0.56 Y0.41 E0.05801
G1 X0.64 Y0.42 E0.05804
G1 X0.80 Y0.44 E0.05812
G1 X0.93 Y0.47 E0.05818
G1 X1.11 Y0.51 E0.05827
G1 X1.22 Y0.55 E0.05832
G1 X1.40 Y0.61 E0.05841
G1 X1.53 Y0.66 E0.05848
G1 X1.99 Y0.86 E0.05872
G1 X2.34 Y1.13 E0.05893
G1 X2.35 Y1.13 E0.05893
G1 X2.36 Y1.14 E0.05893
G1 X2.58 Y1.32 E0.05907
G1 X2.63 Y1.37 E0.05910
G1 X2.68 Y1.42 E0.05914
G1 X3.02 Y1.81 E0.05938
G1 X3.12 Y1.93 E0.05945
G1 X3.27 Y2.14 E0.05958
G1 X3.42 Y2.40 E0.05972
G1 X3.54 Y2.67 E0.05986
G1 X3.55 Y2.68 E0.05986
G1 X3.60 Y2.81 E0.05992
G1 X3.63 Y2.88 E0.05996
G1 X3.70 Y3.07 E0.06006
G1 X3.74 Y3.18 E0.06011
G1 X3.80 Y3.37 E0.06021
G1 X3.82 Y3.43 E0.06024
G1 X3.86 Y3.61 E0.06032
G1 X3.87 Y3.67 E0.06035
G1 X3.89 Y3.75 E0.06039
G1 X3.90 Y3.78 E0.06040
G1 X3.93 Y3.90 E0.06046
G1 X3.95 Y4.03 E0.06052
G1 X4.00 Y4.34 E0.06067
G1 X4.02 Y4.48 E0.06074
G1 X4.02 Y4.51 E0.06075
G1 X4.05 Y4.73 E0.06086
G1 X4.05 Y4.85 E0.06091
G1 X4.09 Y5.59 E0.06126
G1 X4.09 Y5.68 E0.06130
G1 X4.08 Y5.95 E0.06143
G1 X4.07 Y6.11 E0.06150
G1 X4.05 Y6.27 E0.06158
