;Generated with Cura_SteamEngine 13.11.2


;Layer count: 839
;LAYER:0
M107
G0 F6000 X-0.07 Y-1.91 Z0.01
;TYPE:SKIRT
G1 F6000 E0.00000
G1 X0.16 Y-1.91 E0.00004
G1 X0.23 Y-1.90 E0.00005
G1 X0.26 Y-1.90 E0.00005
G1 X0.52 Y-1.87 E0.00009
G1 X0.86 Y-1.81 E0.00015
G1 X1.19 Y-1.70 E0.00020
G1 X1.40 Y-1.61 E0.00024
G1 X1.43 Y-1.59 E0.00024
G1 X1.62 Y-1.50 E0.00028
G1 X1.92 Y-1.32 E0.00033
G1 X2.20 Y-1.09 E0.00039
G1 X2.41 Y-0.90 E0.00043
G1 X2.69 Y-0.56 E0.00050
G1 X2.95 Y-0.14 E0.00058
G1 X3.01 Y-0.01 E0.00060
G1 X3.13 Y0.19 E0.00064
G1 X3.23 Y0.59 E0.00070
G1 X3.26 Y0.66 E0.00072
G1 X3.29 Y0.80 E0.00074
G1 X3.36 Y1.08 E0.00078
G1 X3.35 Y1.20 E0.00080
G1 X3.36 Y1.23 E0.00081
G1 X3.36 Y1.26 E0.00081
G1 X3.38 Y1.43 E0.00084
G1 X3.38 Y1.45 E0.00084
G1 X3.38 Y1.47 E0.00084
G1 X3.39 Y1.64 E0.00087
G1 X3.40 Y1.79 E0.00089
G1 X3.40 Y1.82 E0.00090
G1 X3.40 Y1.90 E0.00091
G1 X3.40 Y1.93 E0.00092
G1 X3.39 Y2.04 E0.00093
G1 X3.39 Y2.12 E0.00095
G1 X3.38 Y2.30 E0.00097
G1 X3.38 Y2.71 E0.00104
G1 X3.20 Y3.17 E0.00112
G1 X3.19 Y3.18 E0.00112
G1 X3.05 Y3.55 E0.00118
G1 X2.84 Y3.94 E0.00125
G1 X2.82 Y3.96 E0.00125
G1 X2.82 Y3.97 E0.00125
G1 X2.61 Y4.25 E0.00131
G1 X2.44 Y4.44 E0.00135
G1 X2.18 Y4.70 E0.00141
G1 X1.89 Y4.92 E0.00147
G1 X1.52 Y5.14 E0.00153
G1 X1.15 Y5.84 E0.00166
G1 X0.15 Y5.51 E0.00182
G1 X-0.32 Y5.50 E0.00189
G1 X-0.91 Y5.39 E0.00199
G1 X-1.38 Y5.22 E0.00207
G1 X-1.68 Y5.05 E0.00212
G1 X-1.74 Y5.01 E0.00213
G1 X-1.88 Y4.92 E0.00216
G1 X-2.04 Y4.80 E0.00219
G1 X-2.12 Y4.74 E0.00221
G1 X-3.75 Y4.19 E0.00248
G1 X-3.39 Y1.98 E0.00283
G1 X-3.40 Y1.92 E0.00284
G1 X-3.39 Y1.79 E0.00286
G1 X-3.39 Y1.75 E0.00286
G1 X-3.39 Y1.67 E0.00287
G1 X-3.38 Y1.35 E0.00293
G1 X-3.35 Y1.20 E0.00295
G1 X-3.29 Y0.78 E0.00302
G1 X-3.28 Y0.72 E0.00303
G1 X-3.24 Y0.51 E0.00306
G1 X-3.06 Y0.10 E0.00313
G1 X-2.99 Y-0.07 E0.00316
G1 X-2.93 Y-0.18 E0.00318
G1 X-2.89 Y-0.26 E0.00319
G1 X-2.86 Y-0.30 E0.00320
G1 X-2.73 Y-0.52 E0.00324
G1 X-2.46 Y-0.84 E0.00331
G1 X-2.30 Y-1.01 E0.00334
G1 X-2.07 Y-1.21 E0.00339
G1 X-1.80 Y-1.40 E0.00344
G1 X-1.43 Y-1.61 E0.00351
G1 X-1.06 Y-1.75 E0.00357
G1 X-0.49 Y-1.89 E0.00366
G1 X-0.17 Y-1.90 E0.00371
G1 X-0.14 Y-1.91 E0.00372
G1 X-0.07 Y-1.91 E0.00373
G0 X-0.09 Y-2.01
G1 X0.17 Y-2.02 E0.00377
G1 X0.24 Y-2.00 E0.00378
G1 X0.27 Y-2.00 E0.00378
G1 X0.53 Y-1.97 E0.00383
G1 X0.88 Y-1.90 E0.00388
G1 X1.22 Y-1.80 E0.00394
G1 X1.44 Y-1.70 E0.00398
G1 X1.47 Y-1.68 E0.00398
G1 X1.67 Y-1.59 E0.00401
G1 X1.98 Y-1.40 E0.00407
G1 X2.27 Y-1.17 E0.00413
G1 X2.48 Y-0.97 E0.00418
G1 X2.78 Y-0.62 E0.00425
G1 X3.04 Y-0.19 E0.00433
G1 X3.09 Y-0.07 E0.00435
G1 X3.23 Y0.16 E0.00439
G1 X3.33 Y0.56 E0.00445
G1 X3.36 Y0.64 E0.00447
G1 X3.38 Y0.76 E0.00449
G1 X3.46 Y1.07 E0.00454
G1 X3.45 Y1.20 E0.00456
G1 X3.46 Y1.21 E0.00456
G1 X3.46 Y1.25 E0.00456
G1 X3.48 Y1.42 E0.00459
G1 X3.48 Y1.45 E0.00460
G1 X3.48 Y1.46 E0.00460
G1 X3.49 Y1.63 E0.00463
G1 X3.50 Y1.79 E0.00465
G1 X3.50 Y1.82 E0.00465
G1 X3.50 Y1.90 E0.00467
G1 X3.50 Y1.93 E0.00467
G1 X3.49 Y2.04 E0.00469
G1 X3.49 Y2.12 E0.00470
G1 X3.48 Y2.30 E0.00473
G1 X3.48 Y2.73 E0.00480
G1 X3.29 Y3.20 E0.00488
G1 X3.29 Y3.21 E0.00488
G1 X3.14 Y3.59 E0.00494
G1 X2.92 Y3.99 E0.00501
G1 X2.90 Y4.02 E0.00502
G1 X2.90 Y4.02 E0.00502
G1 X2.69 Y4.31 E0.00508
G1 X2.52 Y4.51 E0.00512
G1 X2.24 Y4.78 E0.00518
G1 X1.94 Y5.01 E0.00524
G1 X1.60 Y5.21 E0.00530
G1 X1.20 Y5.96 E0.00543
G1 X0.14 Y5.61 E0.00561
G1 X-0.33 Y5.59 E0.00568
G1 X-0.94 Y5.48 E0.00578
G1 X-1.42 Y5.31 E0.00586
G1 X-1.73 Y5.13 E0.00591
G1 X-1.79 Y5.10 E0.00593
G1 X-1.94 Y5.01 E0.00595
G1 X-2.11 Y4.89 E0.00598
G1 X-2.17 Y4.83 E0.00600
G1 X-3.86 Y4.26 E0.00628
G1 X-3.49 Y1.98 E0.00664
G1 X-3.50 Y1.92 E0.00665
G1 X-3.49 Y1.78 E0.00667
G1 X-3.49 Y1.74 E0.00668
G1 X-3.49 Y1.67 E0.00669
G1 X-3.48 Y1.33 E0.00674
G1 X-3.45 Y1.19 E0.00676
G1 X-3.39 Y0.75 E0.00683
G1 X-3.37 Y0.70 E0.00684
G1 X-3.34 Y0.48 E0.00688
G1 X-3.15 Y0.05 E0.00695
G1 X-3.08 Y-0.11 E0.00698
G1 X-3.02 Y-0.22 E0.00700
G1 X-2.98 Y-0.31 E0.00701
G1 X-2.94 Y-0.36 E0.00702
G1 X-2.81 Y-0.58 E0.00706
G1 X-2.54 Y-0.91 E0.00713
G1 X-2.37 Y-1.08 E0.00717
G1 X-2.13 Y-1.28 E0.00722
G1 X-1.86 Y-1.48 E0.00727
G1 X-1.47 Y-1.70 E0.00734
G1 X-1.09 Y-1.85 E0.00740
G1 X-0.50 Y-1.99 E0.00750
G1 X-0.18 Y-2.00 E0.00755
G1 X-0.14 Y-2.01 E0.00755
G1 X-0.09 Y-2.01 E0.00756
G0 X-0.13 Y-2.11
G1 X0.18 Y-2.12 E0.00761
G1 X0.25 Y-2.10 E0.00762
G1 X0.28 Y-2.10 E0.00763
G1 X0.55 Y-2.07 E0.00767
G1 X0.91 Y-2.00 E0.00773
G1 X1.26 Y-1.89 E0.00779
G1 X1.48 Y-1.79 E0.00782
G1 X1.52 Y-1.77 E0.00783
G1 X1.72 Y-1.68 E0.00786
G1 X2.04 Y-1.48 E0.00792
G1 X2.33 Y-1.25 E0.00798
G1 X2.55 Y-1.03 E0.00803
G1 X2.86 Y-0.68 E0.00810
G1 X3.13 Y-0.23 E0.00819
G1 X3.19 Y-0.10 E0.00821
G1 X3.32 Y0.12 E0.00825
G1 X3.43 Y0.54 E0.00832
G1 X3.45 Y0.61 E0.00833
G1 X3.48 Y0.74 E0.00835
G1 X3.56 Y1.06 E0.00840
G1 X3.55 Y1.20 E0.00842
G1 X3.56 Y1.20 E0.00842
G1 X3.56 Y1.24 E0.00843
G1 X3.58 Y1.41 E0.00846
G1 X3.58 Y1.45 E0.00846
G1 X3.59 Y1.63 E0.00849
G1 X3.60 Y1.79 E0.00852
G1 X3.60 Y1.82 E0.00852
G1 X3.60 Y1.90 E0.00853
G1 X3.60 Y1.93 E0.00854
G1 X3.60 Y2.04 E0.00856
G1 X3.59 Y2.13 E0.00857
G1 X3.58 Y2.30 E0.00860
G1 X3.59 Y2.74 E0.00867
G1 X3.39 Y3.23 E0.00875
G1 X3.38 Y3.24 E0.00875
G1 X3.23 Y3.64 E0.00882
G1 X3.01 Y4.04 E0.00889
G1 X2.99 Y4.07 E0.00889
G1 X2.99 Y4.07 E0.00889
G1 X2.77 Y4.38 E0.00895
G1 X2.59 Y4.58 E0.00900
G1 X2.31 Y4.85 E0.00906
G1 X2.00 Y5.09 E0.00912
G1 X1.67 Y5.28 E0.00918
G1 X1.24 Y6.09 E0.00932
G1 X0.12 Y5.71 E0.00951
G1 X-0.34 Y5.70 E0.00958
G1 X-0.96 Y5.58 E0.00968
G1 X-1.46 Y5.40 E0.00976
G1 X-1.78 Y5.22 E0.00982
G1 X-1.84 Y5.18 E0.00983
G1 X-1.99 Y5.09 E0.00986
G1 X-2.17 Y4.96 E0.00989
G1 X-2.22 Y4.92 E0.00990
G1 X-3.97 Y4.33 E0.01019
G1 X-3.59 Y1.97 E0.01057
G1 X-3.60 Y1.92 E0.01057
G1 X-3.59 Y1.78 E0.01060
G1 X-3.59 Y1.74 E0.01060
G1 X-3.60 Y1.67 E0.01061
G1 X-3.58 Y1.32 E0.01067
G1 X-3.55 Y1.14 E0.01070
G1 X-3.49 Y0.73 E0.01076
G1 X-3.47 Y0.67 E0.01077
G1 X-3.44 Y0.45 E0.01081
G1 X-3.24 Y0.02 E0.01088
G1 X-3.17 Y-0.16 E0.01091
G1 X-3.11 Y-0.27 E0.01093
G1 X-3.07 Y-0.37 E0.01095
G1 X-3.02 Y-0.41 E0.01096
G1 X-2.90 Y-0.63 E0.01100
G1 X-2.61 Y-0.98 E0.01107
G1 X-2.44 Y-1.15 E0.01111
G1 X-2.20 Y-1.36 E0.01116
G1 X-1.91 Y-1.57 E0.01121
G1 X-1.51 Y-1.79 E0.01128
G1 X-1.12 Y-1.94 E0.01135
G1 X-0.51 Y-2.09 E0.01145
G1 X-0.16 Y-2.10 E0.01150
G1 X-0.15 Y-2.11 E0.01150
G1 X-0.13 Y-2.11 E0.01151
G0 X-0.15 Y-2.20
G1 X-0.10 Y-2.21 E0.01151
G1 X0.18 Y-2.21 E0.01156
G1 X0.26 Y-2.20 E0.01157
G1 X0.28 Y-2.20 E0.01158
G1 X0.56 Y-2.17 E0.01162
G1 X0.93 Y-2.10 E0.01168
G1 X1.30 Y-1.98 E0.01174
G1 X1.52 Y-1.88 E0.01178
G1 X1.56 Y-1.87 E0.01178
G1 X1.77 Y-1.77 E0.01182
G1 X2.09 Y-1.56 E0.01188
G1 X2.40 Y-1.32 E0.01194
G1 X2.62 Y-1.10 E0.01199
G1 X2.94 Y-0.74 E0.01207
G1 X3.22 Y-0.28 E0.01215
G1 X3.28 Y-0.15 E0.01217
G1 X3.41 Y0.08 E0.01221
G1 X3.52 Y0.51 E0.01228
G1 X3.55 Y0.58 E0.01230
G1 X3.57 Y0.71 E0.01232
G1 X3.66 Y1.05 E0.01237
G1 X3.65 Y1.19 E0.01239
G1 X3.66 Y1.23 E0.01240
G1 X3.68 Y1.41 E0.01243
G1 X3.68 Y1.45 E0.01243
G1 X3.69 Y1.62 E0.01246
G1 X3.70 Y1.79 E0.01249
G1 X3.70 Y1.82 E0.01249
G1 X3.70 Y1.90 E0.01251
G1 X3.70 Y1.94 E0.01251
G1 X3.69 Y2.05 E0.01253
G1 X3.69 Y2.13 E0.01254
G1 X3.68 Y2.32 E0.01257
G1 X3.68 Y2.76 E0.01264
G1 X3.48 Y3.26 E0.01272
G1 X3.48 Y3.28 E0.01273
G1 X3.33 Y3.68 E0.01279
G1 X3.09 Y4.10 E0.01287
G1 X3.07 Y4.13 E0.01288
G1 X2.85 Y4.44 E0.01294
G1 X2.66 Y4.65 E0.01298
G1 X2.38 Y4.93 E0.01304
G1 X2.06 Y5.17 E0.01311
G1 X1.75 Y5.35 E0.01316
G1 X1.29 Y6.21 E0.01331
G1 X0.10 Y5.81 E0.01351
G1 X-0.35 Y5.80 E0.01358
G1 X-0.99 Y5.68 E0.01368
G1 X-1.50 Y5.49 E0.01377
G1 X-1.83 Y5.31 E0.01383
G1 X-1.90 Y5.27 E0.01384
G1 X-2.05 Y5.17 E0.01387
G1 X-2.23 Y5.04 E0.01390
G1 X-2.27 Y5.01 E0.01391
G1 X-4.09 Y4.40 E0.01421
G1 X-3.69 Y1.97 E0.01460
G1 X-3.69 Y1.96 E0.01460
G1 X-3.70 Y1.95 E0.01460
G1 X-3.69 Y1.95 E0.01460
G1 X-3.70 Y1.92 E0.01460
G1 X-3.69 Y1.79 E0.01463
G1 X-3.69 Y1.74 E0.01463
G1 X-3.69 Y1.67 E0.01464
G1 X-3.67 Y1.31 E0.01470
G1 X-3.66 Y1.23 E0.01471
G1 X-3.59 Y0.71 E0.01480
G1 X-3.57 Y0.65 E0.01480
G1 X-3.54 Y0.43 E0.01484
G1 X-3.34 Y-0.01 E0.01492
G1 X-3.27 Y-0.20 E0.01495
G1 X-3.20 Y-0.31 E0.01497
G1 X-3.15 Y-0.42 E0.01499
G1 X-3.11 Y-0.47 E0.01500
G1 X-2.98 Y-0.69 E0.01504
G1 X-2.68 Y-1.04 E0.01511
G1 X-2.51 Y-1.22 E0.01515
G1 X-2.26 Y-1.44 E0.01520
G1 X-1.96 Y-1.65 E0.01526
G1 X-1.55 Y-1.88 E0.01533
G1 X-1.15 Y-2.04 E0.01540
G1 X-0.53 Y-2.19 E0.01550
G1 X-0.18 Y-2.20 E0.01555
G1 X-0.15 Y-2.20 E0.01556
G0 X-0.16 Y-2.31
G1 X-0.05 Y-2.31 E0.01558
G1 X0.19 Y-2.32 E0.01561
G1 X0.26 Y-2.30 E0.01562
G1 X0.29 Y-2.30 E0.01563
G1 X0.58 Y-2.27 E0.01567
G1 X0.96 Y-2.20 E0.01573
G1 X1.33 Y-2.08 E0.01580
G1 X1.57 Y-1.97 E0.01584
G1 X1.60 Y-1.96 E0.01584
G1 X1.82 Y-1.86 E0.01588
G1 X2.15 Y-1.65 E0.01594
G1 X2.46 Y-1.40 E0.01600
G1 X2.70 Y-1.17 E0.01605
G1 X3.02 Y-0.80 E0.01613
G1 X3.31 Y-0.32 E0.01622
G1 X3.36 Y-0.20 E0.01624
G1 X3.51 Y0.04 E0.01628
G1 X3.62 Y0.47 E0.01635
G1 X3.65 Y0.56 E0.01637
G1 X3.67 Y0.70 E0.01639
G1 X3.76 Y1.04 E0.01645
G1 X3.76 Y1.18 E0.01647
G1 X3.76 Y1.22 E0.01647
G1 X3.78 Y1.40 E0.01650
G1 X3.78 Y1.43 E0.01651
G1 X3.79 Y1.62 E0.01654
G1 X3.80 Y1.79 E0.01656
G1 X3.80 Y1.82 E0.01657
G1 X3.80 Y1.90 E0.01658
G1 X3.80 Y1.94 E0.01659
G1 X3.80 Y2.05 E0.01660
G1 X3.79 Y2.14 E0.01662
G1 X3.78 Y2.31 E0.01665
G1 X3.79 Y2.78 E0.01672
G1 X3.58 Y3.30 E0.01681
G1 X3.57 Y3.31 E0.01681
G1 X3.42 Y3.72 E0.01688
G1 X3.18 Y4.15 E0.01696
G1 X3.15 Y4.18 E0.01696
G1 X2.92 Y4.50 E0.01702
G1 X2.74 Y4.72 E0.01707
G1 X2.44 Y5.00 E0.01713
G1 X2.11 Y5.26 E0.01720
G1 X1.82 Y5.43 E0.01725
G1 X1.34 Y6.33 E0.01741
G1 X0.08 Y5.91 E0.01762
G1 X-0.36 Y5.89 E0.01769
G1 X-1.02 Y5.77 E0.01779
G1 X-1.55 Y5.58 E0.01788
G1 X-1.88 Y5.39 E0.01794
G1 X-1.95 Y5.35 E0.01795
G1 X-2.10 Y5.26 E0.01798
G1 X-2.29 Y5.12 E0.01802
G1 X-2.32 Y5.10 E0.01802
G1 X-4.20 Y4.46 E0.01833
G1 X-3.80 Y1.96 E0.01873
G1 X-3.80 Y1.92 E0.01874
G1 X-3.79 Y1.78 E0.01876
G1 X-3.79 Y1.74 E0.01877
G1 X-3.80 Y1.67 E0.01878
G1 X-3.78 Y1.30 E0.01884
G1 X-3.75 Y1.14 E0.01886
G1 X-3.69 Y0.68 E0.01893
G1 X-3.67 Y0.63 E0.01894
G1 X-3.63 Y0.40 E0.01898
G1 X-3.42 Y-0.07 E0.01906
G1 X-3.36 Y-0.24 E0.01909
G1 X-3.29 Y-0.35 E0.01911
G1 X-3.24 Y-0.47 E0.01913
G1 X-3.18 Y-0.53 E0.01914
G1 X-3.06 Y-0.75 E0.01918
G1 X-2.76 Y-1.11 E0.01925
G1 X-2.58 Y-1.30 E0.01930
G1 X-2.32 Y-1.52 E0.01935
G1 X-2.02 Y-1.74 E0.01941
G1 X-1.60 Y-1.97 E0.01948
G1 X-1.18 Y-2.13 E0.01955
G1 X-0.54 Y-2.29 E0.01966
G1 X-0.20 Y-2.30 E0.01971
G1 X-0.16 Y-2.31 E0.01972
G0 X-0.16 Y-2.41
G1 X-0.06 Y-2.41 E0.01973
G1 X0.20 Y-2.42 E0.01977
G1 X0.28 Y-2.40 E0.01978
G1 X0.29 Y-2.40 E0.01979
G1 X0.59 Y-2.37 E0.01983
G1 X0.98 Y-2.29 E0.01990
G1 X1.37 Y-2.17 E0.01996
G1 X1.61 Y-2.06 E0.02000
G1 X1.64 Y-2.05 E0.02001
G1 X1.86 Y-1.94 E0.02005
G1 X2.21 Y-1.73 E0.02011
G1 X2.53 Y-1.47 E0.02017
G1 X2.77 Y-1.24 E0.02023
G1 X3.10 Y-0.86 E0.02030
G1 X3.40 Y-0.37 E0.02040
G1 X3.46 Y-0.24 E0.02042
G1 X3.60 Y-0.00 E0.02046
G1 X3.71 Y0.44 E0.02053
G1 X3.74 Y0.53 E0.02055
G1 X3.77 Y0.69 E0.02057
G1 X3.86 Y1.03 E0.02063
G1 X3.86 Y1.18 E0.02065
G1 X3.86 Y1.21 E0.02066
G1 X3.88 Y1.39 E0.02068
G1 X3.88 Y1.43 E0.02069
G1 X3.89 Y1.62 E0.02072
G1 X3.90 Y1.78 E0.02075
G1 X3.90 Y1.82 E0.02075
G1 X3.90 Y1.91 E0.02077
G1 X3.90 Y1.94 E0.02077
G1 X3.89 Y2.05 E0.02079
G1 X3.89 Y2.14 E0.02080
G1 X3.88 Y2.31 E0.02083
G1 X3.89 Y2.80 E0.02091
G1 X3.67 Y3.32 E0.02099
G1 X3.67 Y3.34 E0.02100
G1 X3.51 Y3.76 E0.02107
G1 X3.26 Y4.21 E0.02115
G1 X3.24 Y4.23 E0.02115
G1 X3.24 Y4.24 E0.02115
G1 X3.00 Y4.56 E0.02122
G1 X2.81 Y4.78 E0.02126
G1 X2.51 Y5.08 E0.02133
G1 X2.17 Y5.34 E0.02140
G1 X1.90 Y5.50 E0.02145
G1 X1.39 Y6.45 E0.02161
G1 X0.06 Y6.01 E0.02183
G1 X-0.37 Y5.99 E0.02190
G1 X-1.04 Y5.87 E0.02201
G1 X-1.59 Y5.67 E0.02210
G1 X-1.93 Y5.48 E0.02216
G1 X-2.00 Y5.44 E0.02217
G1 X-2.16 Y5.34 E0.02220
G1 X-2.35 Y5.20 E0.02224
G1 X-2.37 Y5.19 E0.02224
G1 X-4.31 Y4.53 E0.02257
G1 X-3.90 Y1.96 E0.02297
G1 X-3.90 Y1.94 E0.02298
G1 X-3.90 Y1.93 E0.02298
G1 X-3.90 Y1.92 E0.02298
G1 X-3.89 Y1.78 E0.02300
G1 X-3.89 Y1.76 E0.02301
G1 X-3.90 Y1.67 E0.02302
G1 X-3.88 Y1.29 E0.02308
G1 X-3.85 Y1.11 E0.02311
G1 X-3.78 Y0.66 E0.02318
G1 X-3.76 Y0.60 E0.02319
G1 X-3.73 Y0.37 E0.02323
G1 X-3.52 Y-0.09 E0.02330
G1 X-3.45 Y-0.29 E0.02334
G1 X-3.38 Y-0.40 E0.02336
G1 X-3.32 Y-0.53 E0.02338
G1 X-3.27 Y-0.59 E0.02339
G1 X-3.14 Y-0.81 E0.02343
G1 X-2.83 Y-1.18 E0.02351
G1 X-2.65 Y-1.37 E0.02355
G1 X-2.38 Y-1.60 E0.02360
G1 X-2.07 Y-1.82 E0.02366
G1 X-1.64 Y-2.06 E0.02374
G1 X-1.21 Y-2.23 E0.02381
G1 X-0.56 Y-2.39 E0.02392
G1 X-0.21 Y-2.40 E0.02397
G1 X-0.16 Y-2.41 E0.02398
G0 X-0.00 Y1.34
G0 X-0.00 Y1.34
G0 X0.00 Y1.19
;TYPE:WALL-OUTER
G1 X0.02 Y1.19 E0.02398
G1 X0.09 Y1.20 E0.02399
G1 X0.13 Y1.22 E0.02400
G1 X0.18 Y1.27 E0.02401
G1 X0.21 Y1.33 E0.02402
G1 X0.24 Y1.40 E0.02404
G1 X0.24 Y1.43 E0.02404
G1 X0.26 Y1.49 E0.02405
G1 X0.28 Y1.58 E0.02406
G1 X0.28 Y1.64 E0.02407
G1 X0.28 Y1.68 E0.02408
G1 X0.30 Y1.79 E0.02410
G1 X0.30 Y1.84 E0.02411
G1 X0.29 Y2.03 E0.02414
G1 X0.27 Y2.10 E0.02415
G1 X0.27 Y2.13 E0.02415
G1 X0.25 Y2.18 E0.02416
G1 X0.23 Y2.25 E0.02417
G1 X0.19 Y2.31 E0.02418
G1 X0.15 Y2.35 E0.02419
G1 X0.07 Y2.39 E0.02421
G1 X0.00 Y2.40 E0.02422
G1 X-0.09 Y2.39 E0.02423
G1 X-0.13 Y2.36 E0.02424
G1 X-0.20 Y2.30 E0.02425
G1 X-0.22 Y2.27 E0.02426
G1 X-0.25 Y2.20 E0.02427
G1 X-0.25 Y2.18 E0.02427
G1 X-0.29 Y2.03 E0.02430
G1 X-0.29 Y1.99 E0.02431
G1 X-0.29 Y1.94 E0.02431
G1 X-0.29 Y1.89 E0.02432
G1 X-0.29 Y1.88 E0.02432
G1 X-0.29 Y1.84 E0.02433
G1 X-0.29 Y1.79 E0.02434
G1 X-0.29 Y1.73 E0.02435
G1 X-0.29 Y1.67 E0.02436
G1 X-0.26 Y1.50 E0.02438
G1 X-0.26 Y1.48 E0.02439
G1 X-0.24 Y1.40 E0.02440
G1 X-0.21 Y1.33 E0.02441
G1 X-0.19 Y1.28 E0.02442
G1 X-0.18 Y1.27 E0.02442
G1 X-0.15 Y1.23 E0.02443
G1 X-0.11 Y1.21 E0.02444
G1 X-0.06 Y1.20 E0.02445
G1 X0.00 Y1.19 E0.02445
G0 X0.01 Y1.45
;LAYER:1
G0 X0.25 Y1.36 Z0.02
;TYPE:WALL-OUTER
G1 X0.30 Y1.62 E0.02450
G1 X0.31 Y1.87 E0.02454
G1 X0.31 Y1.90 E0.02454
G1 X0.32 Y1.94 E0.02455
G1 X0.30 Y2.07 E0.02457
G1 X0.29 Y2.09 E0.02457
G1 X0.28 Y2.15 E0.02458
G1 X0.29 Y2.17 E0.02458
G1 X0.24 Y2.32 E0.02461
G1 X0.20 Y2.39 E0.02462
G1 X0.10 Y2.46 E0.02464
G1 X0.09 Y2.47 E0.02464
G1 X0.05 Y2.49 E0.02465
G1 X0.02 Y2.48 E0.02465
G1 X-0.02 Y2.49 E0.02466
G1 X-0.07 Y2.48 E0.02467
G1 X-0.11 Y2.47 E0.02467
G1 X-0.19 Y2.39 E0.02469
G1 X-0.26 Y2.26 E0.02471
G1 X-0.30 Y2.11 E0.02474
G1 X-0.30 Y2.09 E0.02474
G1 X-0.32 Y2.00 E0.02476
G1 X-0.32 Y1.88 E0.02478
G1 X-0.32 Y1.80 E0.02479
G1 X-0.29 Y1.59 E0.02482
G1 X-0.23 Y1.30 E0.02487
G1 X-0.18 Y1.19 E0.02489
G1 X-0.15 Y1.15 E0.02489
G1 X-0.09 Y1.12 E0.02491
G1 X-0.08 Y1.12 E0.02491
G1 X-0.06 Y1.12 E0.02491
G1 X-0.04 Y1.11 E0.02491
G1 X0.01 Y1.11 E0.02492
G1 X0.01 Y1.10 E0.02492
G1 X0.08 Y1.11 E0.02493
G1 X0.16 Y1.17 E0.02495
G1 X0.22 Y1.27 E0.02497
G1 X0.25 Y1.36 E0.02498
G0 X0.02 Y1.44
G0 X0.10 Y-1.43
G0 X-0.07 Y-1.43
G0 X-0.08 Y-1.28
G1 X-0.12 Y-1.29 E0.02499
G1 X-0.13 Y-1.30 E0.02499
G1 X-0.16 Y-1.30 E0.02500
G1 X-0.17 Y-1.30 E0.02500
G1 X-0.23 Y-1.31 E0.02501
G1 X-0.26 Y-1.33 E0.02501
G1 X-0.33 Y-1.42 E0.02503
G1 X-0.35 Y-1.44 E0.02504
G1 X-0.36 Y-1.46 E0.02504
G1 X-0.44 Y-1.64 E0.02507
G1 X-0.44 Y-1.67 E0.02507
G1 X-0.43 Y-1.71 E0.02508
G1 X-0.44 Y-1.76 E0.02509
G1 X-0.43 Y-1.77 E0.02509
G1 X-0.42 Y-1.79 E0.02509
G1 X-0.43 Y-1.82 E0.02510
G1 X-0.39 Y-1.88 E0.02511
G1 X-0.36 Y-1.91 E0.02512
G1 X-0.24 Y-1.94 E0.02513
G1 X-0.21 Y-1.96 E0.02514
G1 X0.04 Y-1.96 E0.02518
G1 X0.20 Y-1.96 E0.02520
G1 X0.24 Y-1.94 E0.02521
G1 X0.34 Y-1.92 E0.02523
G1 X0.36 Y-1.91 E0.02523
G1 X0.40 Y-1.87 E0.02524
G1 X0.40 Y-1.85 E0.02524
G1 X0.43 Y-1.82 E0.02525
G1 X0.42 Y-1.79 E0.02525
G1 X0.43 Y-1.78 E0.02525
G1 X0.44 Y-1.77 E0.02526
G1 X0.43 Y-1.72 E0.02527
G1 X0.43 Y-1.70 E0.02527
G1 X0.41 Y-1.57 E0.02529
G1 X0.39 Y-1.52 E0.02530
G1 X0.37 Y-1.50 E0.02530
G1 X0.36 Y-1.46 E0.02531
G1 X0.35 Y-1.44 E0.02531
G1 X0.34 Y-1.43 E0.02531
G1 X0.32 Y-1.41 E0.02532
G1 X0.24 Y-1.32 E0.02534
G1 X0.23 Y-1.31 E0.02534
G1 X0.18 Y-1.30 E0.02535
G1 X0.15 Y-1.30 E0.02535
G1 X0.12 Y-1.28 E0.02536
G1 X-0.03 Y-1.29 E0.02538
G1 X-0.08 Y-1.28 E0.02539
G0 X-0.06 Y-1.54
;LAYER:2
G0 X-0.03 Y-1.19 Z0.03
