;Generated with Cura_SteamEngine 13.11.2


;Layer count: 280
;LAYER:0
M107
G0 F6000 X-2.33 Y-0.10 Z0.06
;TYPE:SKIRT
G1 F6000 E0.00000
G1 X-2.46 Y-0.19 E0.00015
G1 X-2.67 Y-0.36 E0.00041
G1 X-2.74 Y-0.43 E0.00050
G1 X-2.77 Y-0.45 E0.00053
G1 X-2.82 Y-0.52 E0.00061
G1 X-2.95 Y-0.63 E0.00077
G1 X-3.07 Y-0.79 E0.00096
G1 X-3.23 Y-0.97 E0.00118
G1 X-3.37 Y-1.21 E0.00145
G1 X-3.47 Y-1.37 E0.00163
G1 X-3.62 Y-1.65 E0.00192
G1 X-3.65 Y-1.75 E0.00202
G1 X-3.70 Y-1.86 E0.00214
G1 X-3.79 Y-2.09 E0.00237
G1 X-3.85 Y-2.27 E0.00255
G1 X-3.96 Y-2.71 E0.00298
G1 X-4.00 Y-3.02 E0.00327
G1 X-4.01 Y-3.17 E0.00341
G1 X-4.03 Y-3.34 E0.00357
G1 X-4.02 Y-3.79 E0.00399
G1 X-3.98 Y-4.03 E0.00422
G1 X-3.91 Y-4.48 E0.00465
G1 X-3.82 Y-4.70 E0.00487
G1 X-3.64 Y-5.16 E0.00533
G1 X-3.46 Y-5.41 E0.00562
G1 X-3.45 Y-5.43 E0.00565
G1 X-3.43 Y-5.45 E0.00567
G1 X-3.32 Y-5.63 E0.00587
G1 X-3.11 Y-5.88 E0.00618
G1 X-2.85 Y-6.14 E0.00652
G1 X-2.61 Y-6.32 E0.00681
G1 X-2.28 Y-6.54 E0.00718
G1 X-2.20 Y-6.58 E0.00726
G1 X-2.03 Y-6.68 E0.00745
G1 X-1.57 Y-6.87 E0.00792
G1 X-1.48 Y-6.89 E0.00801
G1 X-0.92 Y-7.03 E0.00855
G1 X-0.13 Y-7.07 E0.00929
G1 X0.00 Y-7.07 E0.00941
G1 X0.02 Y-7.07 E0.00943
G1 X0.08 Y-7.07 E0.00949
G1 X0.13 Y-7.07 E0.00954
G1 X0.26 Y-7.07 E0.00966
G1 X0.30 Y-7.07 E0.00969
G1 X0.41 Y-7.06 E0.00980
G1 X0.56 Y-7.05 E0.00994
G1 X0.62 Y-7.05 E0.01000
G1 X0.77 Y-7.03 E0.01014
G1 X0.86 Y-7.02 E0.01022
G1 X1.14 Y-6.98 E0.01049
G1 X1.35 Y-6.92 E0.01069
G1 X1.59 Y-6.86 E0.01093
G1 X2.07 Y-6.66 E0.01142
G1 X2.13 Y-6.62 E0.01148
G1 X2.18 Y-6.60 E0.01154
G1 X2.67 Y-6.29 E0.01208
G1 X3.09 Y-5.90 E0.01262
G1 X3.33 Y-5.61 E0.01298
G1 X3.42 Y-5.47 E0.01313
G1 X3.46 Y-5.41 E0.01320
G1 X3.65 Y-5.11 E0.01353
G1 X3.82 Y-4.70 E0.01395
G1 X3.83 Y-4.67 E0.01398
G1 X3.83 Y-4.67 E0.01398
G1 X3.95 Y-4.26 E0.01438
G1 X3.98 Y-4.04 E0.01459
G1 X3.98 Y-4.01 E0.01462
G1 X3.98 Y-3.99 E0.01463
G1 X4.02 Y-3.73 E0.01488
G1 X4.03 Y-3.33 E0.01526
G1 X4.01 Y-3.18 E0.01540
G1 X4.01 Y-3.16 E0.01542
G1 X4.00 Y-3.03 E0.01554
G1 X3.96 Y-2.76 E0.01580
G1 X3.91 Y-2.50 E0.01605
G1 X3.76 Y-2.02 E0.01652
G1 X3.67 Y-1.79 E0.01675
G1 X3.65 Y-1.74 E0.01680
G1 X3.61 Y-1.64 E0.01691
G1 X3.45 Y-1.34 E0.01723
G1 X3.36 Y-1.20 E0.01738
G1 X3.31 Y-1.11 E0.01748
G1 X3.10 Y-0.82 E0.01782
G1 X3.09 Y-0.81 E0.01783
G1 X3.08 Y-0.80 E0.01784
G1 X2.85 Y-0.54 E0.01817
G1 X2.77 Y-0.47 E0.01827
G1 X2.67 Y-0.37 E0.01840
G1 X2.47 Y-0.20 E0.01864
G1 X2.34 Y-0.10 E0.01880
G1 X2.47 Y0.01 E0.01897
G1 X2.77 Y0.33 E0.01938
G1 X2.97 Y0.59 E0.01969
G1 X3.17 Y0.94 E0.02007
G1 X3.29 Y1.16 E0.02031
G1 X3.50 Y1.71 E0.02086
G1 X3.58 Y2.00 E0.02114
G1 X3.74 Y2.86 E0.02196
G1 X3.76 Y3.04 E0.02214
G1 X3.78 Y3.31 E0.02239
G1 X3.78 Y3.36 E0.02244
G1 X3.79 Y3.78 E0.02283
G1 X3.79 Y3.94 E0.02298
G1 X3.74 Y4.61 E0.02361
G1 X3.69 Y4.90 E0.02389
G1 X3.52 Y5.53 E0.02450
G1 X3.43 Y5.76 E0.02474
G1 X3.26 Y6.14 E0.02513
G1 X3.15 Y6.34 E0.02534
G1 X3.12 Y6.41 E0.02542
G1 X2.94 Y6.64 E0.02569
G1 X2.86 Y6.77 E0.02583
G1 X2.79 Y6.84 E0.02593
G1 X2.56 Y7.14 E0.02628
G1 X1.91 Y7.60 E0.02703
G1 X1.65 Y7.75 E0.02731
G1 X1.52 Y7.80 E0.02744
G1 X1.30 Y7.92 E0.02768
G1 X0.83 Y8.06 E0.02814
G1 X0.13 Y8.16 E0.02881
G1 X-0.51 Y8.12 E0.02941
G1 X-0.67 Y8.08 E0.02956
G1 X-0.90 Y8.05 E0.02979
G1 X-1.44 Y7.86 E0.03032
G1 X-2.09 Y7.49 E0.03102
G1 X-2.45 Y7.20 E0.03146
G1 X-2.53 Y7.12 E0.03156
G1 X-2.58 Y7.08 E0.03162
G1 X-2.90 Y6.72 E0.03208
G1 X-3.27 Y6.14 E0.03272
G1 X-3.44 Y5.76 E0.03312
G1 X-3.68 Y4.97 E0.03389
G1 X-3.73 Y4.68 E0.03417
G1 X-3.78 Y4.19 E0.03463
G1 X-3.79 Y4.10 E0.03472
G1 X-3.80 Y3.84 E0.03496
G1 X-3.80 Y3.74 E0.03506
G1 X-3.78 Y3.31 E0.03546
G1 X-3.77 Y3.18 E0.03558
G1 X-3.67 Y2.37 E0.03635
G1 X-3.62 Y2.11 E0.03660
G1 X-3.42 Y1.48 E0.03722
G1 X-3.32 Y1.22 E0.03749
G1 X-3.01 Y0.63 E0.03811
G1 X-2.65 Y0.19 E0.03864
G1 X-2.33 Y-0.10 E0.03905
G0 X-2.49 Y-0.09
G1 X-2.52 Y-0.11 E0.03909
G1 X-2.73 Y-0.29 E0.03935
G1 X-2.80 Y-0.35 E0.03943
G1 X-2.83 Y-0.38 E0.03947
G1 X-2.90 Y-0.45 E0.03956
G1 X-3.02 Y-0.56 E0.03972
G1 X-3.14 Y-0.72 E0.03990
G1 X-3.31 Y-0.91 E0.04015
G1 X-3.45 Y-1.16 E0.04042
G1 X-3.56 Y-1.32 E0.04060
G1 X-3.71 Y-1.61 E0.04090
G1 X-3.74 Y-1.70 E0.04099
G1 X-3.79 Y-1.82 E0.04112
G1 X-3.88 Y-2.05 E0.04135
G1 X-3.94 Y-2.24 E0.04154
G1 X-4.06 Y-2.70 E0.04198
G1 X-4.10 Y-3.01 E0.04228
G1 X-4.11 Y-3.16 E0.04242
G1 X-4.13 Y-3.34 E0.04259
G1 X-4.12 Y-3.80 E0.04302
G1 X-4.08 Y-4.02 E0.04324
G1 X-4.01 Y-4.51 E0.04369
G1 X-3.91 Y-4.74 E0.04393
G1 X-3.73 Y-5.20 E0.04440
G1 X-3.56 Y-5.45 E0.04468
G1 X-3.53 Y-5.49 E0.04473
G1 X-3.52 Y-5.51 E0.04475
G1 X-3.40 Y-5.69 E0.04495
G1 X-3.18 Y-5.94 E0.04527
G1 X-2.91 Y-6.21 E0.04562
G1 X-2.67 Y-6.41 E0.04592
G1 X-2.32 Y-6.63 E0.04630
G1 X-2.25 Y-6.66 E0.04638
G1 X-2.07 Y-6.77 E0.04658
G1 X-1.60 Y-6.96 E0.04706
G1 X-1.47 Y-6.99 E0.04718
G1 X-0.93 Y-7.13 E0.04770
G1 X-0.13 Y-7.17 E0.04846
G1 X0.00 Y-7.17 E0.04858
G1 X0.02 Y-7.17 E0.04860
G1 X0.08 Y-7.17 E0.04865
G1 X0.13 Y-7.17 E0.04870
G1 X0.27 Y-7.17 E0.04883
G1 X0.30 Y-7.17 E0.04887
G1 X0.42 Y-7.16 E0.04897
G1 X0.44 Y-7.16 E0.04899
G1 X0.56 Y-7.15 E0.04911
G1 X0.63 Y-7.15 E0.04917
G1 X0.78 Y-7.13 E0.04932
G1 X0.87 Y-7.12 E0.04940
G1 X1.16 Y-7.08 E0.04968
G1 X1.36 Y-7.02 E0.04987
G1 X1.62 Y-6.96 E0.05012
G1 X2.12 Y-6.75 E0.05063
G1 X2.17 Y-6.71 E0.05069
G1 X2.23 Y-6.69 E0.05075
G1 X2.74 Y-6.37 E0.05131
G1 X3.16 Y-5.97 E0.05187
G1 X3.41 Y-5.66 E0.05223
G1 X3.50 Y-5.53 E0.05238
G1 X3.55 Y-5.46 E0.05246
G1 X3.74 Y-5.15 E0.05280
G1 X3.92 Y-4.73 E0.05324
G1 X3.92 Y-4.71 E0.05325
G1 X3.92 Y-4.70 E0.05326
G1 X4.04 Y-4.28 E0.05367
G1 X4.07 Y-4.07 E0.05387
G1 X4.08 Y-4.02 E0.05392
G1 X4.08 Y-4.01 E0.05394
G1 X4.12 Y-3.74 E0.05419
G1 X4.13 Y-3.32 E0.05458
G1 X4.11 Y-3.18 E0.05472
G1 X4.11 Y-3.15 E0.05474
G1 X4.10 Y-3.02 E0.05487
G1 X4.06 Y-2.74 E0.05513
G1 X4.01 Y-2.48 E0.05539
G1 X3.86 Y-1.99 E0.05587
G1 X3.76 Y-1.75 E0.05611
G1 X3.74 Y-1.70 E0.05616
G1 X3.70 Y-1.60 E0.05626
G1 X3.54 Y-1.28 E0.05659
G1 X3.45 Y-1.16 E0.05674
G1 X3.39 Y-1.06 E0.05685
G1 X3.17 Y-0.75 E0.05720
G1 X3.17 Y-0.75 E0.05721
G1 X3.16 Y-0.74 E0.05722
G1 X2.92 Y-0.47 E0.05756
G1 X2.82 Y-0.38 E0.05768
G1 X2.74 Y-0.29 E0.05780
G1 X2.54 Y-0.12 E0.05805
G1 X2.50 Y-0.10 E0.05809
G1 X2.54 Y-0.06 E0.05814
G1 X2.85 Y0.27 E0.05856
G1 X3.05 Y0.54 E0.05888
G1 X3.26 Y0.89 E0.05927
G1 X3.38 Y1.12 E0.05952
G1 X3.60 Y1.68 E0.06008
G1 X3.68 Y1.97 E0.06036
G1 X3.84 Y2.85 E0.06120
G1 X3.86 Y3.03 E0.06137
G1 X3.88 Y3.31 E0.06164
G1 X3.88 Y3.36 E0.06168
G1 X3.89 Y3.78 E0.06208
G1 X3.89 Y3.94 E0.06223
G1 X3.84 Y4.62 E0.06287
G1 X3.79 Y4.93 E0.06316
G1 X3.62 Y5.56 E0.06378
G1 X3.53 Y5.80 E0.06403
G1 X3.35 Y6.19 E0.06442
G1 X3.24 Y6.39 E0.06464
G1 X3.21 Y6.46 E0.06472
G1 X3.03 Y6.69 E0.06498
G1 X2.94 Y6.83 E0.06514
G1 X2.86 Y6.92 E0.06525
G1 X2.63 Y7.21 E0.06560
G1 X1.97 Y7.68 E0.06637
G1 X1.69 Y7.84 E0.06666
G1 X1.55 Y7.90 E0.06681
G1 X1.34 Y8.01 E0.06704
G1 X0.86 Y8.16 E0.06751
G1 X0.13 Y8.27 E0.06820
G1 X-0.52 Y8.22 E0.06882
G1 X-0.69 Y8.18 E0.06897
G1 X-0.93 Y8.14 E0.06921
G1 X-1.48 Y7.95 E0.06976
G1 X-2.14 Y7.57 E0.07047
G1 X-2.52 Y7.27 E0.07092
G1 X-2.59 Y7.20 E0.07102
G1 X-2.64 Y7.15 E0.07109
G1 X-2.98 Y6.78 E0.07156
G1 X-3.35 Y6.19 E0.07222
G1 X-3.54 Y5.79 E0.07263
G1 X-3.77 Y4.99 E0.07341
G1 X-3.83 Y4.69 E0.07370
G1 X-3.88 Y4.20 E0.07417
G1 X-3.89 Y4.10 E0.07426
G1 X-3.89 Y3.85 E0.07450
G1 X-3.89 Y3.74 E0.07460
G1 X-3.88 Y3.31 E0.07501
G1 X-3.87 Y3.17 E0.07513
G1 X-3.77 Y2.35 E0.07591
G1 X-3.71 Y2.08 E0.07617
G1 X-3.52 Y1.44 E0.07680
G1 X-3.41 Y1.18 E0.07707
G1 X-3.10 Y0.58 E0.07770
G1 X-2.73 Y0.12 E0.07826
G1 X-2.49 Y-0.09 E0.07856
G0 X-2.65 Y-0.09
G1 X-2.80 Y-0.22 E0.07874
G1 X-2.86 Y-0.28 E0.07883
G1 X-2.90 Y-0.30 E0.07887
G1 X-2.97 Y-0.38 E0.07897
G1 X-3.09 Y-0.50 E0.07913
G1 X-3.21 Y-0.65 E0.07931
G1 X-3.39 Y-0.85 E0.07956
G1 X-3.54 Y-1.10 E0.07983
G1 X-3.65 Y-1.27 E0.08003
G1 X-3.80 Y-1.57 E0.08034
G1 X-3.83 Y-1.66 E0.08043
G1 X-3.88 Y-1.78 E0.08056
G1 X-3.98 Y-2.02 E0.08080
G1 X-4.04 Y-2.22 E0.08099
G1 X-4.16 Y-2.68 E0.08144
G1 X-4.20 Y-3.00 E0.08174
G1 X-4.21 Y-3.15 E0.08188
G1 X-4.23 Y-3.33 E0.08206
G1 X-4.22 Y-3.81 E0.08250
G1 X-4.18 Y-4.04 E0.08273
G1 X-4.11 Y-4.53 E0.08320
G1 X-4.00 Y-4.78 E0.08344
G1 X-3.82 Y-5.25 E0.08392
G1 X-3.63 Y-5.52 E0.08423
G1 X-3.61 Y-5.54 E0.08426
G1 X-3.60 Y-5.56 E0.08428
G1 X-3.48 Y-5.75 E0.08449
G1 X-3.26 Y-6.01 E0.08481
G1 X-2.98 Y-6.28 E0.08518
G1 X-2.73 Y-6.49 E0.08548
G1 X-2.37 Y-6.72 E0.08588
G1 X-2.29 Y-6.76 E0.08597
G1 X-2.12 Y-6.86 E0.08616
G1 X-1.63 Y-7.06 E0.08665
G1 X-1.55 Y-7.07 E0.08672
G1 X-0.95 Y-7.23 E0.08731
G1 X-0.14 Y-7.27 E0.08808
G1 X0.00 Y-7.27 E0.08821
G1 X0.02 Y-7.27 E0.08822
G1 X0.08 Y-7.27 E0.08828
G1 X0.13 Y-7.27 E0.08833
G1 X0.27 Y-7.27 E0.08846
G1 X0.31 Y-7.27 E0.08849
G1 X0.42 Y-7.26 E0.08860
G1 X0.44 Y-7.26 E0.08862
G1 X0.57 Y-7.25 E0.08874
G1 X0.64 Y-7.25 E0.08880
G1 X0.79 Y-7.23 E0.08895
G1 X0.88 Y-7.22 E0.08904
G1 X1.18 Y-7.17 E0.08932
G1 X1.40 Y-7.11 E0.08954
G1 X1.65 Y-7.05 E0.08978
G1 X2.16 Y-6.84 E0.09030
G1 X2.22 Y-6.80 E0.09037
G1 X2.27 Y-6.78 E0.09042
G1 X2.80 Y-6.45 E0.09100
G1 X3.24 Y-6.03 E0.09157
G1 X3.49 Y-5.72 E0.09195
G1 X3.60 Y-5.57 E0.09212
G1 X3.63 Y-5.51 E0.09218
G1 X3.83 Y-5.20 E0.09253
G1 X4.01 Y-4.76 E0.09298
G1 X4.02 Y-4.74 E0.09300
G1 X4.14 Y-4.30 E0.09343
G1 X4.18 Y-4.04 E0.09368
G1 X4.18 Y-4.04 E0.09368
G1 X4.18 Y-4.02 E0.09370
G1 X4.22 Y-3.75 E0.09395
G1 X4.23 Y-3.31 E0.09436
G1 X4.21 Y-3.16 E0.09451
G1 X4.21 Y-3.15 E0.09452
G1 X4.20 Y-3.01 E0.09465
G1 X4.16 Y-2.72 E0.09492
G1 X4.10 Y-2.45 E0.09518
G1 X3.95 Y-1.96 E0.09567
G1 X3.85 Y-1.71 E0.09592
G1 X3.83 Y-1.66 E0.09597
G1 X3.79 Y-1.56 E0.09607
G1 X3.62 Y-1.23 E0.09642
G1 X3.54 Y-1.10 E0.09657
G1 X3.48 Y-1.00 E0.09667
G1 X3.25 Y-0.69 E0.09704
G1 X3.24 Y-0.68 E0.09705
G1 X3.24 Y-0.67 E0.09706
G1 X2.99 Y-0.40 E0.09740
G1 X2.89 Y-0.31 E0.09753
G1 X2.80 Y-0.22 E0.09765
G1 X2.65 Y-0.09 E0.09784
G1 X2.92 Y0.20 E0.09821
G1 X3.13 Y0.48 E0.09854
G1 X3.35 Y0.84 E0.09894
G1 X3.47 Y1.09 E0.09919
G1 X3.69 Y1.65 E0.09976
G1 X3.78 Y1.95 E0.10006
G1 X3.94 Y2.83 E0.10090
G1 X3.96 Y3.02 E0.10108
G1 X3.98 Y3.30 E0.10135
G1 X3.98 Y3.35 E0.10139
G1 X3.99 Y3.78 E0.10179
G1 X3.99 Y3.95 E0.10195
G1 X3.94 Y4.63 E0.10260
G1 X3.89 Y4.95 E0.10290
G1 X3.71 Y5.59 E0.10352
G1 X3.62 Y5.84 E0.10378
G1 X3.44 Y6.23 E0.10418
G1 X3.33 Y6.43 E0.10440
G1 X3.30 Y6.51 E0.10448
G1 X3.12 Y6.74 E0.10475
G1 X3.02 Y6.89 E0.10492
G1 X2.93 Y6.98 E0.10504
G1 X2.70 Y7.28 E0.10540
G1 X2.02 Y7.77 E0.10618
G1 X1.74 Y7.93 E0.10648
G1 X1.60 Y7.99 E0.10662
G1 X1.37 Y8.10 E0.10687
G1 X0.88 Y8.26 E0.10735
G1 X0.14 Y8.36 E0.10806
G1 X-0.54 Y8.32 E0.10870
G1 X-0.70 Y8.28 E0.10886
G1 X-0.95 Y8.24 E0.10909
G1 X-1.53 Y8.04 E0.10966
G1 X-2.20 Y7.66 E0.11039
G1 X-2.59 Y7.35 E0.11086
G1 X-2.66 Y7.27 E0.11096
G1 X-2.71 Y7.22 E0.11103
G1 X-3.06 Y6.84 E0.11152
G1 X-3.44 Y6.24 E0.11218
G1 X-3.63 Y5.83 E0.11261
G1 X-3.87 Y5.02 E0.11340
G1 X-3.93 Y4.71 E0.11370
G1 X-3.98 Y4.21 E0.11417
G1 X-3.99 Y4.11 E0.11427
G1 X-3.99 Y3.85 E0.11451
G1 X-3.99 Y3.74 E0.11462
G1 X-3.98 Y3.30 E0.11502
G1 X-3.97 Y3.16 E0.11516
G1 X-3.87 Y2.34 E0.11594
G1 X-3.81 Y2.06 E0.11621
G1 X-3.61 Y1.41 E0.11684
G1 X-3.50 Y1.13 E0.11712
G1 X-3.18 Y0.53 E0.11777
G1 X-2.80 Y0.05 E0.11834
G1 X-2.65 Y-0.09 E0.11853
G0 X-2.80 Y-0.09
G1 X-2.87 Y-0.14 E0.11862
G1 X-2.93 Y-0.20 E0.11870
G1 X-2.97 Y-0.23 E0.11874
G1 X-3.04 Y-0.31 E0.11885
G1 X-3.17 Y-0.43 E0.11901
G1 X-3.29 Y-0.58 E0.11919
G1 X-3.48 Y-0.79 E0.11946
G1 X-3.63 Y-1.06 E0.11974
G1 X-3.73 Y-1.22 E0.11993
G1 X-3.89 Y-1.53 E0.12025
G1 X-3.92 Y-1.61 E0.12034
G1 X-3.98 Y-1.75 E0.12047
G1 X-4.07 Y-1.99 E0.12072
G1 X-4.14 Y-2.19 E0.12092
G1 X-4.25 Y-2.66 E0.12137
G1 X-4.30 Y-2.99 E0.12169
G1 X-4.31 Y-3.14 E0.12183
G1 X-4.33 Y-3.33 E0.12201
G1 X-4.32 Y-3.82 E0.12247
G1 X-4.28 Y-4.08 E0.12272
G1 X-4.20 Y-4.56 E0.12317
G1 X-4.09 Y-4.82 E0.12344
G1 X-3.90 Y-5.30 E0.12392
G1 X-3.85 Y-5.38 E0.12402
G1 X-3.84 Y-5.39 E0.12403
G1 X-3.83 Y-5.41 E0.12405
G1 X-3.73 Y-5.55 E0.12421
G1 X-3.70 Y-5.60 E0.12427
G1 X-3.68 Y-5.62 E0.12429
G1 X-3.56 Y-5.81 E0.12450
G1 X-3.33 Y-6.08 E0.12483
G1 X-3.05 Y-6.36 E0.12521
G1 X-2.79 Y-6.57 E0.12552
G1 X-2.42 Y-6.80 E0.12593
G1 X-2.33 Y-6.85 E0.12603
G1 X-2.16 Y-6.95 E0.12621
G1 X-1.66 Y-7.15 E0.12673
G1 X-1.53 Y-7.18 E0.12684
G1 X-0.96 Y-7.32 E0.12740
G1 X-0.14 Y-7.37 E0.12817
G1 X0.00 Y-7.37 E0.12831
G1 X0.08 Y-7.37 E0.12838
G1 X0.14 Y-7.37 E0.12843
G1 X0.27 Y-7.37 E0.12856
G1 X0.31 Y-7.36 E0.12860
G1 X0.43 Y-7.36 E0.12871
G1 X0.45 Y-7.36 E0.12873
G1 X0.58 Y-7.35 E0.12885
G1 X0.65 Y-7.35 E0.12891
G1 X0.81 Y-7.33 E0.12906
G1 X0.90 Y-7.32 E0.12915
G1 X1.21 Y-7.27 E0.12944
G1 X1.41 Y-7.21 E0.12964
G1 X1.68 Y-7.15 E0.12990
G1 X2.21 Y-6.93 E0.13045
G1 X2.27 Y-6.89 E0.13051
G1 X2.32 Y-6.87 E0.13056
G1 X2.86 Y-6.53 E0.13116
G1 X3.31 Y-6.10 E0.13175
G1 X3.58 Y-5.78 E0.13214
G1 X3.68 Y-5.62 E0.13232
G1 X3.71 Y-5.57 E0.13238
G1 X3.91 Y-5.24 E0.13273
G1 X4.11 Y-4.79 E0.13320
G1 X4.11 Y-4.77 E0.13322
G1 X4.11 Y-4.77 E0.13322
G1 X4.24 Y-4.32 E0.13365
G1 X4.28 Y-4.05 E0.13391
G1 X4.28 Y-4.05 E0.13391
G1 X4.28 Y-4.03 E0.13393
G1 X4.32 Y-3.76 E0.13419
G1 X4.33 Y-3.31 E0.13462
G1 X4.31 Y-3.14 E0.13477
G1 X4.30 Y-3.00 E0.13491
G1 X4.26 Y-2.71 E0.13518
G1 X4.20 Y-2.43 E0.13545
G1 X4.05 Y-1.92 E0.13595
G1 X3.95 Y-1.67 E0.13621
G1 X3.92 Y-1.61 E0.13627
G1 X3.88 Y-1.52 E0.13636
G1 X3.71 Y-1.18 E0.13672
G1 X3.63 Y-1.06 E0.13685
G1 X3.56 Y-0.95 E0.13698
G1 X3.33 Y-0.63 E0.13735
G1 X3.32 Y-0.62 E0.13736
G1 X3.32 Y-0.61 E0.13737
G1 X3.06 Y-0.33 E0.13773
G1 X2.96 Y-0.24 E0.13785
G1 X2.87 Y-0.15 E0.13797
G1 X2.79 Y-0.08 E0.13807
G1 X3.00 Y0.14 E0.13835
G1 X3.22 Y0.43 E0.13869
G1 X3.44 Y0.80 E0.13910
G1 X3.56 Y1.04 E0.13936
G1 X3.79 Y1.62 E0.13994
G1 X3.87 Y1.93 E0.14024
G1 X4.04 Y2.82 E0.14109
G1 X4.06 Y3.01 E0.14128
G1 X4.08 Y3.30 E0.14154
G1 X4.08 Y3.35 E0.14159
G1 X4.09 Y3.78 E0.14200
G1 X4.09 Y3.95 E0.14216
G1 X4.04 Y4.64 E0.14281
G1 X3.98 Y4.97 E0.14312
G1 X3.81 Y5.62 E0.14376
G1 X3.71 Y5.88 E0.14402
G1 X3.53 Y6.28 E0.14443
G1 X3.42 Y6.47 E0.14464
G1 X3.38 Y6.56 E0.14473
G1 X3.19 Y6.81 E0.14503
G1 X3.09 Y6.95 E0.14519
G1 X3.01 Y7.04 E0.14530
G1 X2.77 Y7.36 E0.14568
G1 X2.07 Y7.85 E0.14648
G1 X1.78 Y8.02 E0.14679
G1 X1.64 Y8.08 E0.14694
G1 X1.41 Y8.19 E0.14718
G1 X0.90 Y8.35 E0.14768
G1 X0.14 Y8.47 E0.14841
G1 X-0.56 Y8.42 E0.14906
G1 X-0.74 Y8.37 E0.14924
G1 X-0.98 Y8.34 E0.14947
G1 X-1.57 Y8.13 E0.15005
G1 X-2.25 Y7.74 E0.15080
G1 X-2.65 Y7.42 E0.15128
G1 X-2.73 Y7.34 E0.15138
G1 X-2.78 Y7.30 E0.15145
G1 X-3.14 Y6.90 E0.15195
G1 X-3.53 Y6.29 E0.15263
G1 X-3.72 Y5.86 E0.15307
G1 X-3.97 Y5.04 E0.15388
G1 X-4.03 Y4.72 E0.15418
G1 X-4.08 Y4.22 E0.15466
G1 X-4.09 Y4.11 E0.15476
G1 X-4.09 Y3.85 E0.15501
G1 X-4.10 Y3.73 E0.15512
G1 X-4.08 Y3.30 E0.15553
G1 X-4.07 Y3.15 E0.15567
G1 X-3.97 Y2.32 E0.15645
G1 X-3.90 Y2.03 E0.15673
G1 X-3.70 Y1.38 E0.15738
G1 X-3.59 Y1.09 E0.15766
G1 X-3.26 Y0.47 E0.15832
G1 X-2.87 Y-0.02 E0.15891
G1 X-2.80 Y-0.09 E0.15900
G0 X-0.29 Y2.43
G0 X-0.28 Y2.42
G0 X-0.40 Y2.33
;TYPE:WALL-OUTER
G1 X-0.23 Y2.18 E0.15922
G1 X-0.15 Y2.15 E0.15930
G1 X-0.12 Y2.15 E0.15932
G1 X-0.00 Y2.14 E0.15944
G1 X0.12 Y2.16 E0.15956
G1 X0.14 Y2.15 E0.15958
G1 X0.19 Y2.17 E0.15962
G1 X0.21 Y2.18 E0.15964
G1 X0.33 Y2.26 E0.15978
G1 X0.39 Y2.33 E0.15987
G1 X0.45 Y2.42 E0.15997
G1 X0.56 Y2.71 E0.16026
G1 X0.67 Y3.33 E0.16085
G1 X0.69 Y3.79 E0.16129
G1 X0.66 Y4.24 E0.16170
G1 X0.57 Y4.58 E0.16204
G1 X0.50 Y4.72 E0.16219
G1 X0.43 Y4.83 E0.16231
G1 X0.39 Y4.87 E0.16236
G1 X0.38 Y4.88 E0.16238
G1 X0.25 Y4.98 E0.16253
G1 X0.20 Y5.00 E0.16258
G1 X0.14 Y5.03 E0.16265
G1 X0.01 Y5.05 E0.16277
G1 X-0.02 Y5.04 E0.16280
G1 X-0.16 Y5.02 E0.16293
G1 X-0.34 Y4.92 E0.16312
G1 X-0.40 Y4.85 E0.16321
G1 X-0.43 Y4.83 E0.16324
G1 X-0.54 Y4.66 E0.16343
G1 X-0.66 Y4.23 E0.16385
G1 X-0.69 Y3.94 E0.16413
G1 X-0.70 Y3.80 E0.16426
G1 X-0.69 Y3.49 E0.16455
G1 X-0.61 Y2.88 E0.16513
G1 X-0.50 Y2.52 E0.16548
G1 X-0.40 Y2.33 E0.16568
G0 X-0.18 Y2.47
G0 X-0.21 Y-2.68
G0 X-0.21 Y-2.68
G0 X-0.21 Y-2.53
G1 X-0.23 Y-2.54 E0.16570
G1 X-0.26 Y-2.53 E0.16573
G1 X-0.31 Y-2.55 E0.16578
G1 X-0.40 Y-2.56 E0.16587
G1 X-0.47 Y-2.60 E0.16595
G1 X-0.51 Y-2.61 E0.16598
G1 X-0.65 Y-2.73 E0.16615
G1 X-0.69 Y-2.78 E0.16621
