;Generated with Cura_SteamEngine 13.11.2


;Layer count: 420
;LAYER:0
M107
G0 F6000 X-0.03 Y0.03 Z0.06
;TYPE:SKIRT
G1 F6000 E0.00000
G1 X0.27 Y0.04 E0.00028
G1 X0.82 Y0.10 E0.00080
G1 X1.18 Y0.19 E0.00115
G1 X1.72 Y0.40 E0.00169
G1 X2.12 Y0.62 E0.00212
G1 X2.72 Y1.08 E0.00283
G1 X3.11 Y1.50 E0.00337
G1 X3.54 Y2.19 E0.00413
G1 X3.66 Y2.44 E0.00440
G1 X3.85 Y2.91 E0.00487
G1 X3.93 Y3.19 E0.00515
G1 X4.19 Y4.49 E0.00640
G1 X4.21 Y4.70 E0.00660
G1 X4.26 Y5.41 E0.00726
G1 X4.26 Y5.54 E0.00739
G1 X4.26 Y5.73 E0.00757
G1 X4.25 Y5.90 E0.00773
G1 X4.15 Y6.95 E0.00872
G1 X4.09 Y7.27 E0.00903
G1 X3.86 Y8.00 E0.00974
G1 X3.74 Y8.28 E0.01003
G1 X3.44 Y8.84 E0.01062
G1 X3.24 Y9.12 E0.01095
G1 X2.85 Y9.56 E0.01150
G1 X2.60 Y9.79 E0.01183
G1 X2.13 Y10.14 E0.01237
G1 X1.82 Y10.32 E0.01271
G1 X1.35 Y10.52 E0.01319
G1 X1.04 Y10.62 E0.01349
G1 X0.60 Y10.71 E0.01391
G1 X0.36 Y10.74 E0.01415
G1 X-0.01 Y10.76 E0.01449
G1 X-0.33 Y10.74 E0.01480
G1 X-0.99 Y10.63 E0.01542
G1 X-1.47 Y10.47 E0.01590
G1 X-2.18 Y10.10 E0.01666
G1 X-2.57 Y9.82 E0.01711
G1 X-3.05 Y9.34 E0.01774
G1 X-3.23 Y9.12 E0.01801
G1 X-3.48 Y8.75 E0.01843
G1 X-3.63 Y8.50 E0.01871
G1 X-3.90 Y7.89 E0.01934
G1 X-4.01 Y7.57 E0.01966
G1 X-4.18 Y6.72 E0.02047
G1 X-4.22 Y6.49 E0.02068
G1 X-4.26 Y5.79 E0.02134
G1 X-4.26 Y5.62 E0.02151
G1 X-4.21 Y4.70 E0.02237
G1 X-4.19 Y4.52 E0.02254
G1 X-4.04 Y3.59 E0.02343
G1 X-3.97 Y3.33 E0.02369
G1 X-3.67 Y2.45 E0.02455
G1 X-3.53 Y2.15 E0.02487
G1 X-3.22 Y1.66 E0.02541
G1 X-2.98 Y1.36 E0.02577
G1 X-2.56 Y0.94 E0.02634
G1 X-2.26 Y0.71 E0.02669
G1 X-1.98 Y0.54 E0.02700
G1 X-1.91 Y0.50 E0.02707
G1 X-1.71 Y0.40 E0.02729
G1 X-1.42 Y0.28 E0.02758
G1 X-0.92 Y0.12 E0.02807
G1 X-0.57 Y0.06 E0.02841
G1 X-0.03 Y0.03 E0.02892
G0 X-0.03 Y-0.07
G1 X0.28 Y-0.06 E0.02921
G1 X0.84 Y0.00 E0.02974
G1 X1.21 Y0.10 E0.03010
G1 X1.76 Y0.31 E0.03065
G1 X2.17 Y0.53 E0.03109
G1 X2.79 Y1.00 E0.03182
G1 X3.19 Y1.44 E0.03238
G1 X3.62 Y2.14 E0.03315
G1 X3.76 Y2.40 E0.03343
G1 X3.94 Y2.88 E0.03391
G1 X4.03 Y3.16 E0.03419
G1 X4.28 Y4.47 E0.03545
G1 X4.31 Y4.69 E0.03566
G1 X4.35 Y5.40 E0.03633
G1 X4.36 Y5.50 E0.03642
G1 X4.36 Y5.73 E0.03664
G1 X4.35 Y5.91 E0.03680
G1 X4.25 Y6.97 E0.03780
G1 X4.18 Y7.30 E0.03812
G1 X3.95 Y8.03 E0.03884
G1 X3.83 Y8.33 E0.03914
G1 X3.52 Y8.89 E0.03975
G1 X3.32 Y9.18 E0.04008
G1 X2.92 Y9.63 E0.04064
G1 X2.66 Y9.87 E0.04098
G1 X2.19 Y10.22 E0.04153
G1 X1.86 Y10.41 E0.04188
G1 X1.38 Y10.61 E0.04238
G1 X1.07 Y10.71 E0.04268
G1 X0.62 Y10.81 E0.04312
G1 X0.37 Y10.84 E0.04336
G1 X-0.01 Y10.86 E0.04371
G1 X-0.34 Y10.84 E0.04402
G1 X-1.01 Y10.73 E0.04466
G1 X-1.51 Y10.57 E0.04516
G1 X-2.24 Y10.19 E0.04593
G1 X-2.64 Y9.90 E0.04639
G1 X-3.12 Y9.41 E0.04704
G1 X-3.31 Y9.18 E0.04732
G1 X-3.57 Y8.81 E0.04775
G1 X-3.72 Y8.55 E0.04803
G1 X-4.00 Y7.92 E0.04867
G1 X-4.10 Y7.59 E0.04900
G1 X-4.28 Y6.74 E0.04982
G1 X-4.31 Y6.50 E0.05004
G1 X-4.36 Y5.80 E0.05071
G1 X-4.36 Y5.62 E0.05087
G1 X-4.31 Y4.69 E0.05175
G1 X-4.29 Y4.51 E0.05192
G1 X-4.14 Y3.57 E0.05282
G1 X-4.07 Y3.30 E0.05308
G1 X-3.76 Y2.42 E0.05395
G1 X-3.61 Y2.10 E0.05429
G1 X-3.31 Y1.60 E0.05484
G1 X-3.06 Y1.29 E0.05521
G1 X-2.62 Y0.86 E0.05579
G1 X-2.32 Y0.63 E0.05615
G1 X-2.03 Y0.46 E0.05646
G1 X-1.96 Y0.41 E0.05654
G1 X-1.75 Y0.30 E0.05676
G1 X-1.46 Y0.18 E0.05706
G1 X-0.94 Y0.03 E0.05756
G1 X-0.58 Y-0.04 E0.05791
G1 X-0.03 Y-0.07 E0.05843
G0 X-0.02 Y0.13
G1 X0.26 Y0.14 E0.05870
G1 X0.80 Y0.20 E0.05921
G1 X1.15 Y0.29 E0.05955
G1 X1.68 Y0.49 E0.06008
G1 X2.06 Y0.70 E0.06049
G1 X2.65 Y1.15 E0.06119
G1 X3.03 Y1.56 E0.06172
G1 X3.45 Y2.23 E0.06246
G1 X3.57 Y2.48 E0.06272
G1 X3.76 Y2.94 E0.06319
G1 X3.83 Y3.21 E0.06345
G1 X4.09 Y4.51 E0.06469
G1 X4.11 Y4.71 E0.06489
G1 X4.16 Y5.41 E0.06555
G1 X4.16 Y5.56 E0.06569
G1 X4.16 Y5.59 E0.06571
G1 X4.16 Y5.73 E0.06585
G1 X4.15 Y5.90 E0.06600
G1 X4.05 Y6.94 E0.06699
G1 X3.99 Y7.25 E0.06728
G1 X3.77 Y7.96 E0.06799
G1 X3.65 Y8.24 E0.06827
G1 X3.35 Y8.78 E0.06886
G1 X3.16 Y9.05 E0.06917
G1 X2.78 Y9.49 E0.06971
G1 X2.54 Y9.72 E0.07002
G1 X2.08 Y10.05 E0.07056
G1 X1.77 Y10.23 E0.07089
G1 X1.31 Y10.43 E0.07136
G1 X1.02 Y10.52 E0.07165
G1 X0.59 Y10.61 E0.07207
G1 X0.35 Y10.64 E0.07229
G1 X-0.01 Y10.66 E0.07263
G1 X-0.32 Y10.64 E0.07292
G1 X-0.96 Y10.54 E0.07354
G1 X-1.43 Y10.38 E0.07400
G1 X-2.13 Y10.02 E0.07474
G1 X-2.51 Y9.74 E0.07518
G1 X-2.97 Y9.27 E0.07580
G1 X-3.15 Y9.06 E0.07606
G1 X-3.40 Y8.70 E0.07648
G1 X-3.54 Y8.46 E0.07674
G1 X-3.81 Y7.85 E0.07736
G1 X-3.91 Y7.54 E0.07767
G1 X-4.09 Y6.71 E0.07847
G1 X-4.11 Y6.48 E0.07868
G1 X-4.16 Y5.79 E0.07933
G1 X-4.16 Y5.62 E0.07949
G1 X-4.11 Y4.71 E0.08035
G1 X-4.09 Y4.54 E0.08052
G1 X-3.94 Y3.61 E0.08140
G1 X-3.88 Y3.35 E0.08165
G1 X-3.58 Y2.49 E0.08251
G1 X-3.44 Y2.19 E0.08282
G1 X-3.14 Y1.72 E0.08334
G1 X-2.91 Y1.42 E0.08369
G1 X-2.49 Y1.01 E0.08425
G1 X-2.20 Y0.79 E0.08459
G1 X-1.93 Y0.63 E0.08488
G1 X-1.87 Y0.59 E0.08496
G1 X-1.67 Y0.49 E0.08517
G1 X-1.39 Y0.37 E0.08545
G1 X-0.90 Y0.22 E0.08593
G1 X-0.56 Y0.16 E0.08626
G1 X-0.02 Y0.13 E0.08676
G0 X0.00 Y-1.00
G1 X-0.70 Y-0.99 E0.08742
G1 X-0.88 Y-1.04 E0.08760
G1 X-0.96 Y-1.04 E0.08768
G1 X-1.94 Y-1.32 E0.08863
G1 X-2.46 Y-1.67 E0.08922
G1 X-2.47 Y-1.68 E0.08924
G1 X-2.78 Y-1.89 E0.08958
G1 X-3.14 Y-2.22 E0.09005
G1 X-3.30 Y-2.43 E0.09030
G1 X-3.34 Y-2.47 E0.09034
G1 X-3.38 Y-2.52 E0.09040
G1 X-3.40 Y-2.56 E0.09044
G1 X-3.68 Y-2.88 E0.09084
G1 X-4.06 Y-3.63 E0.09164
G1 X-4.17 Y-4.19 E0.09217
G1 X-4.18 Y-4.22 E0.09220
G1 X-4.29 Y-4.84 E0.09280
G1 X-4.18 Y-5.81 E0.09372
G1 X-3.97 Y-6.29 E0.09420
G1 X-3.98 Y-6.29 E0.09420
G1 X-3.93 Y-6.40 E0.09432
G1 X-3.89 Y-6.47 E0.09440
G1 X-3.84 Y-6.58 E0.09451
G1 X-3.68 Y-6.93 E0.09487
G1 X-3.27 Y-7.48 E0.09551
G1 X-2.45 Y-8.19 E0.09654
G1 X-1.52 Y-8.60 E0.09749
G1 X-1.28 Y-8.62 E0.09772
G1 X-0.88 Y-8.74 E0.09811
G1 X-0.05 Y-8.76 E0.09889
G1 X0.02 Y-8.76 E0.09896
G1 X0.11 Y-8.76 E0.09905
G1 X0.17 Y-8.76 E0.09910
G1 X0.17 Y-8.76 E0.09910
G1 X0.23 Y-8.76 E0.09916
G1 X0.31 Y-8.76 E0.09923
G1 X0.34 Y-8.76 E0.09926
G1 X0.42 Y-8.75 E0.09934
G1 X0.45 Y-8.75 E0.09936
G1 X0.94 Y-8.73 E0.09983
G1 X1.28 Y-8.62 E0.10016
G1 X1.51 Y-8.60 E0.10037
G1 X2.41 Y-8.22 E0.10129
G1 X2.90 Y-7.80 E0.10190
G1 X2.95 Y-7.76 E0.10196
G1 X3.30 Y-7.44 E0.10241
G1 X3.68 Y-6.92 E0.10301
G1 X3.84 Y-6.58 E0.10336
G1 X3.89 Y-6.47 E0.10348
G1 X3.93 Y-6.40 E0.10355
G1 X3.97 Y-6.29 E0.10367
G1 X3.97 Y-6.29 E0.10367
G1 X4.18 Y-5.81 E0.10416
G1 X4.29 Y-4.84 E0.10507
G1 X4.17 Y-4.22 E0.10567
G1 X4.17 Y-4.19 E0.10570
G1 X4.05 Y-3.63 E0.10624
G1 X3.68 Y-2.88 E0.10703
G1 X3.40 Y-2.56 E0.10743
G1 X3.38 Y-2.52 E0.10747
G1 X3.33 Y-2.47 E0.10753
G1 X3.30 Y-2.44 E0.10757
G1 X3.13 Y-2.22 E0.10783
G1 X2.77 Y-1.89 E0.10829
G1 X1.95 Y-1.33 E0.10923
G1 X0.97 Y-1.04 E0.11019
G1 X0.88 Y-1.04 E0.11027
G1 X0.70 Y-0.99 E0.11045
G1 X0.00 Y-1.00 E0.11111
G0 X0.00 Y-1.10
G1 X-0.69 Y-1.09 E0.11175
G1 X-0.87 Y-1.14 E0.11194
G1 X-0.95 Y-1.14 E0.11201
G1 X-1.89 Y-1.41 E0.11293
G1 X-2.41 Y-1.76 E0.11351
G1 X-2.42 Y-1.76 E0.11353
G1 X-2.72 Y-1.97 E0.11387
G1 X-3.06 Y-2.29 E0.11431
G1 X-3.22 Y-2.49 E0.11455
G1 X-3.26 Y-2.54 E0.11461
G1 X-3.30 Y-2.59 E0.11467
G1 X-3.32 Y-2.61 E0.11470
G1 X-3.60 Y-2.93 E0.11510
G1 X-3.96 Y-3.66 E0.11587
G1 X-4.07 Y-4.21 E0.11639
G1 X-4.08 Y-4.24 E0.11642
G1 X-4.19 Y-4.85 E0.11700
G1 X-4.09 Y-5.79 E0.11789
G1 X-3.87 Y-6.29 E0.11841
G1 X-3.84 Y-6.36 E0.11848
G1 X-3.80 Y-6.43 E0.11855
G1 X-3.75 Y-6.54 E0.11867
G1 X-3.59 Y-6.88 E0.11902
G1 X-3.20 Y-7.41 E0.11964
G1 X-2.40 Y-8.11 E0.12064
G1 X-1.50 Y-8.50 E0.12156
G1 X-1.26 Y-8.52 E0.12178
G1 X-0.87 Y-8.64 E0.12217
G1 X-0.05 Y-8.66 E0.12294
G1 X0.02 Y-8.66 E0.12300
G1 X0.11 Y-8.66 E0.12309
G1 X0.17 Y-8.66 E0.12315
G1 X0.17 Y-8.66 E0.12315
G1 X0.23 Y-8.66 E0.12321
G1 X0.31 Y-8.66 E0.12328
G1 X0.34 Y-8.66 E0.12330
G1 X0.42 Y-8.65 E0.12338
G1 X0.44 Y-8.65 E0.12341
G1 X0.93 Y-8.63 E0.12386
G1 X1.26 Y-8.52 E0.12419
G1 X1.48 Y-8.50 E0.12440
G1 X2.36 Y-8.13 E0.12529
G1 X2.84 Y-7.72 E0.12588
G1 X2.88 Y-7.68 E0.12594
G1 X3.22 Y-7.37 E0.12638
G1 X3.60 Y-6.87 E0.12696
G1 X3.75 Y-6.54 E0.12731
G1 X3.80 Y-6.43 E0.12742
G1 X3.83 Y-6.36 E0.12749
G1 X3.86 Y-6.29 E0.12756
G1 X4.08 Y-5.79 E0.12808
G1 X4.19 Y-4.85 E0.12897
G1 X4.08 Y-4.24 E0.12956
G1 X4.07 Y-4.21 E0.12958
G1 X3.96 Y-3.66 E0.13011
G1 X3.60 Y-2.93 E0.13087
G1 X3.32 Y-2.61 E0.13127
G1 X3.30 Y-2.59 E0.13130
G1 X3.26 Y-2.54 E0.13136
G1 X3.22 Y-2.49 E0.13142
G1 X3.06 Y-2.29 E0.13166
G1 X2.71 Y-1.96 E0.13211
G1 X1.91 Y-1.42 E0.13302
G1 X0.96 Y-1.14 E0.13395
G1 X0.87 Y-1.14 E0.13403
G1 X0.69 Y-1.09 E0.13422
G1 X0.00 Y-1.10 E0.13486
G0 X0.00 Y-1.20
G1 X-0.67 Y-1.19 E0.13549
G1 X-0.86 Y-1.24 E0.13568
G1 X-0.94 Y-1.24 E0.13575
G1 X-1.85 Y-1.50 E0.13664
G1 X-2.35 Y-1.84 E0.13721
G1 X-2.36 Y-1.85 E0.13722
G1 X-2.65 Y-2.05 E0.13755
G1 X-2.99 Y-2.36 E0.13799
G1 X-3.14 Y-2.56 E0.13822
G1 X-3.18 Y-2.60 E0.13828
G1 X-3.22 Y-2.65 E0.13833
G1 X-3.24 Y-2.67 E0.13836
G1 X-3.52 Y-2.99 E0.13876
G1 X-3.87 Y-3.70 E0.13950
G1 X-3.97 Y-4.23 E0.14001
G1 X-3.98 Y-4.26 E0.14004
G1 X-4.09 Y-4.85 E0.14061
G1 X-3.99 Y-5.76 E0.14147
G1 X-3.77 Y-6.25 E0.14197
G1 X-3.74 Y-6.32 E0.14204
G1 X-3.71 Y-6.39 E0.14211
G1 X-3.66 Y-6.50 E0.14223
G1 X-3.51 Y-6.83 E0.14257
G1 X-3.12 Y-7.34 E0.14317
G1 X-2.34 Y-8.02 E0.14414
G1 X-1.47 Y-8.40 E0.14504
G1 X-1.24 Y-8.42 E0.14526
G1 X-0.85 Y-8.54 E0.14564
G1 X-0.04 Y-8.56 E0.14640
G1 X0.02 Y-8.56 E0.14646
G1 X0.11 Y-8.56 E0.14655
G1 X0.17 Y-8.56 E0.14660
G1 X0.17 Y-8.56 E0.14660
G1 X0.23 Y-8.56 E0.14666
G1 X0.31 Y-8.56 E0.14673
G1 X0.33 Y-8.56 E0.14675
G1 X0.42 Y-8.55 E0.14683
G1 X0.44 Y-8.55 E0.14686
G1 X0.91 Y-8.53 E0.14730
G1 X1.24 Y-8.42 E0.14762
G1 X1.46 Y-8.40 E0.14783
G1 X2.30 Y-8.04 E0.14869
G1 X2.77 Y-7.65 E0.14927
G1 X2.82 Y-7.61 E0.14933
G1 X3.15 Y-7.31 E0.14975
G1 X3.51 Y-6.82 E0.15032
G1 X3.66 Y-6.50 E0.15065
G1 X3.71 Y-6.39 E0.15076
G1 X3.74 Y-6.32 E0.15084
G1 X3.77 Y-6.25 E0.15091
G1 X3.98 Y-5.76 E0.15141
G1 X4.09 Y-4.85 E0.15227
G1 X3.98 Y-4.26 E0.15284
G1 X3.97 Y-4.23 E0.15287
G1 X3.86 Y-3.70 E0.15338
G1 X3.51 Y-2.99 E0.15412
G1 X3.24 Y-2.67 E0.15452
G1 X3.22 Y-2.65 E0.15454
G1 X3.18 Y-2.60 E0.15460
G1 X3.14 Y-2.56 E0.15466
G1 X2.99 Y-2.36 E0.15489
G1 X2.65 Y-2.04 E0.15533
G1 X1.87 Y-1.51 E0.15622
G1 X0.94 Y-1.24 E0.15712
G1 X0.86 Y-1.24 E0.15720
G1 X0.67 Y-1.19 E0.15738
G1 X0.00 Y-1.20 E0.15802
G0 X0.02 Y3.38
G0 X0.02 Y3.38
G0 X0.03 Y3.23
;TYPE:WALL-OUTER
G1 X0.23 Y3.26 E0.15821
G1 X0.37 Y3.31 E0.15835
G1 X0.55 Y3.45 E0.15856
G1 X0.74 Y3.75 E0.15891
G1 X0.82 Y3.94 E0.15910
G1 X1.02 Y4.99 E0.16011
G1 X1.06 Y5.51 E0.16059
G1 X1.05 Y5.54 E0.16062
G1 X1.06 Y5.68 E0.16076
G1 X0.98 Y6.48 E0.16151
G1 X0.85 Y6.89 E0.16191
G1 X0.71 Y7.14 E0.16218
G1 X0.56 Y7.33 E0.16241
G1 X0.38 Y7.45 E0.16261
G1 X0.23 Y7.52 E0.16276
G1 X0.08 Y7.55 E0.16291
G1 X0.00 Y7.55 E0.16298
G1 X-0.23 Y7.52 E0.16320
G1 X-0.49 Y7.38 E0.16348
G1 X-0.68 Y7.18 E0.16374
G1 X-0.77 Y7.06 E0.16388
G1 X-0.91 Y6.74 E0.16421
G1 X-1.03 Y6.18 E0.16475
G1 X-1.06 Y5.69 E0.16521
G1 X-1.02 Y4.95 E0.16591
G1 X-0.91 Y4.24 E0.16658
G1 X-0.71 Y3.67 E0.16715
G1 X-0.60 Y3.50 E0.16734
G1 X-0.45 Y3.36 E0.16754
G1 X-0.35 Y3.29 E0.16765
G1 X-0.18 Y3.24 E0.16781
G1 X0.03 Y3.23 E0.16801
G0 X0.03 Y3.48
G0 X0.16 Y-4.45
G0 X0.24 Y-4.45
G0 X0.26 Y-4.30
G1 X0.00 Y-4.30 E0.16825
G1 X-0.26 Y-4.30 E0.16850
G1 X-0.36 Y-4.36 E0.16861
G1 X-0.53 Y-4.35 E0.16877
G1 X-0.62 Y-4.41 E0.16887
G1 X-0.71 Y-4.47 E0.16897
G1 X-0.75 Y-4.53 E0.16904
G1 X-0.86 Y-4.66 E0.16920
G1 X-0.91 Y-4.72 E0.16927
G1 X-0.96 Y-4.95 E0.16949
G1 X-0.93 Y-5.01 E0.16955
G1 X-0.87 Y-5.16 E0.16970
G1 X-0.84 Y-5.22 E0.16977
G1 X-0.67 Y-5.36 E0.16997
G1 X-0.45 Y-5.39 E0.17018
G1 X-0.35 Y-5.45 E0.17030
G1 X0.00 Y-5.46 E0.17063
G1 X0.06 Y-5.46 E0.17068
G1 X0.18 Y-5.46 E0.17080
G1 X0.34 Y-5.45 E0.17095
G1 X0.46 Y-5.38 E0.17108
G1 X0.67 Y-5.36 E0.17128
G1 X0.83 Y-5.22 E0.17148
G1 X0.87 Y-5.16 E0.17155
G1 X0.93 Y-5.01 E0.17170
G1 X0.95 Y-4.95 E0.17176
G1 X0.91 Y-4.72 E0.17198
G1 X0.86 Y-4.66 E0.17205
G1 X0.75 Y-4.53 E0.17221
G1 X0.70 Y-4.47 E0.17229
G1 X0.53 Y-4.35 E0.17248
G1 X0.36 Y-4.36 E0.17264
G1 X0.26 Y-4.30 E0.17275
G0 X0.21 Y-4.56
;LAYER:1
G0 X0.21 Y-3.42 Z0.12
;TYPE:WALL-OUTER
G1 X0.13 Y-3.42 E0.17283
G1 X0.12 Y-3.42 E0.17285
G1 X0.02 Y-3.42 E0.17294
G1 X-0.12 Y-3.42 E0.17307
G1 X-0.14 Y-3.42 E0.17309
G1 X-0.27 Y-3.42 E0.17321
G1 X-0.63 Y-3.46 E0.17355
G1 X-0.85 Y-3.57 E0.17378
G1 X-1.00 Y-3.70 E0.17397
G1 X-1.15 Y-3.88 E0.17419
G1 X-1.36 Y-4.24 E0.17457
G1 X-1.53 Y-4.63 E0.17498
G1 X-1.65 Y-5.09 E0.17543
G1 X-1.69 Y-5.31 E0.17564
G1 X-1.69 Y-5.44 E0.17575
G1 X-1.68 Y-5.59 E0.17590
G1 X-1.65 Y-5.77 E0.17607
G1 X-1.56 Y-5.93 E0.17625
G1 X-1.43 Y-6.07 E0.17642
G1 X-1.16 Y-6.20 E0.17670
G1 X-0.69 Y-6.31 E0.17716
G1 X-0.33 Y-6.34 E0.17750
G1 X-0.14 Y-6.34 E0.17767
G1 X-0.12 Y-6.34 E0.17770
G1 X-0.00 Y-6.34 E0.17781
G1 X0.81 Y-6.29 E0.17858
G1 X1.29 Y-6.15 E0.17904
G1 X1.43 Y-6.07 E0.17920
G1 X1.56 Y-5.93 E0.17937
G1 X1.63 Y-5.79 E0.17952
G1 X1.64 Y-5.76 E0.17955
G1 X1.69 Y-5.56 E0.17975
G1 X1.69 Y-5.44 E0.17985
G1 X1.64 Y-5.04 E0.18023
G1 X1.47 Y-4.49 E0.18077
G1 X1.21 Y-3.98 E0.18131
G1 X0.95 Y-3.66 E0.18170
G1 X0.80 Y-3.54 E0.18189
G1 X0.58 Y-3.45 E0.18211
G1 X0.43 Y-3.42 E0.18226
G1 X0.29 Y-3.42 E0.18239
G1 X0.28 Y-3.42 E0.18240
G1 X0.21 Y-3.42 E0.18246
G0 X0.22 Y-3.67
G0 X0.00 Y3.30
G0 X0.00 Y3.30
G0 X0.00 Y3.15
G1 X0.23 Y3.18 E0.18268
G1 X0.39 Y3.25 E0.18284
G1 X0.50 Y3.33 E0.18296
G1 X0.65 Y3.51 E0.18319
G1 X0.83 Y3.89 E0.18359
G1 X0.97 Y4.48 E0.18416
G1 X1.00 Y4.64 E0.18430
G1 X1.07 Y5.34 E0.18497
G1 X1.08 Y5.70 E0.18531
G1 X1.03 Y6.37 E0.18594
G1 X0.97 Y6.66 E0.18622
G1 X0.83 Y7.02 E0.18658
G1 X0.78 Y7.12 E0.18669
G1 X0.66 Y7.29 E0.18688
G1 X0.53 Y7.43 E0.18706
G1 X0.38 Y7.53 E0.18722
G1 X0.23 Y7.59 E0.18738
G1 X0.08 Y7.63 E0.18753
G1 X0.00 Y7.63 E0.18760
G1 X-0.15 Y7.61 E0.18775
G1 X-0.31 Y7.56 E0.18790
G1 X-0.52 Y7.43 E0.18814
G1 X-0.72 Y7.21 E0.18842
G1 X-0.78 Y7.12 E0.18851
G1 X-0.93 Y6.78 E0.18886
G1 X-1.00 Y6.52 E0.18912
G1 X-1.06 Y6.04 E0.18957
G1 X-1.08 Y5.70 E0.18990
G1 X-1.07 Y5.35 E0.19023
G1 X-0.91 Y4.16 E0.19135
G1 X-0.75 Y3.68 E0.19183
G1 X-0.70 Y3.59 E0.19192
G1 X-0.51 Y3.33 E0.19223
G1 X-0.34 Y3.22 E0.19242
G1 X-0.18 Y3.17 E0.19258
G1 X0.00 Y3.15 E0.19275
G0 X-0.01 Y3.40
;LAYER:2
G0 X-0.01 Y3.15 Z0.18
;TYPE:WALL-OUTER
G1 X0.23 Y3.18 E0.19297
G1 X0.40 Y3.25 E0.19314
G1 X0.51 Y3.34 E0.19327
G1 X0.66 Y3.52 E0.19350
G1 X0.83 Y3.89 E0.19388
G1 X1.00 Y4.64 E0.19460
G1 X1.07 Y5.34 E0.19526
G1 X1.08 Y5.52 E0.19543
G1 X1.07 Y5.56 E0.19547
G1 X1.08 Y5.74 E0.19563
G1 X1.00 Y6.52 E0.19637
G1 X0.88 Y6.91 E0.19676
G1 X0.75 Y7.17 E0.19703
G1 X0.57 Y7.39 E0.19730
G1 X0.38 Y7.53 E0.19752
G1 X0.31 Y7.56 E0.19759
G1 X0.08 Y7.63 E0.19781
G1 X0.01 Y7.63 E0.19788
G1 X-0.31 Y7.56 E0.19819
G1 X-0.52 Y7.43 E0.19843
G1 X-0.74 Y7.17 E0.19874
G1 X-0.83 Y7.02 E0.19891
G1 X-0.98 Y6.62 E0.19931
G1 X-1.03 Y6.37 E0.19955
G1 X-1.06 Y6.04 E0.19986
G1 X-1.08 Y5.56 E0.20031
G1 X-0.97 Y4.45 E0.20136
G1 X-0.83 Y3.89 E0.20190
G1 X-0.70 Y3.59 E0.20221
G1 X-0.61 Y3.44 E0.20237
G1 X-0.44 Y3.28 E0.20259
G1 X-0.34 Y3.22 E0.20270
G1 X-0.29 Y3.20 E0.20276
G1 X-0.18 Y3.17 E0.20286
G1 X-0.01 Y3.15 E0.20303
G0 X-0.01 Y3.41
G0 X-0.23 Y-3.53
G0 X-0.23 Y-3.53
G0 X-0.22 Y-3.38
G1 X-0.28 Y-3.38 E0.20308
G1 X-0.56 Y-3.41 E0.20334
G1 X-0.75 Y-3.48 E0.20354
G1 X-0.96 Y-3.63 E0.20378
G1 X-1.11 Y-3.79 E0.20398
G1 X-1.32 Y-4.12 E0.20435
G1 X-1.55 Y-4.64 E0.20489
G1 X-1.69 Y-5.19 E0.20542
G1 X-1.72 Y-5.45 E0.20567
G1 X-1.70 Y-5.70 E0.20590
G1 X-1.67 Y-5.79 E0.20599
G1 X-1.63 Y-5.89 E0.20609
G1 X-1.57 Y-5.97 E0.20619
G1 X-1.45 Y-6.09 E0.20635
G1 X-1.17 Y-6.24 E0.20664
G1 X-0.69 Y-6.34 E0.20711
G1 X-0.28 Y-6.37 E0.20749
G1 X0.14 Y-6.38 E0.20789
G1 X0.96 Y-6.30 E0.20867
G1 X1.25 Y-6.21 E0.20895
G1 X1.45 Y-6.10 E0.20916
G1 X1.58 Y-5.96 E0.20934
G1 X1.67 Y-5.79 E0.20953
G1 X1.70 Y-5.70 E0.20962
G1 X1.72 Y-5.43 E0.20986
G1 X1.71 Y-5.31 E0.20998
G1 X1.59 Y-4.77 E0.21050
G1 X1.43 Y-4.35 E0.21092
G1 X1.16 Y-3.87 E0.21144
G1 X1.02 Y-3.69 E0.21165
G1 X0.95 Y-3.62 E0.21175
G1 X0.82 Y-3.52 E0.21190
G1 X0.62 Y-3.43 E0.21211
G1 X0.42 Y-3.39 E0.21230
G1 X0.28 Y-3.38 E0.21243
G1 X0.15 Y-3.39 E0.21255
G1 X0.01 Y-3.39 E0.21269
G1 X-0.22 Y-3.38 E0.21290
G0 X-0.21 Y-3.63
;LAYER:3
G0 X-0.21 Y-3.42 Z0.24
