;Generated with Cura_SteamEngine 13.11.2
;FLAVOR:UltiGCode
;TIME:1892      
;MATERIAL:565       
;MATERIAL2:0         

;Layer count: 1504
;LAYER:0
M107
G0 F6000 X23.05 Y-0.15 Z0.03
;TYPE:SKIRT
G11
G1 X23.05 Y0.15 E0.00089
G1 X22.64 Y4.35 E0.01355
G1 X22.58 Y4.64 E0.01445
G1 X21.35 Y8.68 E0.02711
G1 X21.24 Y8.96 E0.02801
G1 X19.25 Y12.68 E0.04068
G1 X19.08 Y12.93 E0.04157
G1 X16.40 Y16.19 E0.05423
G1 X16.19 Y16.40 E0.05513
G1 X12.93 Y19.08 E0.06780
G1 X12.68 Y19.25 E0.06869
G1 X8.96 Y21.24 E0.08136
G1 X8.68 Y21.35 E0.08226
G1 X4.64 Y22.58 E0.09492
G1 X4.35 Y22.64 E0.09581
G1 X0.15 Y23.05 E0.10848
G1 X-0.15 Y23.05 E0.10937
G1 X-4.35 Y22.64 E0.12203
G1 X-4.64 Y22.58 E0.12293
G1 X-8.68 Y21.35 E0.13559
G1 X-8.96 Y21.24 E0.13649
G1 X-12.68 Y19.25 E0.14915
G1 X-12.93 Y19.08 E0.15005
G1 X-16.19 Y16.41 E0.16270
G1 X-16.40 Y16.19 E0.16360
G1 X-19.08 Y12.93 E0.17627
G1 X-19.25 Y12.68 E0.17717
G1 X-21.24 Y8.96 E0.18983
G1 X-21.35 Y8.68 E0.19073
G1 X-22.58 Y4.64 E0.20339
G1 X-22.64 Y4.35 E0.20429
G1 X-23.05 Y0.15 E0.21695
G1 X-23.05 Y-0.15 E0.21785
G1 X-22.64 Y-4.35 E0.23051
G1 X-22.58 Y-4.64 E0.23140
G1 X-21.35 Y-8.68 E0.24406
G1 X-21.24 Y-8.96 E0.24496
G1 X-19.25 Y-12.68 E0.25763
G1 X-19.08 Y-12.93 E0.25852
G1 X-16.40 Y-16.19 E0.27119
G1 X-16.19 Y-16.40 E0.27208
G1 X-12.93 Y-19.08 E0.28475
G1 X-12.68 Y-19.25 E0.28564
G1 X-8.96 Y-21.24 E0.29831
G1 X-8.68 Y-21.35 E0.29921
G1 X-4.64 Y-22.58 E0.31187
G1 X-4.35 Y-22.64 E0.31276
G1 X-0.15 Y-23.05 E0.32542
G1 X0.15 Y-23.05 E0.32632
G1 X4.35 Y-22.64 E0.33898
G1 X4.64 Y-22.58 E0.33988
G1 X8.68 Y-21.35 E0.35254
G1 X8.96 Y-21.24 E0.35344
G1 X12.68 Y-19.25 E0.36610
G1 X12.93 Y-19.08 E0.36700
G1 X16.19 Y-16.40 E0.37966
G1 X16.40 Y-16.19 E0.38056
G1 X19.08 Y-12.93 E0.39322
G1 X19.25 Y-12.68 E0.39412
G1 X21.24 Y-8.96 E0.40678
G1 X21.35 Y-8.68 E0.40768
G1 X22.58 Y-4.64 E0.42034
G1 X22.64 Y-4.35 E0.42124
G1 X23.05 Y-0.15 E0.43390
G0 X23.15 Y-0.16
G1 X23.15 Y0.16 E0.43483
G1 X22.73 Y4.36 E0.44752
G1 X22.67 Y4.67 E0.44844
G1 X21.45 Y8.72 E0.46114
G1 X21.33 Y9.00 E0.46207
G1 X19.33 Y12.73 E0.47476
G1 X19.16 Y12.99 E0.47568
G1 X16.48 Y16.26 E0.48837
G1 X16.26 Y16.48 E0.48930
G1 X12.99 Y19.16 E0.50199
G1 X12.73 Y19.33 E0.50292
G1 X9.00 Y21.33 E0.51561
G1 X8.72 Y21.45 E0.51654
G1 X4.67 Y22.67 E0.52923
G1 X4.36 Y22.73 E0.53016
G1 X0.16 Y23.15 E0.54285
G1 X-0.16 Y23.15 E0.54378
G1 X-4.36 Y22.73 E0.55647
G1 X-4.67 Y22.67 E0.55739
G1 X-8.72 Y21.45 E0.57008
G1 X-9.00 Y21.33 E0.57101
G1 X-12.73 Y19.33 E0.58370
G1 X-12.99 Y19.16 E0.58463
G1 X-16.26 Y16.48 E0.59731
G1 X-16.48 Y16.26 E0.59824
G1 X-19.16 Y12.99 E0.61094
G1 X-19.33 Y12.73 E0.61187
G1 X-21.33 Y9.00 E0.62456
G1 X-21.45 Y8.72 E0.62549
G1 X-22.67 Y4.67 E0.63818
G1 X-22.73 Y4.36 E0.63911
G1 X-23.15 Y0.15 E0.65180
G1 X-23.15 Y-0.15 E0.65272
G1 X-22.73 Y-4.36 E0.66541
G1 X-22.67 Y-4.67 E0.66634
G1 X-21.45 Y-8.72 E0.67903
G1 X-21.33 Y-9.00 E0.67996
G1 X-19.33 Y-12.73 E0.69265
G1 X-19.16 Y-12.99 E0.69357
G1 X-16.48 Y-16.26 E0.70627
G1 X-16.26 Y-16.48 E0.70720
G1 X-12.99 Y-19.16 E0.71989
G1 X-12.73 Y-19.33 E0.72081
G1 X-9.00 Y-21.33 E0.73350
G1 X-8.72 Y-21.45 E0.73443
G1 X-4.67 Y-22.67 E0.74712
G1 X-4.36 Y-22.73 E0.74805
G1 X-0.15 Y-23.15 E0.76074
G1 X0.15 Y-23.15 E0.76167
G1 X4.36 Y-22.73 E0.77435
G1 X4.67 Y-22.67 E0.77528
G1 X8.72 Y-21.45 E0.78797
G1 X9.00 Y-21.33 E0.78890
G1 X12.73 Y-19.33 E0.80159
G1 X12.99 Y-19.16 E0.80252
G1 X16.26 Y-16.48 E0.81521
G1 X16.48 Y-16.26 E0.81614
G1 X19.16 Y-12.99 E0.82883
G1 X19.33 Y-12.73 E0.82976
G1 X21.33 Y-9.00 E0.84245
G1 X21.45 Y-8.72 E0.84338
G1 X22.67 Y-4.67 E0.85607
G1 X22.73 Y-4.36 E0.85700
G1 X23.15 Y-0.16 E0.86968
G0 X19.80 Y0.00
G0 X19.80 Y0.00
G0 X19.95 Y0.00
;TYPE:WALL-OUTER
G1 X19.57 Y3.89 E0.88141
G1 X18.43 Y7.63 E0.89315
G1 X16.59 Y11.08 E0.90488
G1 X14.11 Y14.11 E0.91661
G1 X11.08 Y16.59 E0.92835
G1 X7.63 Y18.43 E0.94008
G1 X3.89 Y19.57 E0.95181
G1 X0.00 Y19.95 E0.96354
G1 X-3.89 Y19.57 E0.97527
G1 X-7.63 Y18.43 E0.98700
G1 X-11.08 Y16.59 E0.99873
G1 X-14.10 Y14.11 E1.01046
G1 X-16.59 Y11.08 E1.02220
G1 X-18.43 Y7.63 E1.03393
G1 X-19.57 Y3.89 E1.04566
G1 X-19.95 Y0.00 E1.05739
G1 X-19.57 Y-3.89 E1.06912
G1 X-18.43 Y-7.63 E1.08086
G1 X-16.59 Y-11.08 E1.09259
G1 X-14.11 Y-14.11 E1.10432
G1 X-11.08 Y-16.59 E1.11606
G1 X-7.63 Y-18.43 E1.12779
G1 X-3.89 Y-19.57 E1.13952
G1 X0.00 Y-19.95 E1.15125
G1 X3.89 Y-19.57 E1.16298
G1 X7.63 Y-18.43 E1.17471
G1 X11.08 Y-16.59 E1.18644
G1 X14.11 Y-14.11 E1.19818
G1 X16.59 Y-11.08 E1.20991
G1 X18.43 Y-7.63 E1.22164
G1 X19.57 Y-3.89 E1.23338
G1 X19.95 Y0.00 E1.24511
G0 X19.70 Y-0.01
;LAYER:1
G0 X19.95 Y0.00 Z0.06
;TYPE:WALL-OUTER
G1 X19.57 Y3.89 E1.25684
G1 X18.43 Y7.63 E1.26857
G1 X16.59 Y11.08 E1.28030
G1 X14.11 Y14.10 E1.29202
G1 X11.09 Y16.58 E1.30375
G1 X7.63 Y18.43 E1.31550
G1 X3.89 Y19.57 E1.32723
G1 X0.00 Y19.95 E1.33896
G1 X-3.89 Y19.57 E1.35069
G1 X-7.63 Y18.43 E1.36242
G1 X-11.08 Y16.59 E1.37416
G1 X-14.10 Y14.11 E1.38587
G1 X-16.58 Y11.09 E1.39761
G1 X-18.43 Y7.63 E1.40935
G1 X-19.57 Y3.89 E1.42109
G1 X-19.95 Y0.00 E1.43282
G1 X-19.57 Y-3.89 E1.44455
G1 X-18.43 Y-7.63 E1.45628
G1 X-16.59 Y-11.08 E1.46801
G1 X-14.11 Y-14.10 E1.47973
G1 X-11.09 Y-16.58 E1.49146
G1 X-7.63 Y-18.43 E1.50321
G1 X-3.89 Y-19.57 E1.51494
G1 X0.00 Y-19.95 E1.52667
G1 X3.89 Y-19.57 E1.53840
G1 X7.63 Y-18.43 E1.55013
G1 X11.08 Y-16.59 E1.56186
G1 X14.10 Y-14.11 E1.57358
G1 X16.58 Y-11.09 E1.58532
G1 X18.43 Y-7.63 E1.59706
G1 X19.57 Y-3.89 E1.60880
G1 X19.95 Y0.00 E1.62053
G0 X19.70 Y-0.01
;LAYER:2
G0 X19.95 Y0.00 Z0.09
;TYPE:WALL-OUTER
G1 X19.57 Y3.89 E1.63225
G1 X18.43 Y7.63 E1.64399
G1 X16.59 Y11.08 E1.65572
G1 X14.11 Y14.11 E1.66745
G1 X11.08 Y16.59 E1.67919
G1 X7.63 Y18.43 E1.69092
G1 X3.89 Y19.57 E1.70265
G1 X0.00 Y19.95 E1.71438
G1 X-3.89 Y19.57 E1.72611
G1 X-7.63 Y18.43 E1.73784
G1 X-11.08 Y16.59 E1.74957
G1 X-14.10 Y14.11 E1.76128
G1 X-16.59 Y11.08 E1.77304
G1 X-18.43 Y7.63 E1.78477
G1 X-19.57 Y3.89 E1.79651
G1 X-19.95 Y0.00 E1.80824
G1 X-19.57 Y-3.89 E1.81997
G1 X-18.43 Y-7.63 E1.83170
G1 X-16.59 Y-11.08 E1.84343
G1 X-14.11 Y-14.11 E1.85516
G1 X-11.08 Y-16.59 E1.86690
G1 X-7.63 Y-18.43 E1.87863
G1 X-3.89 Y-19.57 E1.89036
G1 X0.00 Y-19.95 E1.90209
G1 X3.89 Y-19.57 E1.91382
G1 X7.63 Y-18.43 E1.92556
G1 X11.08 Y-16.59 E1.93728
G1 X14.11 Y-14.11 E1.94902
G1 X16.59 Y-11.08 E1.96076
G1 X18.43 Y-7.63 E1.97248
G1 X19.57 Y-3.89 E1.98422
G1 X19.95 Y0.00 E1.99595
G0 X19.70 Y-0.01
;LAYER:3
G0 X19.95 Y0.00 Z0.12
;TYPE:WALL-OUTER
G1 X19.57 Y3.89 E2.00768
G1 X18.43 Y7.63 E2.01941
G1 X16.59 Y11.08 E2.03114
G1 X14.11 Y14.10 E2.04284
G1 X11.09 Y16.58 E2.05458
G1 X7.63 Y18.43 E2.06634
G1 X3.89 Y19.57 E2.07807
G1 X0.00 Y19.95 E2.08980
G1 X-3.89 Y19.57 E2.10153
G1 X-7.63 Y18.43 E2.11326
G1 X-11.08 Y16.59 E2.12499
G1 X-14.10 Y14.11 E2.13670
G1 X-16.58 Y11.09 E2.14843
G1 X-18.43 Y7.63 E2.16019
G1 X-19.57 Y3.89 E2.17192
G1 X-19.95 Y0.00 E2.18365
G1 X-19.57 Y-3.89 E2.19538
G1 X-18.43 Y-7.63 E2.20712
G1 X-16.59 Y-11.08 E2.21885
G1 X-14.11 Y-14.10 E2.23055
G1 X-11.09 Y-16.58 E2.24229
G1 X-7.63 Y-18.43 E2.25405
G1 X-3.89 Y-19.57 E2.26578
G1 X0.00 Y-19.95 E2.27751
G1 X3.89 Y-19.57 E2.28924
G1 X7.63 Y-18.43 E2.30097
G1 X11.08 Y-16.59 E2.31270
G1 X14.10 Y-14.11 E2.32441
G1 X16.58 Y-11.09 E2.33614
G1 X18.43 Y-7.63 E2.34790
G1 X19.57 Y-3.89 E2.35963
G1 X19.95 Y0.00 E2.37136
G0 X19.70 Y-0.01
;LAYER:4
G0 X19.95 Y0.00 Z0.15
;TYPE:WALL-OUTER
G1 X19.57 Y3.89 E2.38309
G1 X18.43 Y7.63 E2.39483
G1 X16.59 Y11.08 E2.40656
G1 X14.11 Y14.11 E2.41829
G1 X11.08 Y16.59 E2.43003
G1 X7.63 Y18.43 E2.44176
G1 X3.89 Y19.57 E2.45349
G1 X0.00 Y19.95 E2.46522
G1 X-3.89 Y19.57 E2.47695
G1 X-7.63 Y18.43 E2.48868
G1 X-11.08 Y16.59 E2.50041
G1 X-14.10 Y14.11 E2.51211
G1 X-16.59 Y11.08 E2.52388
G1 X-18.43 Y7.63 E2.53561
G1 X-19.57 Y3.89 E2.54734
G1 X-19.95 Y0.00 E2.55907
G1 X-19.57 Y-3.89 E2.57080
G1 X-18.43 Y-7.63 E2.58254
G1 X-16.59 Y-11.08 E2.59427
G1 X-14.11 Y-14.11 E2.60600
G1 X-11.08 Y-16.59 E2.61774
G1 X-7.63 Y-18.43 E2.62947
G1 X-3.89 Y-19.57 E2.64120
G1 X0.00 Y-19.95 E2.65293
G1 X3.89 Y-19.57 E2.66466
G1 X7.63 Y-18.43 E2.67639
G1 X11.08 Y-16.59 E2.68812
G1 X14.11 Y-14.11 E2.69986
G1 X16.59 Y-11.08 E2.71159
G1 X18.43 Y-7.63 E2.72332
G1 X19.57 Y-3.89 E2.73506
G1 X19.95 Y0.00 E2.74678
G0 X19.70 Y-0.01
;LAYER:5
G0 X19.95 Y0.00 Z0.18
;TYPE:WALL-OUTER
G1 X19.57 Y3.89 E2.75851
G1 X18.43 Y7.63 E2.77025
G1 X16.59 Y11.08 E2.78198
G1 X14.11 Y14.11 E2.79371
G1 X11.08 Y16.59 E2.80545
G1 X7.63 Y18.43 E2.81718
G1 X3.89 Y19.57 E2.82891
G1 X0.00 Y19.95 E2.84064
G1 X-3.89 Y19.57 E2.85237
G1 X-7.63 Y18.43 E2.86410
G1 X-11.08 Y16.59 E2.87583
G1 X-14.09 Y14.12 E2.88752
G1 X-16.59 Y11.08 E2.89930
G1 X-18.43 Y7.63 E2.91103
G1 X-19.57 Y3.89 E2.92276
G1 X-19.95 Y0.00 E2.93449
G1 X-19.57 Y-3.89 E2.94622
G1 X-18.43 Y-7.63 E2.95796
G1 X-16.59 Y-11.08 E2.96969
G1 X-14.11 Y-14.11 E2.98142
G1 X-11.08 Y-16.59 E2.99316
G1 X-7.63 Y-18.43 E3.00489
G1 X-3.89 Y-19.57 E3.01662
G1 X0.00 Y-19.95 E3.02835
G1 X3.89 Y-19.57 E3.04008
G1 X7.63 Y-18.43 E3.05181
G1 X11.08 Y-16.59 E3.06354
G1 X14.11 Y-14.11 E3.07528
G1 X16.59 Y-11.08 E3.08701
G1 X18.43 Y-7.63 E3.09874
G1 X19.57 Y-3.89 E3.11048
G1 X19.95 Y0.00 E3.12221
G0 X19.70 Y-0.01
;LAYER:6
G0 X19.95 Y0.00 Z0.21
;TYPE:WALL-OUTER
G1 X19.57 Y3.89 E3.13394
G1 X18.43 Y7.63 E3.14567
G1 X16.59 Y11.08 E3.15740
G1 X14.11 Y14.11 E3.16913
G1 X11.08 Y16.59 E3.18087
G1 X7.63 Y18.43 E3.19260
G1 X3.89 Y19.57 E3.20433
G1 X0.00 Y19.95 E3.21606
G1 X-3.89 Y19.57 E3.22779
G1 X-7.63 Y18.43 E3.23952
G1 X-11.08 Y16.59 E3.25125
G1 X-14.09 Y14.12 E3.26294
G1 X-16.59 Y11.08 E3.27472
G1 X-18.43 Y7.63 E3.28645
G1 X-19.57 Y3.89 E3.29819
G1 X-19.95 Y0.00 E3.30992
G1 X-19.57 Y-3.89 E3.32165
G1 X-18.43 Y-7.63 E3.33338
G1 X-16.59 Y-11.08 E3.34511
G1 X-14.11 Y-14.11 E3.35684
G1 X-11.08 Y-16.59 E3.36858
G1 X-7.63 Y-18.43 E3.38031
G1 X-3.89 Y-19.57 E3.39204
G1 X0.00 Y-19.95 E3.40377
G1 X3.89 Y-19.57 E3.41550
G1 X7.63 Y-18.43 E3.42724
G1 X11.08 Y-16.59 E3.43896
G1 X14.11 Y-14.11 E3.45070
G1 X16.59 Y-11.08 E3.46244
G1 X18.43 Y-7.63 E3.47416
G1 X19.57 Y-3.89 E3.48590
G1 X19.95 Y0.00 E3.49763
G0 X19.70 Y-0.01
;LAYER:7
G0 X19.95 Y0.00 Z0.24
;TYPE:WALL-OUTER
G1 X19.57 Y3.89 E3.50936
G1 X18.43 Y7.63 E3.52109
G1 X16.59 Y11.08 E3.53282
G1 X14.11 Y14.11 E3.54455
G1 X11.08 Y16.59 E3.55629
G1 X7.63 Y18.43 E3.56802
G1 X3.89 Y19.57 E3.57975
G1 X0.00 Y19.95 E3.59148
G1 X-3.89 Y19.57 E3.60321
G1 X-7.63 Y18.43 E3.61495
G1 X-11.08 Y16.59 E3.62667
G1 X-14.09 Y14.12 E3.63835
G1 X-16.59 Y11.08 E3.65014
G1 X-18.43 Y7.63 E3.66187
G1 X-19.57 Y3.89 E3.67361
G1 X-19.95 Y0.00 E3.68534
G1 X-19.57 Y-3.89 E3.69707
G1 X-18.43 Y-7.63 E3.70880
G1 X-16.59 Y-11.08 E3.72053
G1 X-14.11 Y-14.11 E3.73226
G1 X-11.08 Y-16.59 E3.74400
G1 X-7.63 Y-18.43 E3.75573
G1 X-3.89 Y-19.57 E3.76746
G1 X0.00 Y-19.95 E3.77919
G1 X3.89 Y-19.57 E3.79092
G1 X7.63 Y-18.43 E3.80266
G1 X11.08 Y-16.59 E3.81438
G1 X14.11 Y-14.11 E3.82612
G1 X16.59 Y-11.08 E3.83786
G1 X18.43 Y-7.63 E3.84958
G1 X19.57 Y-3.89 E3.86132
G1 X19.95 Y0.00 E3.87305
G0 X19.70 Y-0.01
;LAYER:8
G0 X19.95 Y0.00 Z0.27
;TYPE:WALL-OUTER
G1 X19.57 Y3.89 E3.88478
G1 X18.43 Y7.63 E3.89651
G1 X16.59 Y11.08 E3.90824
G1 X14.11 Y14.11 E3.91997
G1 X11.08 Y16.59 E3.93171
G1 X7.63 Y18.43 E3.94344
G1 X3.89 Y19.57 E3.95517
G1 X0.00 Y19.95 E3.96690
G1 X-3.89 Y19.57 E3.97863
G1 X-7.63 Y18.43 E3.99037
G1 X-11.08 Y16.59 E4.00209
G1 X-14.09 Y14.12 E4.01376
G1 X-16.59 Y11.08 E4.02557
G1 X-18.43 Y7.63 E4.03729
G1 X-19.57 Y3.89 E4.04903
G1 X-19.95 Y0.00 E4.06076
G1 X-19.57 Y-3.89 E4.07249
G1 X-18.43 Y-7.63 E4.08422
G1 X-16.59 Y-11.08 E4.09595
G1 X-14.11 Y-14.11 E4.10768
G1 X-11.08 Y-16.59 E4.11942
G1 X-7.63 Y-18.43 E4.13115
G1 X-3.89 Y-19.57 E4.14288
G1 X0.00 Y-19.95 E4.15461
G1 X3.89 Y-19.57 E4.16634
G1 X7.63 Y-18.43 E4.17808
G1 X11.08 Y-16.59 E4.18980
G1 X14.11 Y-14.11 E4.20154
G1 X16.59 Y-11.08 E4.21328
G1 X18.43 Y-7.63 E4.22500
G1 X19.57 Y-3.89 E4.23674
G1 X19.95 Y0.00 E4.24847
G0 X19.70 Y-0.01
;LAYER:9
G0 X19.95 Y0.00 Z0.30
;TYPE:WALL-OUTER
G1 X19.57 Y3.89 E4.26020
G1 X18.43 Y7.63 E4.27193
G1 X16.59 Y11.08 E4.28366
G1 X14.11 Y14.11 E4.29540
G1 X11.08 Y16.59 E4.30713
G1 X7.63 Y18.43 E4.31886
G1 X3.89 Y19.57 E4.33059
G1 X0.00 Y19.95 E4.34232
G1 X-3.89 Y19.57 E4.35405
G1 X-7.63 Y18.43 E4.36579
G1 X-11.08 Y16.59 E4.37751
G1 X-14.09 Y14.12 E4.38917
G1 X-16.59 Y11.08 E4.40099
G1 X-18.43 Y7.63 E4.41271
G1 X-19.57 Y3.89 E4.42445
G1 X-19.95 Y0.00 E4.43618
G1 X-19.57 Y-3.89 E4.44791
G1 X-18.43 Y-7.63 E4.45964
G1 X-16.59 Y-11.08 E4.47137
G1 X-14.11 Y-14.11 E4.48310
G1 X-11.08 Y-16.59 E4.49484
G1 X-7.63 Y-18.43 E4.50657
G1 X-3.89 Y-19.57 E4.51830
G1 X0.00 Y-19.95 E4.53003
G1 X3.89 Y-19.57 E4.54176
G1 X7.63 Y-18.43 E4.55350
G1 X11.08 Y-16.59 E4.56522
G1 X14.11 Y-14.11 E4.57696
G1 X16.59 Y-11.08 E4.58870
G1 X18.43 Y-7.63 E4.60042
G1 X19.57 Y-3.89 E4.61216
G1 X19.95 Y0.00 E4.62389
G0 X19.70 Y-0.01
;LAYER:10
G0 X19.95 Y0.00 Z0.33
;TYPE:WALL-OUTER
G1 X19.57 Y3.89 E4.63562
G1 X18.43 Y7.63 E4.64735
G1 X16.59 Y11.08 E4.65908
G1 X14.11 Y14.11 E4.67082
G1 X11.08 Y16.59 E4.68255
G1 X7.63 Y18.43 E4.69428
G1 X3.89 Y19.57 E4.70601
G1 X0.00 Y19.95 E4.71774
G1 X-3.89 Y19.57 E4.72947
G1 X-7.63 Y18.43 E4.74121
G1 X-11.08 Y16.59 E4.75293
G1 X-14.11 Y14.11 E4.76467
G1 X-16.59 Y11.08 E4.77641
G1 X-18.43 Y7.63 E4.78813
G1 X-19.57 Y3.89 E4.79987
G1 X-19.95 Y0.00 E4.81160
G1 X-19.57 Y-3.89 E4.82333
G1 X-18.43 Y-7.63 E4.83506
G1 X-16.59 Y-11.08 E4.84679
G1 X-14.11 Y-14.11 E4.85853
G1 X-11.08 Y-16.59 E4.87026
G1 X-7.63 Y-18.43 E4.88199
G1 X-3.89 Y-19.57 E4.89372
G1 X0.00 Y-19.95 E4.90545
G1 X3.89 Y-19.57 E4.91718
G1 X7.63 Y-18.43 E4.92892
G1 X11.08 Y-16.59 E4.94065
G1 X14.11 Y-14.11 E4.95238
G1 X16.59 Y-11.08 E4.96412
G1 X18.43 Y-7.63 E4.97585
G1 X19.57 Y-3.89 E4.98758
G1 X19.95 Y0.00 E4.99931
G0 X19.70 Y-0.01
;LAYER:11
G0 X19.95 Y0.00 Z0.36
;TYPE:WALL-OUTER
G1 X19.57 Y3.89 E5.01104
G1 X18.43 Y7.63 E5.02277
G1 X16.59 Y11.08 E5.03450
G1 X14.11 Y14.11 E5.04624
G1 X11.08 Y16.59 E5.05797
G1 X7.63 Y18.43 E5.06970
G1 X3.89 Y19.57 E5.08144
G1 X0.00 Y19.95 E5.09317
G1 X-3.89 Y19.57 E5.10489
G1 X-7.63 Y18.43 E5.11663
G1 X-11.08 Y16.59 E5.12836
G1 X-14.11 Y14.11 E5.14009
G1 X-16.59 Y11.08 E5.15183
G1 X-18.43 Y7.63 E5.16356
G1 X-19.57 Y3.89 E5.17529
G1 X-19.95 Y0.00 E5.18702
G1 X-19.57 Y-3.89 E5.19875
G1 X-18.43 Y-7.63 E5.21048
G1 X-16.59 Y-11.08 E5.22221
G1 X-14.11 Y-14.11 E5.23395
G1 X-11.08 Y-16.59 E5.24568
G1 X-7.63 Y-18.43 E5.25741
G1 X-3.89 Y-19.57 E5.26915
G1 X0.00 Y-19.95 E5.28088
G1 X3.89 Y-19.57 E5.29261
G1 X7.63 Y-18.43 E5.30434
G1 X11.08 Y-16.59 E5.31607
G1 X14.11 Y-14.11 E5.32780
G1 X16.59 Y-11.08 E5.33954
G1 X18.43 Y-7.63 E5.35127
G1 X19.57 Y-3.89 E5.36300
G1 X19.95 Y0.00 E5.37473
G0 X19.70 Y-0.01
;LAYER:12
G0 X19.95 Y0.00 Z0.39
;TYPE:WALL-OUTER
G1 X19.57 Y3.89 E5.38646
G1 X18.43 Y7.63 E5.39820
G1 X16.59 Y11.08 E5.40992
G1 X14.11 Y14.11 E5.42166
G1 X11.08 Y16.59 E5.43340
G1 X7.63 Y18.43 E5.44512
G1 X3.89 Y19.57 E5.45686
G1 X0.00 Y19.95 E5.46859
G1 X-3.89 Y19.57 E5.48032
G1 X-7.63 Y18.43 E5.49205
G1 X-11.08 Y16.59 E5.50378
G1 X-14.11 Y14.11 E5.51551
G1 X-16.59 Y11.08 E5.52725
G1 X-18.43 Y7.63 E5.53898
G1 X-19.57 Y3.89 E5.55071
G1 X-19.95 Y0.00 E5.56244
G1 X-19.57 Y-3.89 E5.57417
G1 X-18.43 Y-7.63 E5.58591
G1 X-16.59 Y-11.08 E5.59763
G1 X-14.11 Y-14.11 E5.60937
G1 X-11.08 Y-16.59 E5.62111
G1 X-7.63 Y-18.43 E5.63283
G1 X-3.89 Y-19.57 E5.64457
G1 X0.00 Y-19.95 E5.65630
G1 X3.89 Y-19.57 E5.66803
G1 X7.63 Y-18.43 E5.67976
G1 X11.08 Y-16.59 E5.69149
G1 X14.11 Y-14.11 E5.70323
G1 X16.59 Y-11.08 E5.71496
G1 X18.43 Y-7.63 E5.72669
G1 X19.57 Y-3.89 E5.73842
G1 X19.95 Y0.00 E5.75015
G0 X19.70 Y-0.01
;LAYER:13
G0 X19.95 Y0.00 Z0.42
;TYPE:WALL-OUTER
G1 X19.57 Y3.89 E5.76188
G1 X18.43 Y7.63 E5.77362
G1 X16.59 Y11.08 E5.78534
G1 X14.11 Y14.11 E5.79708
G1 X11.08 Y16.59 E5.80882
G1 X7.63 Y18.43 E5.82055
G1 X3.89 Y19.57 E5.83228
G1 X0.00 Y19.95 E5.84401
G1 X-3.89 Y19.57 E5.85574
G1 X-7.63 Y18.43 E5.86747
G1 X-11.08 Y16.59 E5.87920
G1 X-14.11 Y14.11 E5.89094
G1 X-16.59 Y11.08 E5.90267
G1 X-18.43 Y7.63 E5.91440
G1 X-19.57 Y3.89 E5.92613
G1 X-19.95 Y0.00 E5.93786
G1 X-19.57 Y-3.89 E5.94959
G1 X-18.43 Y-7.63 E5.96133
G1 X-16.59 Y-11.08 E5.97306
G1 X-14.11 Y-14.11 E5.98479
