;Generated with Cura_SteamEngine 13.11.2
;FLAVOR:UltiGCode
;TIME:4669      
;MATERIAL:3501      
;MATERIAL2:0         

;Layer count: 847
;LAYER:0
M107
G0 F6000 X7.77 Y-19.50 Z0.10
;TYPE:SKIRT
G11
G1 X7.77 Y32.34 E0.51841
G1 X5.99 Y34.13 E0.54368
G1 X-7.60 Y34.13 E0.67950
G1 X-9.38 Y32.34 E0.70477
G1 X-9.38 Y-19.50 E1.22318
G1 X-7.60 Y-21.29 E1.24846
G1 X5.99 Y-21.29 E1.38428
G1 X7.77 Y-19.50 E1.40955
G0 X26.13 Y-7.05
G1 X29.02 Y-8.61 E1.44240
G1 X33.02 Y-6.47 E1.48778
G1 X33.02 Y-6.47 E1.48779
G1 X35.57 Y-5.10 E1.51675
G1 X38.12 Y-3.74 E1.54569
G1 X38.12 Y-3.74 E1.54570
G1 X40.64 Y-2.39 E1.57428
G1 X43.32 Y-1.06 E1.60417
G1 X43.32 Y-1.06 E1.60418
G1 X46.04 Y0.30 E1.63460
G1 X51.43 Y2.98 E1.69476
G1 X57.93 Y5.97 E1.76638
G1 X58.90 Y7.47 E1.78420
G1 X58.91 Y14.27 E1.85211
G1 X56.09 Y16.07 E1.88565
G1 X51.69 Y14.01 E1.93413
G1 X51.67 Y14.01 E1.93435
G1 X46.07 Y11.28 E1.99669
G1 X46.05 Y11.27 E1.99695
G1 X43.31 Y9.88 E2.02758
G1 X40.59 Y8.50 E2.05811
G1 X37.84 Y7.11 E2.08891
G1 X37.80 Y7.09 E2.08937
G1 X30.20 Y2.95 E2.17594
G1 X26.51 Y1.21 E2.21666
G1 X25.56 Y-0.44 E2.23580
G1 X26.13 Y-7.05 E2.30206
G0 X-28.48 Y-7.05
G1 X-28.46 Y0.00 E2.37262
G1 X-30.99 Y1.84 E2.40390
G1 X-35.02 Y0.50 E2.44637
G1 X-35.02 Y0.50 E2.44638
G1 X-37.56 Y-0.35 E2.47320
G1 X-37.56 Y-0.35 E2.47321
G1 X-40.11 Y-1.20 E2.50004
G1 X-40.11 Y-1.20 E2.50005
G1 X-42.60 Y-2.03 E2.52631
G1 X-47.92 Y-3.54 E2.58159
G1 X-47.92 Y-3.54 E2.58160
G1 X-50.61 Y-4.31 E2.60964
G1 X-53.23 Y-5.05 E2.63683
G1 X-59.83 Y-6.61 E2.70466
G1 X-61.15 Y-8.26 E2.72582
G1 X-61.18 Y-15.44 E2.79761
G1 X-58.85 Y-17.28 E2.82727
G1 X-51.75 Y-15.58 E2.90037
G1 X-51.68 Y-15.56 E2.90108
G1 X-48.95 Y-14.77 E2.92950
G1 X-46.25 Y-13.99 E2.95755
G1 X-46.25 Y-13.99 E2.95756
G1 X-43.56 Y-13.22 E2.98562
G1 X-40.83 Y-12.43 E3.01403
G1 X-40.76 Y-12.40 E3.01471
G1 X-38.19 Y-11.53 E3.04190
G1 X-38.19 Y-11.53 E3.04191
G1 X-29.63 Y-8.64 E3.13228
G1 X-28.48 Y-7.05 E3.15184
G0 X-79.14 Y-8.10
G1 X-80.75 Y-6.34 E3.17568
G1 X-84.89 Y-5.99 E3.21726
G1 X-84.89 Y-5.99 E3.21727
G1 X-87.85 Y-5.74 E3.24694
G1 X-90.81 Y-5.49 E3.27660
G1 X-90.81 Y-5.49 E3.27661
G1 X-93.62 Y-5.26 E3.30485
G1 X-104.90 Y-3.27 E3.41939
G1 X-115.75 Y-0.18 E3.53219
G1 X-122.41 Y2.60 E3.60438
G1 X-125.13 Y0.79 E3.63699
G1 X-125.15 Y-6.62 E3.71111
G1 X-124.12 Y-8.16 E3.72964
G1 X-120.60 Y-9.62 E3.76774
G1 X-117.86 Y-10.76 E3.79746
G1 X-117.69 Y-10.82 E3.79925
G1 X-112.02 Y-12.43 E3.85820
G1 X-106.35 Y-14.04 E3.91709
G1 X-106.20 Y-14.07 E3.91867
G1 X-94.49 Y-16.12 E4.03753
G1 X-94.35 Y-16.14 E4.03893
G1 X-81.13 Y-17.22 E4.17154
G1 X-79.17 Y-15.42 E4.19823
G1 X-79.14 Y-8.10 E4.27141
G0 X95.37 Y3.58
G1 X97.35 Y1.76 E4.29826
G1 X107.02 Y2.57 E4.39535
G1 X117.46 Y2.45 E4.49970
G1 X127.10 Y1.18 E4.59695
G1 X137.54 Y-1.79 E4.70551
G1 X139.96 Y0.03 E4.73582
G1 X139.98 Y7.30 E4.80853
G1 X138.75 Y8.94 E4.82905
G1 X128.45 Y11.85 E4.93606
G1 X128.23 Y11.90 E4.93833
G1 X123.10 Y12.56 E4.99008
G1 X117.98 Y13.22 E5.04163
G1 X117.80 Y13.23 E5.04345
G1 X106.88 Y13.33 E5.15264
G1 X106.74 Y13.32 E5.15412
G1 X103.84 Y13.07 E5.18319
G1 X103.84 Y13.07 E5.18320
G1 X97.00 Y12.47 E5.25183
G1 X95.40 Y10.73 E5.27550
G1 X95.37 Y3.58 E5.34705
G0 X4.67 Y-18.19
;TYPE:WALL-OUTER
G1 X4.67 Y31.03 E5.83920
G1 X-6.28 Y31.03 E5.94876
G1 X-6.28 Y-18.19 E6.44091
G1 X4.67 Y-18.19 E6.55047
G0 X4.42 Y-17.94
G0 X29.07 Y-5.07
G1 X34.11 Y-2.37 E6.60761
G1 X39.21 Y0.36 E6.66547
G1 X44.66 Y3.07 E6.72635
G1 X50.11 Y5.79 E6.78721
G1 X55.80 Y8.40 E6.84986
G1 X55.81 Y12.52 E6.89099
G1 X44.71 Y7.11 E7.01441
G1 X41.99 Y5.74 E7.04494
G1 X39.26 Y4.36 E7.07549
G1 X31.60 Y0.18 E7.16270
G1 X28.73 Y-1.17 E7.19443
G1 X29.07 Y-5.07 E7.23358
G0 X29.30 Y-4.78
G0 X-31.58 Y-6.03
G1 X-31.56 Y-1.62 E7.27768
G1 X-41.67 Y-4.98 E7.38423
G1 X-49.76 Y-7.29 E7.46834
G1 X-52.46 Y-8.06 E7.49638
G1 X-58.05 Y-9.38 E7.55384
G1 X-58.07 Y-13.91 E7.59919
G1 X-52.50 Y-12.58 E7.65647
G1 X-47.11 Y-11.02 E7.71257
G1 X-44.42 Y-10.24 E7.74063
G1 X-41.72 Y-9.46 E7.76869
G1 X-31.58 Y-6.03 E7.87575
G0 X-31.87 Y-5.86
G0 X-82.25 Y-9.33
G1 X-88.11 Y-8.83 E7.93461
G1 X-94.03 Y-8.34 E7.99395
G1 X-105.59 Y-6.30 E8.11142
G1 X-116.78 Y-3.11 E8.22771
G1 X-122.03 Y-0.92 E8.28465
G1 X-122.05 Y-5.67 E8.33214
G1 X-119.41 Y-6.76 E8.36065
G1 X-116.76 Y-7.86 E8.38941
G1 X-111.17 Y-9.45 E8.44748
G1 X-105.58 Y-11.03 E8.50556
G1 X-94.03 Y-13.05 E8.62285
G1 X-82.26 Y-14.02 E8.74090
G1 X-82.25 Y-9.33 E8.78782
G0 X-82.50 Y-9.57
G0 X98.48 Y4.96
G1 X106.91 Y5.67 E8.87246
G1 X117.67 Y5.55 E8.98004
G1 X127.73 Y4.23 E9.08149
G1 X136.87 Y1.62 E9.17650
G1 X136.88 Y6.24 E9.22273
G1 X127.72 Y8.84 E9.31792
G1 X122.70 Y9.48 E9.36855
G1 X117.68 Y10.13 E9.41918
G1 X106.93 Y10.23 E9.52663
G1 X104.11 Y9.98 E9.55501
G1 X98.50 Y9.49 E9.61133
G1 X98.48 Y4.96 E9.65661
G0 X98.73 Y5.22
;LAYER:1
G0 X98.49 Y4.97 Z0.20
;TYPE:WALL-OUTER
G1 X101.27 Y5.20 E9.68444
G1 X106.92 Y5.68 E9.74119
G1 X117.68 Y5.55 E9.84873
G1 X127.72 Y4.23 E9.95009
G1 X136.85 Y1.63 E10.04496
G1 X136.87 Y6.25 E10.09109
G1 X127.71 Y8.83 E10.18622
G1 X117.68 Y10.12 E10.28735
G1 X106.94 Y10.22 E10.39476
G1 X104.12 Y9.97 E10.42307
G1 X98.51 Y9.48 E10.47936
G1 X98.49 Y4.97 E10.52453
G0 X98.75 Y5.22
G0 X55.79 Y8.40
G1 X55.80 Y12.50 E10.56558
G1 X50.15 Y9.86 E10.62790
G1 X41.99 Y5.73 E10.71940
G1 X39.26 Y4.36 E10.74992
G1 X34.17 Y1.58 E10.80796
G1 X31.61 Y0.19 E10.83709
G1 X28.74 Y-1.16 E10.86875
G1 X29.08 Y-5.05 E10.90783
G1 X31.56 Y-3.72 E10.93599
G1 X36.66 Y-0.99 E10.99383
G1 X39.21 Y0.37 E11.02272
G1 X50.10 Y5.78 E11.14432
G1 X55.79 Y8.40 E11.20694
G0 X55.49 Y8.53
G0 X4.66 Y31.02
G1 X-6.28 Y31.02 E11.31634
G1 X-6.28 Y-18.18 E11.80831
G1 X4.66 Y-18.18 E11.91771
G1 X4.66 Y31.02 E12.40968
G0 X4.41 Y30.77
G0 X-31.57 Y-1.63
G1 X-34.05 Y-2.45 E12.43578
G1 X-39.13 Y-4.14 E12.48935
G1 X-41.68 Y-4.99 E12.51613
G1 X-47.07 Y-6.52 E12.57217
G1 X-49.76 Y-7.29 E12.60017
G1 X-52.46 Y-8.06 E12.62823
G1 X-58.04 Y-9.37 E12.68561
G1 X-58.06 Y-13.90 E12.73087
G1 X-52.50 Y-12.57 E12.78810
G1 X-44.42 Y-10.23 E12.87219
G1 X-41.72 Y-9.45 E12.90022
G1 X-39.18 Y-8.60 E12.92704
G1 X-34.10 Y-6.88 E12.98070
G1 X-31.59 Y-6.03 E13.00719
G1 X-31.57 Y-1.63 E13.05122
G0 X-31.83 Y-1.89
G0 X-82.26 Y-9.33
G1 X-88.12 Y-8.83 E13.11002
G1 X-94.04 Y-8.34 E13.16936
G1 X-105.60 Y-6.30 E13.28672
G1 X-108.38 Y-5.51 E13.31571
G1 X-116.77 Y-3.12 E13.40290
G1 X-122.02 Y-0.94 E13.45974
G1 X-122.03 Y-5.67 E13.50712
G1 X-119.40 Y-6.76 E13.53561
G1 X-116.75 Y-7.87 E13.56434
G1 X-105.57 Y-11.03 E13.68043
G1 X-94.03 Y-13.04 E13.79762
G1 X-82.28 Y-14.01 E13.91550
G1 X-82.26 Y-9.33 E13.96231
G0 X-82.51 Y-9.57
;LAYER:2
G0 X-82.28 Y-9.33 Z0.30
;TYPE:WALL-OUTER
G1 X-85.18 Y-9.08 E13.99146
G1 X-88.13 Y-8.83 E14.02103
G1 X-88.14 Y-8.83 E14.02115
G1 X-91.08 Y-8.58 E14.05065
G1 X-91.10 Y-8.59 E14.05077
G1 X-94.05 Y-8.34 E14.08041
G1 X-105.60 Y-6.31 E14.19766
G1 X-116.76 Y-3.13 E14.31374
G1 X-119.41 Y-2.03 E14.34246
G1 X-122.00 Y-0.95 E14.37048
G1 X-122.01 Y-5.68 E14.41775
G1 X-116.74 Y-7.86 E14.47483
G1 X-116.73 Y-7.86 E14.47498
G1 X-113.95 Y-8.65 E14.50383
G1 X-113.94 Y-8.65 E14.50398
G1 X-108.37 Y-10.23 E14.56180
G1 X-108.36 Y-10.23 E14.56195
G1 X-105.58 Y-11.02 E14.59084
G1 X-94.03 Y-13.03 E14.70803
G1 X-82.30 Y-13.99 E14.82577
G1 X-82.28 Y-9.33 E14.87245
G0 X-82.53 Y-9.57
G0 X-58.03 Y-9.37
G1 X-58.05 Y-13.89 E14.91764
G1 X-55.30 Y-13.23 E14.94593
G1 X-52.49 Y-12.56 E14.97483
G1 X-44.42 Y-10.23 E15.05884
G1 X-41.73 Y-9.45 E15.08686
G1 X-36.64 Y-7.74 E15.14054
G1 X-34.10 Y-6.88 E15.16735
G1 X-31.60 Y-6.04 E15.19373
G1 X-31.58 Y-1.64 E15.23767
G1 X-41.68 Y-5.00 E15.34404
G1 X-47.07 Y-6.53 E15.40007
G1 X-47.08 Y-6.53 E15.40022
G1 X-49.76 Y-7.29 E15.42805
G1 X-49.77 Y-7.29 E15.42820
G1 X-52.45 Y-8.06 E15.45604
G1 X-52.46 Y-8.06 E15.45614
G1 X-55.26 Y-8.72 E15.48491
G1 X-55.27 Y-8.72 E15.48502
G1 X-58.03 Y-9.37 E15.51338
G0 X-57.78 Y-9.60
G0 X-6.27 Y-18.17
G1 X-0.81 Y-18.17 E15.56792
G1 X-0.80 Y-18.17 E15.56804
G1 X4.66 Y-18.17 E15.62262
G1 X4.66 Y31.01 E16.11442
G1 X-0.82 Y31.01 E16.16919
G1 X-0.83 Y31.01 E16.16933
G1 X-6.27 Y31.01 E16.22366
G1 X-6.27 Y-18.17 E16.71546
G0 X-6.02 Y-17.92
G0 X29.09 Y-5.03
G1 X34.12 Y-2.35 E16.77250
G1 X39.21 Y0.37 E16.83026
G1 X44.66 Y3.08 E16.89110
G1 X44.68 Y3.08 E16.89126
G1 X50.10 Y5.78 E16.95185
G1 X52.96 Y7.09 E16.98332
G1 X55.78 Y8.39 E17.01431
G1 X55.79 Y12.48 E17.05530
G1 X53.00 Y11.18 E17.08606
G1 X50.15 Y9.85 E17.11756
G1 X41.99 Y5.73 E17.20899
G1 X39.27 Y4.35 E17.23948
G1 X36.71 Y2.97 E17.26857
G1 X34.16 Y1.58 E17.29757
G1 X31.61 Y0.19 E17.32661
G1 X28.75 Y-1.15 E17.35820
G1 X29.09 Y-5.03 E17.39720
G0 X29.31 Y-4.75
G0 X98.51 Y4.97
G1 X101.28 Y5.20 E17.42501
G1 X101.30 Y5.20 E17.42515
G1 X104.11 Y5.44 E17.45337
G1 X104.12 Y5.44 E17.45350
G1 X106.93 Y5.68 E17.48170
G1 X117.68 Y5.55 E17.58919
G1 X127.72 Y4.24 E17.69046
G1 X130.00 Y3.59 E17.71420
G1 X132.30 Y2.93 E17.73807
G1 X136.84 Y1.65 E17.78521
G1 X136.85 Y6.25 E17.83123
G1 X134.59 Y6.89 E17.85472
G1 X127.71 Y8.83 E17.92623
G1 X117.68 Y10.11 E18.02733
G1 X106.94 Y10.21 E18.13469
G1 X104.13 Y9.96 E18.16295
G1 X104.11 Y9.97 E18.16310
G1 X101.30 Y9.72 E18.19131
G1 X101.29 Y9.72 E18.19146
G1 X98.53 Y9.48 E18.21917
G1 X98.51 Y4.97 E18.26428
G0 X98.76 Y5.22
;LAYER:3
G0 X98.53 Y4.97 Z0.40
;TYPE:WALL-OUTER
G1 X101.30 Y5.21 E18.29206
G1 X101.31 Y5.21 E18.29224
G1 X104.12 Y5.44 E18.32039
G1 X104.14 Y5.44 E18.32058
G1 X106.94 Y5.68 E18.34872
G1 X117.68 Y5.55 E18.45616
G1 X127.72 Y4.24 E18.55733
G1 X134.58 Y2.29 E18.62873
G1 X134.60 Y2.29 E18.62889
G1 X136.82 Y1.66 E18.65197
G1 X136.84 Y6.24 E18.69784
G1 X134.58 Y6.88 E18.72126
G1 X134.57 Y6.89 E18.72142
G1 X132.29 Y7.53 E18.74509
G1 X132.27 Y7.53 E18.74526
G1 X129.99 Y8.18 E18.76893
G1 X129.98 Y8.18 E18.76910
G1 X127.69 Y8.82 E18.79290
G1 X117.68 Y10.11 E18.89377
G1 X106.95 Y10.20 E19.00110
G1 X104.14 Y9.96 E19.02927
G1 X104.12 Y9.96 E19.02947
G1 X101.32 Y9.71 E19.05761
G1 X101.30 Y9.72 E19.05781
G1 X98.54 Y9.47 E19.08546
G1 X98.53 Y4.97 E19.13046
G0 X98.78 Y5.23
G0 X55.77 Y8.38
G1 X55.78 Y12.47 E19.17141
G1 X52.99 Y11.17 E19.20221
G1 X52.97 Y11.16 E19.20239
G1 X50.14 Y9.84 E19.23373
G1 X50.12 Y9.83 E19.23388
G1 X47.42 Y8.47 E19.26416
G1 X47.40 Y8.46 E19.26432
G1 X44.70 Y7.09 E19.29461
G1 X44.69 Y7.09 E19.29477
G1 X41.98 Y5.72 E19.32507
G1 X41.97 Y5.72 E19.32524
G1 X39.26 Y4.35 E19.35555
G1 X39.25 Y4.35 E19.35571
G1 X36.72 Y2.97 E19.38450
G1 X36.70 Y2.97 E19.38466
G1 X34.17 Y1.59 E19.41348
G1 X34.16 Y1.58 E19.41364
G1 X31.63 Y0.20 E19.44249
G1 X31.61 Y0.20 E19.44269
G1 X28.76 Y-1.14 E19.47414
G1 X29.10 Y-5.02 E19.51311
G1 X31.58 Y-3.69 E19.54129
G1 X31.60 Y-3.69 E19.54147
G1 X34.13 Y-2.33 E19.57018
G1 X34.15 Y-2.33 E19.57036
G1 X36.67 Y-0.98 E19.59904
G1 X36.69 Y-0.97 E19.59922
G1 X39.23 Y0.39 E19.62802
G1 X41.95 Y1.74 E19.65839
G1 X44.67 Y3.08 E19.68872
G1 X47.38 Y4.43 E19.71899
G1 X50.10 Y5.78 E19.74932
G1 X50.11 Y5.78 E19.74947
G1 X52.95 Y7.09 E19.78074
G1 X52.97 Y7.09 E19.78088
G1 X55.77 Y8.38 E19.81173
G0 X55.48 Y8.52
G0 X4.65 Y31.00
G1 X-0.82 Y31.00 E19.86644
G1 X-0.84 Y31.00 E19.86664
G1 X-6.26 Y31.00 E19.92083
G1 X-6.26 Y-18.16 E20.41246
G1 X-0.81 Y-18.16 E20.46694
G1 X-0.80 Y-18.16 E20.46712
G1 X4.65 Y-18.16 E20.52157
G1 X4.65 Y31.00 E21.01320
G0 X4.40 Y30.75
G0 X-31.59 Y-1.65
G1 X-34.08 Y-2.48 E21.03938
G1 X-36.62 Y-3.32 E21.06616
G1 X-39.15 Y-4.16 E21.09287
G1 X-39.17 Y-4.16 E21.09298
G1 X-41.69 Y-5.01 E21.11961
G1 X-41.70 Y-5.01 E21.11972
G1 X-44.38 Y-5.77 E21.14759
G1 X-47.07 Y-6.53 E21.17549
G1 X-47.08 Y-6.53 E21.17568
G1 X-49.76 Y-7.30 E21.20351
G1 X-49.77 Y-7.30 E21.20362
G1 X-52.45 Y-8.06 E21.23143
G1 X-52.46 Y-8.06 E21.23154
G1 X-55.25 Y-8.72 E21.26027
G1 X-55.27 Y-8.72 E21.26042
G1 X-58.02 Y-9.37 E21.28870
G1 X-58.04 Y-13.88 E21.33381
G1 X-55.29 Y-13.22 E21.36210
G1 X-55.27 Y-13.22 E21.36228
G1 X-52.48 Y-12.55 E21.39099
G1 X-52.46 Y-12.55 E21.39116
G1 X-49.79 Y-11.77 E21.41903
G1 X-47.10 Y-11.00 E21.44696
G1 X-47.09 Y-11.00 E21.44714
G1 X-44.41 Y-10.22 E21.47501
G1 X-41.72 Y-9.44 E21.50296
G1 X-41.71 Y-9.44 E21.50314
G1 X-39.18 Y-8.59 E21.52984
G1 X-39.17 Y-8.59 E21.52994
G1 X-36.65 Y-7.74 E21.55656
G1 X-36.63 Y-7.74 E21.55669
G1 X-34.11 Y-6.88 E21.58333
G1 X-34.10 Y-6.88 E21.58344
G1 X-31.61 Y-6.04 E21.60971
G1 X-31.59 Y-1.65 E21.65360
G0 X-31.84 Y-1.91
G0 X-82.30 Y-9.32
G1 X-85.20 Y-9.08 E21.68272
G1 X-85.21 Y-9.08 E21.68286
G1 X-88.15 Y-8.83 E21.71231
G1 X-88.16 Y-8.83 E21.71245
G1 X-91.09 Y-8.58 E21.74186
G1 X-91.11 Y-8.59 E21.74204
G1 X-94.06 Y-8.34 E21.77165
G1 X-105.60 Y-6.31 E21.88879
G1 X-111.16 Y-4.73 E21.94656
G1 X-111.18 Y-4.73 E21.94675
G1 X-116.75 Y-3.14 E22.00476
G1 X-119.39 Y-2.05 E22.03329
G1 X-119.41 Y-2.04 E22.03350
G1 X-121.99 Y-0.97 E22.06140
G1 X-122.00 Y-5.68 E22.10849
G1 X-119.38 Y-6.77 E22.13683
G1 X-119.36 Y-6.77 E22.13703
G1 X-116.73 Y-7.87 E22.16558
G1 X-116.71 Y-7.87 E22.16576
G1 X-113.94 Y-8.65 E22.19452
G1 X-111.16 Y-9.44 E22.22346
G1 X-108.37 Y-10.23 E22.25243
G1 X-108.35 Y-10.23 E22.25262
G1 X-105.58 Y-11.02 E22.28145
G1 X-94.05 Y-13.02 E22.39841
G1 X-82.32 Y-13.98 E22.51617
G1 X-82.30 Y-9.32 E22.56275
G0 X-82.55 Y-9.57
;LAYER:4
G0 X-82.32 Y-9.32 Z0.50
;TYPE:WALL-OUTER
G1 X-85.21 Y-9.08 E22.59183
G1 X-85.23 Y-9.08 E22.59205
G1 X-88.16 Y-8.83 E22.62139
G1 X-88.18 Y-8.83 E22.62161
G1 X-91.10 Y-8.58 E22.65096
G1 X-91.13 Y-8.59 E22.65118
G1 X-94.07 Y-8.34 E22.68075
G1 X-96.95 Y-7.83 E22.70998
G1 X-105.60 Y-6.32 E22.79779
G1 X-116.75 Y-3.16 E22.91364
G1 X-119.38 Y-2.06 E22.94214
G1 X-119.40 Y-2.06 E22.94237
G1 X-121.97 Y-0.99 E22.97019
G1 X-121.98 Y-5.68 E23.01716
G1 X-119.37 Y-6.77 E23.04547
G1 X-119.34 Y-6.77 E23.04573
G1 X-116.71 Y-7.87 E23.07420
G1 X-116.69 Y-7.87 E23.07442
G1 X-113.93 Y-8.65 E23.10312
G1 X-113.91 Y-8.65 E23.10336
G1 X-111.15 Y-9.44 E23.13204
G1 X-111.12 Y-9.44 E23.13228
G1 X-108.36 Y-10.22 E23.16098
G1 X-108.34 Y-10.23 E23.16122
G1 X-105.57 Y-11.01 E23.18996
G1 X-96.94 Y-12.51 E23.27757
G1 X-96.92 Y-12.51 E23.27783
G1 X-94.06 Y-13.01 E23.30682
G1 X-82.33 Y-13.97 E23.42449
G1 X-82.32 Y-9.32 E23.47094
G0 X-82.57 Y-9.57
G0 X-58.01 Y-9.36
G1 X-58.03 Y-13.86 E23.51596
G1 X-55.28 Y-13.21 E23.54422
G1 X-55.26 Y-13.21 E23.54441
G1 X-52.47 Y-12.54 E23.57318
G1 X-52.46 Y-12.54 E23.57330
G1 X-49.78 Y-11.76 E23.60112
G1 X-49.77 Y-11.76 E23.60125
G1 X-47.10 Y-10.99 E23.62908
G1 X-47.08 Y-10.99 E23.62921
G1 X-44.41 Y-10.22 E23.65705
G1 X-44.40 Y-10.22 E23.65719
G1 X-41.72 Y-9.44 E23.68504
G1 X-41.71 Y-9.44 E23.68517
G1 X-39.19 Y-8.59 E23.71171
G1 X-39.17 Y-8.59 E23.71193
G1 X-36.65 Y-7.74 E23.73854
G1 X-36.63 Y-7.74 E23.73869
G1 X-34.12 Y-6.89 E23.76529
G1 X-34.10 Y-6.88 E23.76546
G1 X-31.62 Y-6.05 E23.79164
G1 X-31.60 Y-1.66 E23.83545
G1 X-34.08 Y-2.49 E23.86162
G1 X-34.10 Y-2.49 E23.86176
G1 X-36.62 Y-3.33 E23.88835
G1 X-36.63 Y-3.33 E23.88848
G1 X-39.16 Y-4.17 E23.91507
G1 X-39.17 Y-4.17 E23.91521
G1 X-41.69 Y-5.01 E23.94179
G1 X-41.71 Y-5.01 E23.94194
G1 X-44.38 Y-5.77 E23.96975
G1 X-44.40 Y-5.77 E23.96989
G1 X-47.07 Y-6.53 E23.99768
G1 X-47.08 Y-6.53 E23.99783
G1 X-49.76 Y-7.30 E24.02562
G1 X-49.77 Y-7.30 E24.02577
G1 X-52.44 Y-8.06 E24.05350
G1 X-52.46 Y-8.06 E24.05369
G1 X-55.24 Y-8.71 E24.08232
G1 X-55.27 Y-8.72 E24.08254
G1 X-58.01 Y-9.36 E24.11075
G0 X-57.76 Y-9.59
G0 X-6.25 Y-18.15
G1 X-0.81 Y-18.15 E24.16512
G1 X-0.79 Y-18.15 E24.16533
G1 X4.64 Y-18.15 E24.21969
G1 X4.64 Y30.99 E24.71115
G1 X-0.82 Y30.99 E24.76575
G1 X-0.84 Y30.99 E24.76598
G1 X-6.25 Y30.99 E24.82009
G1 X-6.25 Y-18.15 E25.31155
G0 X-6.00 Y-17.90
G0 X29.11 Y-5.01
G1 X31.59 Y-3.68 E25.33971
G1 X31.61 Y-3.68 E25.33993
G1 X34.13 Y-2.32 E25.36858
G1 X34.15 Y-2.32 E25.36878
G1 X36.68 Y-0.97 E25.39742
G1 X36.70 Y-0.96 E25.39763
G1 X39.23 Y0.39 E25.42637
G1 X39.24 Y0.39 E25.42648
G1 X41.94 Y1.74 E25.45659
G1 X41.96 Y1.74 E25.45680
G1 X44.67 Y3.08 E25.48704
G1 X44.68 Y3.08 E25.48715
G1 X47.38 Y4.43 E25.51730
G1 X47.39 Y4.43 E25.51744
G1 X50.09 Y5.77 E25.54759
G1 X50.11 Y5.78 E25.54774
G1 X52.95 Y7.08 E25.57900
G1 X52.96 Y7.08 E25.57916
G1 X55.76 Y8.37 E25.60994
G1 X55.77 Y12.46 E25.65083
G1 X52.99 Y11.15 E25.68161
G1 X52.96 Y11.15 E25.68184
G1 X50.12 Y9.82 E25.71320
G1 X47.42 Y8.46 E25.74351
G1 X47.40 Y8.45 E25.74370
G1 X44.70 Y7.09 E25.77393
G1 X44.68 Y7.09 E25.77413
