;Generated with Cura_SteamEngine 13.11.2
;FLAVOR:UltiGCode
;TIME:2325      
;MATERIAL:612       
;MATERIAL2:0         

;Layer count: 1504
;LAYER:0
M107
G0 F6000 X-4.32 Y-22.35 Z0.03
;TYPE:SKIRT
G11
G1 X-0.12 Y-22.76 E0.01266
G1 X0.18 Y-22.76 E0.01356
G1 X4.38 Y-22.35 E0.02622
G1 X4.67 Y-22.29 E0.02711
G1 X8.71 Y-21.06 E0.03977
G1 X8.99 Y-20.95 E0.04067
G1 X12.71 Y-18.96 E0.05334
G1 X12.96 Y-18.79 E0.05423
G1 X16.22 Y-16.12 E0.06690
G1 X16.43 Y-15.90 E0.06780
G1 X19.11 Y-12.64 E0.08046
G1 X19.28 Y-12.39 E0.08135
G1 X21.27 Y-8.67 E0.09402
G1 X21.38 Y-8.39 E0.09492
G1 X22.61 Y-4.35 E0.10758
G1 X22.67 Y-4.06 E0.10848
G1 X23.08 Y0.14 E0.12113
G1 X23.08 Y0.44 E0.12203
G1 X22.67 Y4.64 E0.13469
G1 X22.61 Y4.93 E0.13559
G1 X21.38 Y8.97 E0.14825
G1 X21.27 Y9.25 E0.14915
G1 X19.28 Y12.97 E0.16181
G1 X19.11 Y13.22 E0.16271
G1 X16.43 Y16.48 E0.17537
G1 X16.22 Y16.69 E0.17627
G1 X12.96 Y19.37 E0.18893
G1 X12.71 Y19.54 E0.18983
G1 X8.99 Y21.52 E0.20249
G1 X8.71 Y21.64 E0.20339
G1 X4.67 Y22.86 E0.21605
G1 X4.38 Y22.92 E0.21695
G1 X0.18 Y23.34 E0.22961
G1 X-0.12 Y23.34 E0.23051
G1 X-4.32 Y22.92 E0.24317
G1 X-4.61 Y22.86 E0.24406
G1 X-8.65 Y21.64 E0.25672
G1 X-8.93 Y21.52 E0.25762
G1 X-12.65 Y19.54 E0.27029
G1 X-12.90 Y19.37 E0.27118
G1 X-16.16 Y16.69 E0.28385
G1 X-16.37 Y16.48 E0.28475
G1 X-19.05 Y13.22 E0.29741
G1 X-19.22 Y12.97 E0.29831
G1 X-21.21 Y9.25 E0.31097
G1 X-21.32 Y8.97 E0.31187
G1 X-22.55 Y4.93 E0.32453
G1 X-22.60 Y4.64 E0.32543
G1 X-23.02 Y0.44 E0.33808
G1 X-23.02 Y0.14 E0.33899
G1 X-22.60 Y-4.06 E0.35164
G1 X-22.55 Y-4.35 E0.35254
G1 X-21.32 Y-8.39 E0.36520
G1 X-21.21 Y-8.67 E0.36610
G1 X-19.22 Y-12.39 E0.37876
G1 X-19.05 Y-12.64 E0.37966
G1 X-16.37 Y-15.90 E0.39232
G1 X-16.16 Y-16.12 E0.39322
G1 X-12.90 Y-18.79 E0.40588
G1 X-12.65 Y-18.96 E0.40678
G1 X-8.93 Y-20.95 E0.41944
G1 X-8.65 Y-21.06 E0.42034
G1 X-4.61 Y-22.29 E0.43301
G1 X-4.32 Y-22.35 E0.43390
G0 X-4.33 Y-22.45
G1 X-0.12 Y-22.86 E0.44659
G1 X0.19 Y-22.86 E0.44751
G1 X4.39 Y-22.45 E0.46020
G1 X4.70 Y-22.39 E0.46113
G1 X8.75 Y-21.16 E0.47382
G1 X9.03 Y-21.04 E0.47475
G1 X12.76 Y-19.05 E0.48744
G1 X13.02 Y-18.87 E0.48837
G1 X16.29 Y-16.19 E0.50106
G1 X16.51 Y-15.97 E0.50199
G1 X19.19 Y-12.70 E0.51468
G1 X19.36 Y-12.44 E0.51561
G1 X21.36 Y-8.71 E0.52830
G1 X21.48 Y-8.43 E0.52923
G1 X22.70 Y-4.38 E0.54192
G1 X22.76 Y-4.08 E0.54284
G1 X23.18 Y0.13 E0.55553
G1 X23.18 Y0.44 E0.55646
G1 X22.76 Y4.65 E0.56915
G1 X22.70 Y4.95 E0.57008
G1 X21.48 Y9.00 E0.58277
G1 X21.36 Y9.29 E0.58370
G1 X19.36 Y13.02 E0.59639
G1 X19.19 Y13.28 E0.59731
G1 X16.51 Y16.55 E0.61001
G1 X16.29 Y16.77 E0.61094
G1 X13.02 Y19.45 E0.62363
G1 X12.76 Y19.62 E0.62455
G1 X9.03 Y21.61 E0.63724
G1 X8.75 Y21.73 E0.63817
G1 X4.70 Y22.96 E0.65087
G1 X4.39 Y23.02 E0.65179
G1 X0.19 Y23.44 E0.66448
G1 X-0.12 Y23.44 E0.66541
G1 X-4.33 Y23.02 E0.67810
G1 X-4.64 Y22.96 E0.67902
G1 X-8.68 Y21.73 E0.69171
G1 X-8.97 Y21.61 E0.69264
G1 X-12.70 Y19.62 E0.70533
G1 X-12.96 Y19.45 E0.70626
G1 X-16.23 Y16.77 E0.71895
G1 X-16.45 Y16.55 E0.71988
G1 X-19.13 Y13.28 E0.73257
G1 X-19.30 Y13.02 E0.73350
G1 X-21.30 Y9.29 E0.74619
G1 X-21.42 Y9.00 E0.74712
G1 X-22.64 Y4.95 E0.75981
G1 X-22.70 Y4.65 E0.76074
G1 X-23.12 Y0.44 E0.77343
G1 X-23.12 Y0.13 E0.77435
G1 X-22.70 Y-4.07 E0.78704
G1 X-22.64 Y-4.38 E0.78797
G1 X-21.42 Y-8.43 E0.80066
G1 X-21.30 Y-8.71 E0.80159
G1 X-19.30 Y-12.44 E0.81428
G1 X-19.13 Y-12.70 E0.81521
G1 X-16.45 Y-15.97 E0.82790
G1 X-16.23 Y-16.19 E0.82883
G1 X-12.96 Y-18.87 E0.84152
G1 X-12.70 Y-19.05 E0.84245
G1 X-8.97 Y-21.04 E0.85514
G1 X-8.68 Y-21.16 E0.85607
G1 X-4.64 Y-22.39 E0.86876
G1 X-4.33 Y-22.45 E0.86969
G0 X-3.83 Y-19.13
G0 X-3.83 Y-19.13
G0 X-3.86 Y-19.28
;TYPE:WALL-OUTER
G1 X0.03 Y-19.66 E0.88142
G1 X3.92 Y-19.28 E0.89315
G1 X7.66 Y-18.14 E0.90488
G1 X11.11 Y-16.30 E0.91661
G1 X14.14 Y-13.82 E0.92834
G1 X16.62 Y-10.79 E0.94008
G1 X18.46 Y-7.35 E0.95181
G1 X19.60 Y-3.60 E0.96354
G1 X19.98 Y0.29 E0.97527
G1 X19.60 Y4.18 E0.98700
G1 X18.46 Y7.92 E0.99873
G1 X16.62 Y11.37 E1.01046
G1 X14.14 Y14.39 E1.02220
G1 X11.11 Y16.88 E1.03393
G1 X7.66 Y18.72 E1.04566
G1 X3.92 Y19.85 E1.05740
G1 X0.03 Y20.24 E1.06913
G1 X-3.86 Y19.85 E1.08086
G1 X-7.60 Y18.72 E1.09259
G1 X-11.05 Y16.88 E1.10432
G1 X-14.07 Y14.39 E1.11605
G1 X-16.56 Y11.37 E1.12779
G1 X-18.40 Y7.92 E1.13952
G1 X-19.53 Y4.18 E1.15125
G1 X-19.92 Y0.29 E1.16298
G1 X-19.53 Y-3.60 E1.17471
G1 X-18.40 Y-7.35 E1.18645
G1 X-16.56 Y-10.79 E1.19817
G1 X-14.07 Y-13.82 E1.20991
G1 X-11.05 Y-16.30 E1.22165
G1 X-7.60 Y-18.14 E1.23337
G1 X-3.86 Y-19.28 E1.24511
G0 X-3.83 Y-19.13
G0 X-0.32 Y-1.51
G0 X-0.30 Y-1.36
G1 X-0.61 Y-1.26 E1.24610
G1 X-0.90 Y-1.11 E1.24708
G1 X-1.16 Y-0.90 E1.24807
G1 X-1.36 Y-0.64 E1.24905
G1 X-1.52 Y-0.35 E1.25004
G1 X-1.62 Y-0.04 E1.25103
G1 X-1.65 Y0.28 E1.25200
G1 X-1.61 Y0.62 E1.25300
G1 X-1.52 Y0.93 E1.25399
G1 X-1.36 Y1.22 E1.25498
G1 X-1.15 Y1.48 E1.25596
G1 X-0.90 Y1.68 E1.25694
G1 X-0.61 Y1.84 E1.25793
G1 X-0.29 Y1.93 E1.25892
G1 X0.03 Y1.97 E1.25989
G1 X0.36 Y1.93 E1.26089
G1 X0.68 Y1.84 E1.26188
G1 X0.96 Y1.68 E1.26287
G1 X1.22 Y1.47 E1.26385
G1 X1.43 Y1.22 E1.26484
G1 X1.58 Y0.93 E1.26583
G1 X1.68 Y0.61 E1.26682
G1 X1.71 Y0.29 E1.26779
G1 X1.68 Y-0.04 E1.26878
G1 X1.58 Y-0.36 E1.26977
G1 X1.42 Y-0.65 E1.27076
G1 X1.22 Y-0.90 E1.27175
G1 X0.96 Y-1.11 E1.27273
G1 X0.67 Y-1.26 E1.27372
G1 X0.35 Y-1.36 E1.27471
G1 X0.03 Y-1.39 E1.27568
G1 X-0.30 Y-1.36 E1.27668
G0 X-0.34 Y-1.61
;LAYER:1
G0 X-0.30 Y-1.36 Z0.06
;TYPE:WALL-OUTER
G1 X-0.61 Y-1.26 E1.27766
G1 X-0.90 Y-1.11 E1.27865
G1 X-1.16 Y-0.90 E1.27964
G1 X-1.36 Y-0.64 E1.28062
G1 X-1.52 Y-0.35 E1.28161
G1 X-1.62 Y-0.04 E1.28260
G1 X-1.65 Y0.28 E1.28357
G1 X-1.61 Y0.62 E1.28457
G1 X-1.52 Y0.93 E1.28556
G1 X-1.36 Y1.22 E1.28654
G1 X-1.15 Y1.48 E1.28753
G1 X-0.90 Y1.68 E1.28851
G1 X-0.61 Y1.84 E1.28950
G1 X-0.29 Y1.93 E1.29049
G1 X0.03 Y1.97 E1.29146
G1 X0.36 Y1.93 E1.29246
G1 X0.68 Y1.84 E1.29345
G1 X0.96 Y1.68 E1.29444
G1 X1.22 Y1.47 E1.29542
G1 X1.43 Y1.22 E1.29641
G1 X1.58 Y0.93 E1.29739
G1 X1.68 Y0.61 E1.29838
G1 X1.71 Y0.29 E1.29936
G1 X1.68 Y-0.04 E1.30035
G1 X1.58 Y-0.36 E1.30134
G1 X1.42 Y-0.65 E1.30233
G1 X1.22 Y-0.90 E1.30332
G1 X0.96 Y-1.11 E1.30430
G1 X0.67 Y-1.26 E1.30529
G1 X0.35 Y-1.36 E1.30628
G1 X0.03 Y-1.39 E1.30725
G1 X-0.30 Y-1.36 E1.30825
G0 X-0.32 Y-1.51
G0 X-3.83 Y-19.13
G0 X-3.86 Y-19.28
G1 X0.03 Y-19.66 E1.31998
G1 X3.92 Y-19.28 E1.33171
G1 X7.67 Y-18.14 E1.34345
G1 X11.12 Y-16.30 E1.35518
G1 X14.14 Y-13.81 E1.36691
G1 X16.62 Y-10.79 E1.37864
G1 X18.46 Y-7.34 E1.39037
G1 X19.60 Y-3.60 E1.40210
G1 X19.98 Y0.29 E1.41383
G1 X19.59 Y4.18 E1.42557
G1 X18.46 Y7.92 E1.43730
G1 X16.62 Y11.37 E1.44903
G1 X14.13 Y14.40 E1.46077
G1 X11.11 Y16.88 E1.47249
G1 X7.66 Y18.72 E1.48423
G1 X3.92 Y19.85 E1.49596
G1 X0.03 Y20.24 E1.50769
G1 X-3.86 Y19.85 E1.51942
G1 X-7.61 Y18.72 E1.53116
G1 X-11.06 Y16.87 E1.54289
G1 X-14.08 Y14.39 E1.55462
G1 X-16.56 Y11.37 E1.56635
G1 X-18.40 Y7.92 E1.57808
G1 X-19.53 Y4.18 E1.58982
G1 X-19.92 Y0.29 E1.60154
G1 X-19.53 Y-3.61 E1.61329
G1 X-18.40 Y-7.35 E1.62501
G1 X-16.56 Y-10.80 E1.63674
G1 X-14.07 Y-13.82 E1.64848
G1 X-11.05 Y-16.30 E1.66020
G1 X-7.60 Y-18.14 E1.67194
G1 X-3.86 Y-19.28 E1.68367
G0 X-3.81 Y-19.03
;LAYER:2
G0 X-3.86 Y-19.28 Z0.09
;TYPE:WALL-OUTER
G1 X0.03 Y-19.66 E1.69540
G1 X3.93 Y-19.28 E1.70714
G1 X7.67 Y-18.14 E1.71888
G1 X11.12 Y-16.30 E1.73061
G1 X14.14 Y-13.81 E1.74234
G1 X16.62 Y-10.79 E1.75408
G1 X18.46 Y-7.35 E1.76579
G1 X19.60 Y-3.60 E1.77752
G1 X19.98 Y0.29 E1.78925
G1 X19.60 Y4.18 E1.80100
G1 X18.46 Y7.93 E1.81273
G1 X16.61 Y11.38 E1.82446
G1 X14.13 Y14.40 E1.83620
G1 X11.11 Y16.88 E1.84793
G1 X7.66 Y18.72 E1.85964
G1 X3.92 Y19.85 E1.87138
G1 X0.03 Y20.24 E1.88311
G1 X-3.87 Y19.85 E1.89485
G1 X-7.61 Y18.72 E1.90659
G1 X-11.06 Y16.87 E1.91832
G1 X-14.08 Y14.39 E1.93005
G1 X-16.56 Y11.36 E1.94179
G1 X-18.40 Y7.92 E1.95350
G1 X-19.53 Y4.18 E1.96523
G1 X-19.92 Y0.29 E1.97696
G1 X-19.53 Y-3.61 E1.98871
G1 X-18.40 Y-7.35 E2.00044
G1 X-16.55 Y-10.80 E2.01217
G1 X-14.07 Y-13.82 E2.02391
G1 X-11.05 Y-16.30 E2.03564
G1 X-7.60 Y-18.14 E2.04735
G1 X-3.86 Y-19.28 E2.05909
G0 X-3.83 Y-19.13
G0 X-0.32 Y-1.51
G0 X-0.30 Y-1.36
G1 X-0.61 Y-1.26 E2.06007
G1 X-0.90 Y-1.11 E2.06106
G1 X-1.16 Y-0.90 E2.06205
G1 X-1.36 Y-0.64 E2.06303
G1 X-1.52 Y-0.35 E2.06402
G1 X-1.62 Y-0.04 E2.06501
G1 X-1.65 Y0.28 E2.06598
G1 X-1.61 Y0.62 E2.06698
G1 X-1.52 Y0.93 E2.06797
G1 X-1.36 Y1.22 E2.06895
G1 X-1.15 Y1.48 E2.06994
G1 X-0.90 Y1.68 E2.07092
G1 X-0.61 Y1.84 E2.07191
G1 X-0.29 Y1.93 E2.07290
G1 X0.03 Y1.97 E2.07387
G1 X0.36 Y1.93 E2.07487
G1 X0.68 Y1.84 E2.07586
G1 X0.96 Y1.68 E2.07685
G1 X1.22 Y1.47 E2.07783
G1 X1.43 Y1.22 E2.07882
G1 X1.58 Y0.93 E2.07980
G1 X1.68 Y0.61 E2.08079
G1 X1.71 Y0.29 E2.08176
G1 X1.68 Y-0.04 E2.08276
G1 X1.58 Y-0.36 E2.08375
G1 X1.42 Y-0.65 E2.08474
G1 X1.22 Y-0.90 E2.08572
G1 X0.96 Y-1.11 E2.08671
G1 X0.67 Y-1.26 E2.08770
G1 X0.35 Y-1.36 E2.08869
G1 X0.03 Y-1.39 E2.08966
G1 X-0.30 Y-1.36 E2.09065
G0 X-0.34 Y-1.61
;LAYER:3
G0 X-0.30 Y-1.36 Z0.12
;TYPE:WALL-OUTER
G1 X-0.61 Y-1.26 E2.09164
G1 X-0.90 Y-1.11 E2.09263
G1 X-1.16 Y-0.90 E2.09362
G1 X-1.36 Y-0.64 E2.09460
G1 X-1.52 Y-0.35 E2.09559
G1 X-1.62 Y-0.04 E2.09658
G1 X-1.65 Y0.28 E2.09755
G1 X-1.61 Y0.62 E2.09855
G1 X-1.52 Y0.93 E2.09953
G1 X-1.36 Y1.22 E2.10052
G1 X-1.15 Y1.48 E2.10151
G1 X-0.90 Y1.68 E2.10249
G1 X-0.61 Y1.84 E2.10348
G1 X-0.29 Y1.93 E2.10447
G1 X0.03 Y1.97 E2.10544
G1 X0.36 Y1.93 E2.10644
G1 X0.68 Y1.84 E2.10743
G1 X0.96 Y1.68 E2.10841
G1 X1.22 Y1.47 E2.10940
G1 X1.43 Y1.22 E2.11038
G1 X1.58 Y0.93 E2.11137
G1 X1.68 Y0.61 E2.11236
G1 X1.71 Y0.29 E2.11333
G1 X1.68 Y-0.04 E2.11433
G1 X1.58 Y-0.36 E2.11532
G1 X1.42 Y-0.65 E2.11631
G1 X1.22 Y-0.90 E2.11729
G1 X0.96 Y-1.11 E2.11828
G1 X0.67 Y-1.26 E2.11926
G1 X0.35 Y-1.36 E2.12025
G1 X0.03 Y-1.39 E2.12123
G1 X-0.30 Y-1.36 E2.12222
G0 X-0.32 Y-1.51
G0 X-3.83 Y-19.13
G0 X-3.86 Y-19.28
G1 X0.03 Y-19.66 E2.13395
G1 X3.93 Y-19.28 E2.14571
G1 X7.67 Y-18.14 E2.15744
G1 X11.12 Y-16.30 E2.16917
G1 X14.14 Y-13.81 E2.18091
G1 X16.62 Y-10.79 E2.19264
G1 X18.46 Y-7.34 E2.20436
G1 X19.60 Y-3.61 E2.21607
G1 X19.98 Y0.29 E2.22781
G1 X19.59 Y4.18 E2.23955
G1 X18.46 Y7.93 E2.25130
G1 X16.61 Y11.38 E2.26302
G1 X14.13 Y14.40 E2.27476
G1 X11.10 Y16.88 E2.28650
G1 X7.66 Y18.72 E2.29822
G1 X3.92 Y19.85 E2.30993
G1 X0.03 Y20.24 E2.32166
G1 X-3.87 Y19.85 E2.33341
G1 X-7.61 Y18.71 E2.34515
G1 X-11.06 Y16.87 E2.35688
G1 X-14.08 Y14.39 E2.36861
G1 X-16.56 Y11.36 E2.38035
G1 X-18.40 Y7.91 E2.39207
G1 X-19.53 Y4.18 E2.40378
G1 X-19.92 Y0.29 E2.41551
G1 X-19.53 Y-3.61 E2.42727
G1 X-18.39 Y-7.36 E2.43901
G1 X-16.55 Y-10.80 E2.45073
G1 X-14.07 Y-13.82 E2.46246
G1 X-11.04 Y-16.30 E2.47420
G1 X-7.60 Y-18.14 E2.48592
G1 X-3.86 Y-19.28 E2.49764
G0 X-3.81 Y-19.03
;LAYER:4
G0 X-3.86 Y-19.28 Z0.15
;TYPE:WALL-OUTER
G1 X0.03 Y-19.66 E2.50937
G1 X3.93 Y-19.27 E2.52113
G1 X7.68 Y-18.14 E2.53286
G1 X11.12 Y-16.29 E2.54459
G1 X14.14 Y-13.81 E2.55633
G1 X16.62 Y-10.79 E2.56803
G1 X18.46 Y-7.34 E2.57979
G1 X19.60 Y-3.60 E2.59149
G1 X19.98 Y0.29 E2.60322
G1 X19.59 Y4.19 E2.61498
G1 X18.46 Y7.93 E2.62671
G1 X16.61 Y11.38 E2.63844
G1 X14.13 Y14.40 E2.65018
G1 X11.11 Y16.88 E2.66188
G1 X7.66 Y18.72 E2.67364
G1 X3.92 Y19.85 E2.68534
G1 X0.03 Y20.24 E2.69707
G1 X-3.87 Y19.85 E2.70883
G1 X-7.61 Y18.71 E2.72057
G1 X-11.06 Y16.87 E2.73230
G1 X-14.08 Y14.39 E2.74403
G1 X-16.56 Y11.37 E2.75573
G1 X-18.40 Y7.91 E2.76749
G1 X-19.53 Y4.18 E2.77919
G1 X-19.92 Y0.29 E2.79092
G1 X-19.53 Y-3.61 E2.80269
G1 X-18.39 Y-7.36 E2.81442
G1 X-16.55 Y-10.80 E2.82615
G1 X-14.07 Y-13.82 E2.83789
G1 X-11.05 Y-16.30 E2.84959
G1 X-7.59 Y-18.15 E2.86135
G1 X-3.86 Y-19.28 E2.87305
G0 X-3.83 Y-19.13
G0 X-0.32 Y-1.51
G0 X-0.30 Y-1.36
G1 X-0.61 Y-1.26 E2.87404
G1 X-0.90 Y-1.11 E2.87502
G1 X-1.16 Y-0.90 E2.87601
G1 X-1.36 Y-0.64 E2.87699
G1 X-1.52 Y-0.35 E2.87798
G1 X-1.62 Y-0.04 E2.87897
G1 X-1.65 Y0.28 E2.87994
G1 X-1.61 Y0.62 E2.88094
G1 X-1.52 Y0.93 E2.88193
G1 X-1.36 Y1.22 E2.88292
G1 X-1.15 Y1.48 E2.88390
G1 X-0.90 Y1.68 E2.88488
G1 X-0.61 Y1.84 E2.88587
G1 X-0.29 Y1.93 E2.88686
G1 X0.03 Y1.97 E2.88783
G1 X0.36 Y1.93 E2.88883
G1 X0.68 Y1.84 E2.88982
G1 X0.96 Y1.68 E2.89081
G1 X1.22 Y1.47 E2.89180
G1 X1.43 Y1.22 E2.89278
G1 X1.58 Y0.93 E2.89377
G1 X1.68 Y0.61 E2.89476
G1 X1.71 Y0.29 E2.89573
G1 X1.68 Y-0.04 E2.89673
G1 X1.58 Y-0.36 E2.89771
G1 X1.42 Y-0.65 E2.89870
G1 X1.22 Y-0.90 E2.89969
G1 X0.96 Y-1.11 E2.90067
G1 X0.67 Y-1.26 E2.90166
G1 X0.35 Y-1.36 E2.90265
G1 X0.03 Y-1.39 E2.90362
G1 X-0.30 Y-1.36 E2.90462
G0 X-0.34 Y-1.61
;LAYER:5
G0 X-0.30 Y-1.36 Z0.18
;TYPE:WALL-OUTER
G1 X-0.61 Y-1.26 E2.90561
G1 X-0.90 Y-1.11 E2.90659
G1 X-1.16 Y-0.90 E2.90758
G1 X-1.36 Y-0.64 E2.90856
G1 X-1.52 Y-0.35 E2.90955
G1 X-1.62 Y-0.04 E2.91054
G1 X-1.65 Y0.28 E2.91151
G1 X-1.61 Y0.62 E2.91251
G1 X-1.52 Y0.93 E2.91350
G1 X-1.36 Y1.22 E2.91449
G1 X-1.15 Y1.48 E2.91547
G1 X-0.90 Y1.68 E2.91645
G1 X-0.61 Y1.84 E2.91744
G1 X-0.29 Y1.93 E2.91843
G1 X0.03 Y1.97 E2.91940
G1 X0.36 Y1.93 E2.92040
G1 X0.68 Y1.84 E2.92139
G1 X0.96 Y1.68 E2.92238
G1 X1.22 Y1.47 E2.92336
G1 X1.43 Y1.22 E2.92435
G1 X1.58 Y0.93 E2.92534
G1 X1.68 Y0.61 E2.92633
G1 X1.71 Y0.29 E2.92730
G1 X1.68 Y-0.04 E2.92829
G1 X1.58 Y-0.36 E2.92928
G1 X1.42 Y-0.65 E2.93027
G1 X1.22 Y-0.90 E2.93126
G1 X0.96 Y-1.11 E2.93224
G1 X0.67 Y-1.26 E2.93323
G1 X0.35 Y-1.36 E2.93422
G1 X0.03 Y-1.39 E2.93519
G1 X-0.30 Y-1.36 E2.93619
G0 X-0.32 Y-1.51
G0 X-3.83 Y-19.13
G0 X-3.86 Y-19.28
G1 X0.03 Y-19.66 E2.94792
G1 X3.93 Y-19.27 E2.95969
G1 X7.68 Y-18.14 E2.97142
G1 X11.11 Y-16.30 E2.98311
G1 X14.14 Y-13.82 E2.99484
G1 X16.62 Y-10.78 E3.00662
G1 X18.47 Y-7.33 E3.01834
G1 X19.60 Y-3.60 E3.03004
G1 X19.98 Y0.29 E3.04177
G1 X19.59 Y4.19 E3.05353
G1 X18.45 Y7.93 E3.06527
G1 X16.62 Y11.37 E3.07696
G1 X14.14 Y14.39 E3.08870
G1 X11.10 Y16.88 E3.10047
G1 X7.65 Y18.72 E3.11220
G1 X3.92 Y19.85 E3.12389
G1 X0.03 Y20.24 E3.13562
G1 X-3.87 Y19.85 E3.14739
G1 X-7.61 Y18.71 E3.15913
G1 X-11.05 Y16.88 E3.17081
G1 X-14.07 Y14.39 E3.18255
G1 X-16.56 Y11.36 E3.19432
G1 X-18.40 Y7.91 E3.20605
G1 X-19.53 Y4.18 E3.21775
G1 X-19.92 Y0.29 E3.22948
G1 X-19.53 Y-3.62 E3.24125
G1 X-18.39 Y-7.36 E3.25298
G1 X-16.56 Y-10.79 E3.26467
G1 X-14.07 Y-13.82 E3.27640
G1 X-11.04 Y-16.31 E3.28818
G1 X-7.59 Y-18.15 E3.29990
G1 X-3.86 Y-19.28 E3.31160
G0 X-3.81 Y-19.03
;LAYER:6
G0 X-3.86 Y-19.28 Z0.21
;TYPE:WALL-OUTER
G1 X0.03 Y-19.66 E3.32333
G1 X3.94 Y-19.27 E3.33511
G1 X7.68 Y-18.14 E3.34684
G1 X11.13 Y-16.29 E3.35857
G1 X14.14 Y-13.82 E3.37026
G1 X16.63 Y-10.78 E3.38204
G1 X18.46 Y-7.35 E3.39372
G1 X19.60 Y-3.60 E3.40545
G1 X19.98 Y0.29 E3.41718
G1 X19.59 Y4.20 E3.42896
G1 X18.45 Y7.94 E3.44069
G1 X16.61 Y11.38 E3.45242
G1 X14.14 Y14.39 E3.46411
G1 X11.10 Y16.88 E3.47589
G1 X7.66 Y18.72 E3.48757
G1 X3.92 Y19.85 E3.49931
G1 X0.03 Y20.24 E3.51104
G1 X-3.88 Y19.85 E3.52281
G1 X-7.62 Y18.71 E3.53455
G1 X-11.06 Y16.87 E3.54627
G1 X-14.07 Y14.39 E3.55796
G1 X-16.56 Y11.36 E3.56974
G1 X-18.40 Y7.92 E3.58142
G1 X-19.53 Y4.18 E3.59316
G1 X-19.92 Y0.29 E3.60489
G1 X-19.53 Y-3.62 E3.61667
G1 X-18.39 Y-7.36 E3.62840
G1 X-16.55 Y-10.81 E3.64013
G1 X-14.07 Y-13.82 E3.65181
G1 X-11.04 Y-16.31 E3.66360
G1 X-7.60 Y-18.14 E3.67528
G1 X-3.86 Y-19.28 E3.68701
G0 X-3.83 Y-19.13
G0 X-0.32 Y-1.51
G0 X-0.30 Y-1.36
G1 X-0.61 Y-1.26 E3.68800
G1 X-0.90 Y-1.11 E3.68899
G1 X-1.16 Y-0.90 E3.68997
G1 X-1.36 Y-0.64 E3.69096
G1 X-1.52 Y-0.35 E3.69195
G1 X-1.62 Y-0.04 E3.69294
G1 X-1.65 Y0.28 E3.69390
G1 X-1.61 Y0.62 E3.69490
G1 X-1.52 Y0.93 E3.69589
G1 X-1.36 Y1.22 E3.69688
G1 X-1.15 Y1.48 E3.69787
G1 X-0.90 Y1.68 E3.69884
G1 X-0.61 Y1.84 E3.69984
G1 X-0.29 Y1.93 E3.70083
G1 X0.03 Y1.97 E3.70180
G1 X0.36 Y1.93 E3.70280
G1 X0.68 Y1.84 E3.70378
G1 X0.96 Y1.68 E3.70477
G1 X1.22 Y1.47 E3.70576
G1 X1.43 Y1.22 E3.70674
G1 X1.58 Y0.93 E3.70773
G1 X1.68 Y0.61 E3.70872
G1 X1.71 Y0.29 E3.70969
G1 X1.68 Y-0.04 E3.71069
G1 X1.58 Y-0.36 E3.71168
G1 X1.42 Y-0.65 E3.71266
G1 X1.22 Y-0.90 E3.71365
G1 X0.96 Y-1.11 E3.71464
G1 X0.67 Y-1.26 E3.71562
G1 X0.35 Y-1.36 E3.71661
G1 X0.03 Y-1.39 E3.71758
G1 X-0.30 Y-1.36 E3.71858
G0 X-0.34 Y-1.61
;LAYER:7
G0 X-0.30 Y-1.36 Z0.24
;TYPE:WALL-OUTER
