;Generated with Cura_SteamEngine 13.11.2
;FLAVOR:UltiGCode
;TIME:1164      
;MATERIAL:613       
;MATERIAL2:0         

;Layer count: 752
;LAYER:0
M107
G0 F6000 X-4.32 Y-22.35 Z0.06
;TYPE:SKIRT
G11
G1 X-0.12 Y-22.76 E0.02532
G1 X0.18 Y-22.76 E0.02712
G1 X4.38 Y-22.35 E0.05244
G1 X4.67 Y-22.29 E0.05423
G1 X8.72 Y-21.06 E0.07957
G1 X8.99 Y-20.95 E0.08136
G1 X12.71 Y-18.96 E0.10669
G1 X12.96 Y-18.79 E0.10849
G1 X16.23 Y-16.11 E0.13381
G1 X16.44 Y-15.90 E0.13561
G1 X19.11 Y-12.64 E0.16093
G1 X19.28 Y-12.39 E0.16272
G1 X21.27 Y-8.67 E0.18804
G1 X21.38 Y-8.39 E0.18983
G1 X22.61 Y-4.35 E0.21516
G1 X22.67 Y-4.06 E0.21695
G1 X23.08 Y0.14 E0.24227
G1 X23.08 Y0.44 E0.24406
G1 X22.67 Y4.64 E0.26938
G1 X22.61 Y4.93 E0.27118
G1 X21.38 Y8.97 E0.29652
G1 X21.27 Y9.25 E0.29831
G1 X19.28 Y12.97 E0.32364
G1 X19.11 Y13.22 E0.32544
G1 X16.43 Y16.48 E0.35076
G1 X16.22 Y16.69 E0.35256
G1 X12.96 Y19.37 E0.37788
G1 X12.71 Y19.54 E0.37967
G1 X8.99 Y21.52 E0.40498
G1 X8.71 Y21.64 E0.40678
G1 X4.67 Y22.86 E0.43211
G1 X4.38 Y22.92 E0.43390
G1 X0.18 Y23.34 E0.45922
G1 X-0.12 Y23.34 E0.46101
G1 X-4.32 Y22.92 E0.48633
G1 X-4.61 Y22.86 E0.48813
G1 X-8.65 Y21.64 E0.51347
G1 X-8.93 Y21.52 E0.51526
G1 X-12.65 Y19.53 E0.54059
G1 X-12.90 Y19.37 E0.54239
G1 X-16.16 Y16.69 E0.56771
G1 X-16.38 Y16.48 E0.56951
G1 X-19.05 Y13.22 E0.59483
G1 X-19.22 Y12.97 E0.59662
G1 X-21.21 Y9.25 E0.62193
G1 X-21.32 Y8.97 E0.62373
G1 X-22.55 Y4.93 E0.64906
G1 X-22.60 Y4.64 E0.65085
G1 X-23.02 Y0.44 E0.67617
G1 X-23.02 Y0.14 E0.67797
G1 X-22.60 Y-4.06 E0.70329
G1 X-22.55 Y-4.36 E0.70508
G1 X-21.32 Y-8.40 E0.73042
G1 X-21.20 Y-8.67 E0.73221
G1 X-19.22 Y-12.40 E0.75754
G1 X-19.05 Y-12.64 E0.75934
G1 X-16.37 Y-15.91 E0.78466
G1 X-16.16 Y-16.12 E0.78646
G1 X-12.90 Y-18.80 E0.81178
G1 X-12.65 Y-18.96 E0.81357
G1 X-8.93 Y-20.95 E0.83888
G1 X-8.65 Y-21.06 E0.84068
G1 X-4.61 Y-22.29 E0.86601
G1 X-4.32 Y-22.35 E0.86780
G0 X-4.33 Y-22.45
G1 X-0.12 Y-22.86 E0.89318
G1 X0.19 Y-22.86 E0.89503
G1 X4.39 Y-22.45 E0.92040
G1 X4.70 Y-22.39 E0.92227
G1 X8.75 Y-21.16 E0.94766
G1 X9.03 Y-21.04 E0.94951
G1 X12.77 Y-19.04 E0.97490
G1 X13.02 Y-18.87 E0.97676
G1 X16.29 Y-16.19 E1.00214
G1 X16.51 Y-15.97 E1.00399
G1 X19.19 Y-12.70 E1.02937
G1 X19.37 Y-12.44 E1.03123
G1 X21.36 Y-8.71 E1.05659
G1 X21.48 Y-8.43 E1.05845
G1 X22.70 Y-4.38 E1.08384
G1 X22.76 Y-4.08 E1.08569
G1 X23.18 Y0.13 E1.11106
G1 X23.18 Y0.44 E1.11292
G1 X22.76 Y4.65 E1.13830
G1 X22.70 Y4.95 E1.14015
G1 X21.48 Y9.01 E1.16555
G1 X21.36 Y9.29 E1.16740
G1 X19.36 Y13.02 E1.19279
G1 X19.19 Y13.28 E1.19465
G1 X16.51 Y16.55 E1.22003
G1 X16.29 Y16.77 E1.22188
G1 X13.02 Y19.45 E1.24726
G1 X12.76 Y19.62 E1.24912
G1 X9.03 Y21.61 E1.27448
G1 X8.75 Y21.73 E1.27634
G1 X4.70 Y22.96 E1.30173
G1 X4.39 Y23.02 E1.30358
G1 X0.19 Y23.44 E1.32895
G1 X-0.12 Y23.44 E1.33081
G1 X-4.33 Y23.02 E1.35619
G1 X-4.64 Y22.96 E1.35804
G1 X-8.69 Y21.73 E1.38343
G1 X-8.97 Y21.61 E1.38529
G1 X-12.70 Y19.62 E1.41068
G1 X-12.96 Y19.45 E1.41254
G1 X-16.23 Y16.76 E1.43792
G1 X-16.45 Y16.55 E1.43977
G1 X-19.13 Y13.27 E1.46515
G1 X-19.30 Y13.02 E1.46701
G1 X-21.30 Y9.29 E1.49237
G1 X-21.42 Y9.00 E1.49423
G1 X-22.64 Y4.95 E1.51961
G1 X-22.70 Y4.65 E1.52147
G1 X-23.12 Y0.44 E1.54685
G1 X-23.12 Y0.13 E1.54870
G1 X-22.70 Y-4.07 E1.57407
G1 X-22.64 Y-4.38 E1.57594
G1 X-21.41 Y-8.43 E1.60133
G1 X-21.30 Y-8.72 E1.60318
G1 X-19.30 Y-12.45 E1.62857
G1 X-19.13 Y-12.70 E1.63043
G1 X-16.44 Y-15.97 E1.65581
G1 X-16.23 Y-16.19 E1.65766
G1 X-12.96 Y-18.88 E1.68304
G1 X-12.70 Y-19.05 E1.68490
G1 X-8.97 Y-21.04 E1.71026
G1 X-8.68 Y-21.16 E1.71212
G1 X-4.64 Y-22.39 E1.73750
G1 X-4.33 Y-22.45 E1.73936
G0 X-3.83 Y-19.13
G0 X-3.83 Y-19.13
G0 X-3.86 Y-19.28
;TYPE:WALL-OUTER
G1 X0.03 Y-19.66 E1.76282
G1 X3.92 Y-19.28 E1.78628
G1 X7.67 Y-18.14 E1.80976
G1 X11.11 Y-16.30 E1.83322
G1 X14.14 Y-13.82 E1.85669
G1 X16.62 Y-10.79 E1.88015
G1 X18.46 Y-7.35 E1.90360
G1 X19.60 Y-3.60 E1.92707
G1 X19.98 Y0.29 E1.95053
G1 X19.60 Y4.18 E1.97399
G1 X18.46 Y7.92 E1.99747
G1 X16.62 Y11.37 E2.02093
G1 X14.14 Y14.40 E2.04440
G1 X11.11 Y16.88 E2.06787
G1 X7.66 Y18.72 E2.09131
G1 X3.92 Y19.85 E2.11478
G1 X0.03 Y20.24 E2.13824
G1 X-3.86 Y19.85 E2.16170
G1 X-7.61 Y18.72 E2.18518
G1 X-11.05 Y16.87 E2.20864
G1 X-14.08 Y14.39 E2.23211
G1 X-16.56 Y11.37 E2.25558
G1 X-18.40 Y7.92 E2.27902
G1 X-19.53 Y4.18 E2.30249
G1 X-19.92 Y0.29 E2.32595
G1 X-19.53 Y-3.60 E2.34941
G1 X-18.40 Y-7.35 E2.37289
G1 X-16.56 Y-10.80 E2.39635
G1 X-14.07 Y-13.82 E2.41983
G1 X-11.05 Y-16.30 E2.44329
G1 X-7.60 Y-18.14 E2.46673
G1 X-3.86 Y-19.28 E2.49020
G0 X-3.83 Y-19.13
G0 X-0.32 Y-1.51
G0 X-0.30 Y-1.36
G1 X-0.61 Y-1.26 E2.49218
G1 X-0.90 Y-1.11 E2.49415
G1 X-1.16 Y-0.90 E2.49613
G1 X-1.36 Y-0.64 E2.49809
G1 X-1.52 Y-0.35 E2.50007
G1 X-1.62 Y-0.04 E2.50205
G1 X-1.65 Y0.28 E2.50398
G1 X-1.61 Y0.62 E2.50599
G1 X-1.52 Y0.93 E2.50796
G1 X-1.36 Y1.22 E2.50994
G1 X-1.15 Y1.48 E2.51191
G1 X-0.90 Y1.68 E2.51387
G1 X-0.61 Y1.84 E2.51585
G1 X-0.29 Y1.93 E2.51783
G1 X0.03 Y1.97 E2.51977
G1 X0.36 Y1.93 E2.52177
G1 X0.68 Y1.84 E2.52375
G1 X0.96 Y1.68 E2.52572
G1 X1.22 Y1.47 E2.52769
G1 X1.43 Y1.22 E2.52966
G1 X1.58 Y0.93 E2.53164
G1 X1.68 Y0.61 E2.53362
G1 X1.71 Y0.29 E2.53556
G1 X1.68 Y-0.04 E2.53755
G1 X1.58 Y-0.36 E2.53953
G1 X1.42 Y-0.65 E2.54151
G1 X1.22 Y-0.90 E2.54348
G1 X0.96 Y-1.11 E2.54545
G1 X0.67 Y-1.26 E2.54742
G1 X0.35 Y-1.36 E2.54940
G1 X0.03 Y-1.39 E2.55134
G1 X-0.30 Y-1.36 E2.55334
G0 X-0.34 Y-1.61
;LAYER:1
G0 X-0.30 Y-1.36 Z0.12
;TYPE:WALL-OUTER
G1 X-0.61 Y-1.26 E2.55531
G1 X-0.90 Y-1.11 E2.55729
G1 X-1.16 Y-0.90 E2.55927
G1 X-1.36 Y-0.64 E2.56123
G1 X-1.52 Y-0.35 E2.56321
G1 X-1.62 Y-0.04 E2.56519
G1 X-1.65 Y0.28 E2.56712
G1 X-1.61 Y0.62 E2.56912
G1 X-1.52 Y0.93 E2.57110
G1 X-1.36 Y1.22 E2.57308
G1 X-1.15 Y1.48 E2.57505
G1 X-0.90 Y1.68 E2.57701
G1 X-0.61 Y1.84 E2.57899
G1 X-0.29 Y1.93 E2.58097
G1 X0.03 Y1.97 E2.58291
G1 X0.36 Y1.93 E2.58491
G1 X0.68 Y1.84 E2.58688
G1 X0.96 Y1.68 E2.58886
G1 X1.22 Y1.47 E2.59083
G1 X1.43 Y1.22 E2.59280
G1 X1.58 Y0.93 E2.59477
G1 X1.68 Y0.61 E2.59675
G1 X1.71 Y0.29 E2.59870
G1 X1.68 Y-0.04 E2.60069
G1 X1.58 Y-0.36 E2.60267
G1 X1.42 Y-0.65 E2.60464
G1 X1.22 Y-0.90 E2.60662
G1 X0.96 Y-1.11 E2.60859
G1 X0.67 Y-1.26 E2.61056
G1 X0.35 Y-1.36 E2.61254
G1 X0.03 Y-1.39 E2.61448
G1 X-0.30 Y-1.36 E2.61648
G0 X-0.32 Y-1.51
G0 X-3.83 Y-19.13
G0 X-3.86 Y-19.28
G1 X0.03 Y-19.66 E2.63994
G1 X3.93 Y-19.28 E2.66344
G1 X7.67 Y-18.14 E2.68691
G1 X11.12 Y-16.30 E2.71036
G1 X14.14 Y-13.82 E2.73379
G1 X16.62 Y-10.79 E2.75730
G1 X18.46 Y-7.34 E2.78076
G1 X19.60 Y-3.61 E2.80418
G1 X19.98 Y0.29 E2.82765
G1 X19.59 Y4.18 E2.85114
G1 X18.46 Y7.93 E2.87461
G1 X16.61 Y11.38 E2.89807
G1 X14.14 Y14.39 E2.92150
G1 X11.11 Y16.88 E2.94501
G1 X7.66 Y18.72 E2.96847
G1 X3.92 Y19.85 E2.99190
G1 X0.03 Y20.24 E3.01536
G1 X-3.87 Y19.85 E3.03886
G1 X-7.61 Y18.72 E3.06232
G1 X-11.06 Y16.87 E3.08578
G1 X-14.07 Y14.39 E3.10921
G1 X-16.56 Y11.36 E3.13272
G1 X-18.40 Y7.92 E3.15617
G1 X-19.53 Y4.18 E3.17960
G1 X-19.92 Y0.29 E3.20306
G1 X-19.53 Y-3.61 E3.22658
G1 X-18.40 Y-7.35 E3.25003
G1 X-16.55 Y-10.80 E3.27349
G1 X-14.07 Y-13.82 E3.29692
G1 X-11.05 Y-16.30 E3.32043
G1 X-7.60 Y-18.14 E3.34388
G1 X-3.86 Y-19.28 E3.36731
G0 X-3.81 Y-19.03
;LAYER:2
G0 X-3.86 Y-19.28 Z0.18
;TYPE:WALL-OUTER
G1 X0.03 Y-19.66 E3.39077
G1 X3.93 Y-19.27 E3.41431
G1 X7.68 Y-18.14 E3.43777
G1 X11.12 Y-16.29 E3.46123
G1 X14.15 Y-13.81 E3.48470
G1 X16.62 Y-10.78 E3.50817
G1 X18.46 Y-7.35 E3.53155
G1 X19.60 Y-3.60 E3.55502
G1 X19.98 Y0.29 E3.57848
G1 X19.59 Y4.19 E3.60200
G1 X18.45 Y7.93 E3.62548
G1 X16.61 Y11.38 E3.64893
G1 X14.13 Y14.40 E3.67241
G1 X11.10 Y16.88 E3.69588
G1 X7.66 Y18.72 E3.71926
G1 X3.92 Y19.85 E3.74272
G1 X0.03 Y20.24 E3.76618
G1 X-3.87 Y19.85 E3.78972
G1 X-7.61 Y18.71 E3.81318
G1 X-11.06 Y16.87 E3.83664
G1 X-14.08 Y14.38 E3.86011
G1 X-16.56 Y11.36 E3.88358
G1 X-18.40 Y7.92 E3.90696
G1 X-19.53 Y4.18 E3.93043
G1 X-19.92 Y0.29 E3.95389
G1 X-19.53 Y-3.62 E3.97742
G1 X-18.39 Y-7.36 E4.00089
G1 X-16.55 Y-10.80 E4.02435
G1 X-14.06 Y-13.83 E4.04782
G1 X-11.04 Y-16.31 E4.07129
G1 X-7.60 Y-18.14 E4.09467
G1 X-3.86 Y-19.28 E4.11813
G0 X-3.83 Y-19.13
G0 X-0.32 Y-1.51
G0 X-0.30 Y-1.36
G1 X-0.61 Y-1.26 E4.12011
G1 X-0.90 Y-1.11 E4.12208
G1 X-1.16 Y-0.90 E4.12406
G1 X-1.36 Y-0.64 E4.12603
G1 X-1.52 Y-0.35 E4.12800
G1 X-1.62 Y-0.04 E4.12998
G1 X-1.65 Y0.28 E4.13192
G1 X-1.61 Y0.62 E4.13392
G1 X-1.52 Y0.93 E4.13590
G1 X-1.36 Y1.22 E4.13787
G1 X-1.15 Y1.48 E4.13984
G1 X-0.90 Y1.68 E4.14180
G1 X-0.61 Y1.84 E4.14379
G1 X-0.29 Y1.93 E4.14577
G1 X0.03 Y1.97 E4.14770
G1 X0.36 Y1.93 E4.14970
G1 X0.68 Y1.84 E4.15168
G1 X0.96 Y1.68 E4.15366
G1 X1.22 Y1.47 E4.15563
G1 X1.43 Y1.22 E4.15759
G1 X1.58 Y0.93 E4.15957
G1 X1.68 Y0.61 E4.16155
G1 X1.71 Y0.29 E4.16349
G1 X1.68 Y-0.04 E4.16549
G1 X1.58 Y-0.36 E4.16746
G1 X1.42 Y-0.65 E4.16944
G1 X1.22 Y-0.90 E4.17141
G1 X0.96 Y-1.11 E4.17338
G1 X0.67 Y-1.26 E4.17536
G1 X0.35 Y-1.36 E4.17734
G1 X0.03 Y-1.39 E4.17928
G1 X-0.30 Y-1.36 E4.18127
G0 X-0.34 Y-1.61
;LAYER:3
G0 X-0.30 Y-1.36 Z0.24
;TYPE:WALL-OUTER
G1 X-0.61 Y-1.26 E4.18325
G1 X-0.90 Y-1.11 E4.18522
G1 X-1.16 Y-0.90 E4.18720
G1 X-1.36 Y-0.64 E4.18917
G1 X-1.52 Y-0.35 E4.19114
G1 X-1.62 Y-0.04 E4.19312
G1 X-1.65 Y0.28 E4.19506
G1 X-1.61 Y0.62 E4.19706
G1 X-1.52 Y0.93 E4.19903
G1 X-1.36 Y1.22 E4.20101
G1 X-1.15 Y1.48 E4.20298
G1 X-0.90 Y1.68 E4.20494
G1 X-0.61 Y1.84 E4.20693
G1 X-0.29 Y1.93 E4.20891
G1 X0.03 Y1.97 E4.21084
G1 X0.36 Y1.93 E4.21284
G1 X0.68 Y1.84 E4.21482
G1 X0.96 Y1.68 E4.21679
G1 X1.22 Y1.47 E4.21877
G1 X1.43 Y1.22 E4.22073
G1 X1.58 Y0.93 E4.22271
G1 X1.68 Y0.61 E4.22469
G1 X1.71 Y0.29 E4.22663
G1 X1.68 Y-0.04 E4.22863
G1 X1.58 Y-0.36 E4.23060
G1 X1.42 Y-0.65 E4.23258
G1 X1.22 Y-0.90 E4.23455
G1 X0.96 Y-1.11 E4.23652
G1 X0.67 Y-1.26 E4.23849
G1 X0.35 Y-1.36 E4.24047
G1 X0.03 Y-1.39 E4.24242
G1 X-0.30 Y-1.36 E4.24441
G0 X-0.32 Y-1.51
G0 X-3.83 Y-19.13
G0 X-3.86 Y-19.28
G1 X0.03 Y-19.66 E4.26787
G1 X3.94 Y-19.27 E4.29144
G1 X7.68 Y-18.13 E4.31490
G1 X11.13 Y-16.29 E4.33835
G1 X14.15 Y-13.80 E4.36183
G1 X16.63 Y-10.78 E4.38530
G1 X18.47 Y-7.33 E4.40874
G1 X19.60 Y-3.60 E4.43211
G1 X19.98 Y0.29 E4.45557
G1 X19.59 Y4.20 E4.47913
G1 X18.45 Y7.94 E4.50260
G1 X16.61 Y11.38 E4.52605
G1 X14.12 Y14.40 E4.54953
G1 X11.10 Y16.88 E4.57300
G1 X7.65 Y18.72 E4.59644
G1 X3.92 Y19.85 E4.61981
G1 X0.03 Y20.24 E4.64327
G1 X-3.88 Y19.85 E4.66683
G1 X-7.62 Y18.71 E4.69030
G1 X-11.06 Y16.86 E4.71375
G1 X-14.09 Y14.38 E4.73723
G1 X-16.57 Y11.35 E4.76070
G1 X-18.40 Y7.91 E4.78414
G1 X-19.53 Y4.18 E4.80751
G1 X-19.92 Y0.29 E4.83097
G1 X-19.53 Y-3.62 E4.85453
G1 X-18.39 Y-7.36 E4.87800
G1 X-16.55 Y-10.81 E4.90145
G1 X-14.06 Y-13.83 E4.92493
G1 X-11.03 Y-16.31 E4.94840
G1 X-7.59 Y-18.15 E4.97184
G1 X-3.86 Y-19.28 E4.99521
G0 X-3.81 Y-19.03
;LAYER:4
G0 X-3.86 Y-19.28 Z0.30
;TYPE:WALL-OUTER
G1 X0.03 Y-19.66 E5.01867
G1 X3.94 Y-19.27 E5.04226
G1 X7.68 Y-18.13 E5.06573
G1 X11.13 Y-16.29 E5.08918
G1 X14.15 Y-13.80 E5.11265
G1 X16.63 Y-10.77 E5.13612
G1 X18.47 Y-7.32 E5.15957
G1 X19.60 Y-3.60 E5.18291
G1 X19.98 Y0.29 E5.20637
G1 X19.59 Y4.20 E5.22996
G1 X18.45 Y7.94 E5.25343
G1 X16.60 Y11.39 E5.27687
G1 X14.12 Y14.41 E5.30035
G1 X11.09 Y16.89 E5.32382
G1 X7.64 Y18.72 E5.34727
G1 X3.92 Y19.85 E5.37060
G1 X0.03 Y20.24 E5.39406
G1 X-3.88 Y19.85 E5.41766
G1 X-7.62 Y18.71 E5.44112
G1 X-11.07 Y16.86 E5.46457
G1 X-14.09 Y14.38 E5.48804
G1 X-16.57 Y11.35 E5.51152
G1 X-18.41 Y7.90 E5.53496
G1 X-19.53 Y4.18 E5.55830
G1 X-19.92 Y0.29 E5.58176
G1 X-19.53 Y-3.62 E5.60535
G1 X-18.39 Y-7.37 E5.62882
G1 X-16.54 Y-10.81 E5.65227
G1 X-14.06 Y-13.83 E5.67574
G1 X-11.03 Y-16.31 E5.69921
G1 X-7.58 Y-18.15 E5.72266
G1 X-3.86 Y-19.28 E5.74600
G0 X-3.83 Y-19.13
G0 X-0.32 Y-1.51
G0 X-0.30 Y-1.36
G1 X-0.61 Y-1.26 E5.74797
G1 X-0.90 Y-1.11 E5.74994
G1 X-1.16 Y-0.89 E5.75193
G1 X-1.36 Y-0.64 E5.75389
G1 X-1.52 Y-0.35 E5.75586
G1 X-1.62 Y-0.04 E5.75784
G1 X-1.65 Y0.28 E5.75978
G1 X-1.61 Y0.62 E5.76178
G1 X-1.52 Y0.93 E5.76376
G1 X-1.36 Y1.22 E5.76573
G1 X-1.15 Y1.48 E5.76771
G1 X-0.90 Y1.68 E5.76965
G1 X-0.61 Y1.84 E5.77165
G1 X-0.29 Y1.93 E5.77363
G1 X0.03 Y1.97 E5.77556
G1 X0.36 Y1.93 E5.77756
G1 X0.68 Y1.84 E5.77954
G1 X0.96 Y1.68 E5.78152
G1 X1.22 Y1.47 E5.78349
G1 X1.43 Y1.22 E5.78546
G1 X1.58 Y0.93 E5.78743
G1 X1.68 Y0.61 E5.78941
G1 X1.71 Y0.29 E5.79135
G1 X1.68 Y-0.04 E5.79335
G1 X1.58 Y-0.36 E5.79532
G1 X1.42 Y-0.65 E5.79730
G1 X1.22 Y-0.90 E5.79927
G1 X0.96 Y-1.11 E5.80124
G1 X0.67 Y-1.26 E5.80322
G1 X0.35 Y-1.36 E5.80520
G1 X0.03 Y-1.39 E5.80714
G1 X-0.30 Y-1.36 E5.80913
G0 X-0.34 Y-1.61
;LAYER:5
G0 X-0.30 Y-1.36 Z0.36
;TYPE:WALL-OUTER
G1 X-0.61 Y-1.26 E5.81111
G1 X-0.90 Y-1.11 E5.81308
G1 X-1.16 Y-0.89 E5.81507
G1 X-1.36 Y-0.64 E5.81703
G1 X-1.52 Y-0.35 E5.81900
G1 X-1.62 Y-0.04 E5.82098
G1 X-1.65 Y0.28 E5.82292
G1 X-1.61 Y0.62 E5.82492
G1 X-1.52 Y0.93 E5.82689
G1 X-1.36 Y1.22 E5.82887
G1 X-1.15 Y1.48 E5.83084
G1 X-0.90 Y1.68 E5.83279
G1 X-0.61 Y1.84 E5.83478
G1 X-0.29 Y1.93 E5.83676
G1 X0.03 Y1.97 E5.83870
G1 X0.36 Y1.93 E5.84070
G1 X0.68 Y1.84 E5.84268
G1 X0.96 Y1.68 E5.84465
G1 X1.22 Y1.47 E5.84663
G1 X1.43 Y1.22 E5.84859
G1 X1.58 Y0.93 E5.85057
G1 X1.68 Y0.61 E5.85255
G1 X1.71 Y0.29 E5.85449
G1 X1.68 Y-0.04 E5.85649
G1 X1.58 Y-0.36 E5.85846
G1 X1.42 Y-0.65 E5.86044
G1 X1.22 Y-0.90 E5.86241
G1 X0.96 Y-1.11 E5.86438
G1 X0.67 Y-1.26 E5.86635
G1 X0.35 Y-1.36 E5.86833
G1 X0.03 Y-1.39 E5.87028
G1 X-0.30 Y-1.36 E5.87227
G0 X-0.32 Y-1.51
G0 X-3.83 Y-19.13
G0 X-3.86 Y-19.28
G1 X0.03 Y-19.66 E5.89573
G1 X3.92 Y-19.28 E5.91919
G1 X7.66 Y-18.14 E5.94266
G1 X11.11 Y-16.30 E5.96611
G1 X14.14 Y-13.82 E5.98959
G1 X16.62 Y-10.79 E6.01306
G1 X18.46 Y-7.35 E6.03651
G1 X19.60 Y-3.60 E6.05998
G1 X19.98 Y0.29 E6.08344
G1 X19.60 Y4.18 E6.10690
G1 X18.46 Y7.92 E6.13037
G1 X16.62 Y11.37 E6.15382
G1 X14.14 Y14.39 E6.17730
G1 X11.11 Y16.88 E6.20077
G1 X7.66 Y18.72 E6.22423
G1 X3.92 Y19.85 E6.24769
G1 X0.03 Y20.24 E6.27115
G1 X-3.86 Y19.85 E6.29461
G1 X-7.60 Y18.72 E6.31808
G1 X-11.05 Y16.88 E6.34153
G1 X-14.07 Y14.39 E6.36501
G1 X-16.56 Y11.37 E6.38848
G1 X-18.40 Y7.92 E6.41194
G1 X-19.53 Y4.18 E6.43540
G1 X-19.92 Y0.29 E6.45886
G1 X-19.53 Y-3.60 E6.48232
G1 X-18.40 Y-7.35 E6.50579
G1 X-16.56 Y-10.79 E6.52925
G1 X-14.07 Y-13.82 E6.55272
G1 X-11.05 Y-16.30 E6.57619
G1 X-7.60 Y-18.14 E6.59965
G1 X-3.86 Y-19.28 E6.62311
G0 X-3.81 Y-19.03
;LAYER:6
G0 X-3.86 Y-19.28 Z0.42
;TYPE:WALL-OUTER
G1 X0.03 Y-19.66 E6.64657
G1 X3.92 Y-19.28 E6.67003
G1 X7.69 Y-18.13 E6.69370
G1 X11.11 Y-16.30 E6.71696
G1 X14.14 Y-13.82 E6.74043
G1 X16.62 Y-10.79 E6.76390
G1 X18.46 Y-7.35 E6.78736
G1 X19.60 Y-3.60 E6.81082
G1 X19.98 Y0.29 E6.83428
G1 X19.60 Y4.18 E6.85774
G1 X18.45 Y7.95 E6.88140
G1 X16.62 Y11.37 E6.90466
G1 X14.14 Y14.39 E6.92814
G1 X11.11 Y16.88 E6.95161
G1 X7.66 Y18.72 E6.97506
G1 X3.92 Y19.85 E6.99853
G1 X0.03 Y20.24 E7.02199
G1 X-3.86 Y19.85 E7.04545
G1 X-7.63 Y18.70 E7.06911
G1 X-11.05 Y16.88 E7.09237
G1 X-14.07 Y14.39 E7.11585
G1 X-16.56 Y11.37 E7.13932
G1 X-18.40 Y7.92 E7.16277
G1 X-19.53 Y4.18 E7.18624
G1 X-19.92 Y0.29 E7.20970
G1 X-19.53 Y-3.60 E7.23316
G1 X-18.38 Y-7.38 E7.25682
G1 X-16.56 Y-10.79 E7.28008
G1 X-14.07 Y-13.82 E7.30355
G1 X-11.05 Y-16.30 E7.32703
G1 X-7.60 Y-18.14 E7.35048
G1 X-3.86 Y-19.28 E7.37395
G0 X-3.83 Y-19.13
G0 X-0.32 Y-1.51
G0 X-0.30 Y-1.36
G1 X-0.61 Y-1.26 E7.37593
G1 X-0.90 Y-1.11 E7.37790
G1 X-1.16 Y-0.89 E7.37989
G1 X-1.36 Y-0.64 E7.38184
G1 X-1.52 Y-0.35 E7.38382
G1 X-1.62 Y-0.04 E7.38580
G1 X-1.65 Y0.28 E7.38773
G1 X-1.61 Y0.62 E7.38973
G1 X-1.52 Y0.93 E7.39171
G1 X-1.36 Y1.22 E7.39369
G1 X-1.15 Y1.48 E7.39566
G1 X-0.90 Y1.68 E7.39760
G1 X-0.61 Y1.84 E7.39960
G1 X-0.29 Y1.93 E7.40158
G1 X0.03 Y1.97 E7.40352
G1 X0.36 Y1.93 E7.40552
G1 X0.68 Y1.84 E7.40749
G1 X0.96 Y1.68 E7.40947
G1 X1.22 Y1.47 E7.41144
G1 X1.43 Y1.22 E7.41341
G1 X1.58 Y0.93 E7.41539
G1 X1.68 Y0.61 E7.41737
G1 X1.71 Y0.29 E7.41931
G1 X1.68 Y-0.04 E7.42130
G1 X1.58 Y-0.36 E7.42328
G1 X1.42 Y-0.65 E7.42525
G1 X1.22 Y-0.90 E7.42723
G1 X0.96 Y-1.11 E7.42920
G1 X0.67 Y-1.26 E7.43117
G1 X0.35 Y-1.36 E7.43315
G1 X0.03 Y-1.39 E7.43509
G1 X-0.30 Y-1.36 E7.43709
G0 X-0.34 Y-1.61
;LAYER:7
G0 X-0.30 Y-1.36 Z0.48
;TYPE:WALL-OUTER
G1 X-0.61 Y-1.26 E7.43906
