;Generated with Cura_SteamEngine 13.11.2
;FLAVOR:UltiGCode
;TIME:2687      
;MATERIAL:2124      
;MATERIAL2:0         

;Layer count: 475
;LAYER:0
M107
G0 F6000 X-102.24 Y-8.16 Z0.10
;TYPE:SKIRT
G11
G1 X-109.28 Y-7.82 E0.07049
G1 X-113.50 Y-7.50 E0.11278
G1 X-114.32 Y-14.01 E0.17838
G1 X-109.87 Y-14.80 E0.22349
G1 X-109.60 Y-14.82 E0.22624
G1 X-102.46 Y-14.95 E0.29765
G1 X-102.24 Y-8.16 E0.36558
G0 X-102.34 Y-8.25
G1 X-109.22 Y-7.92 E0.43442
G1 X-113.41 Y-7.61 E0.47645
G1 X-114.21 Y-13.93 E0.54015
G1 X-109.86 Y-14.70 E0.58429
G1 X-109.60 Y-14.72 E0.58695
G1 X-102.56 Y-14.85 E0.65733
G1 X-102.34 Y-8.25 E0.72329
G0 X-102.44 Y-8.35
G1 X-109.23 Y-8.02 E0.79125
G1 X-113.32 Y-7.71 E0.83226
G1 X-114.09 Y-13.84 E0.89406
G1 X-109.85 Y-14.60 E0.93719
G1 X-109.59 Y-14.62 E0.93978
G1 X-102.65 Y-14.75 E1.00914
G1 X-102.44 Y-8.35 E1.07313
G0 X-102.55 Y-8.44
G1 X-109.25 Y-8.12 E1.14020
G1 X-113.23 Y-7.82 E1.18019
G1 X-113.98 Y-13.76 E1.24008
G1 X-109.83 Y-14.50 E1.28224
G1 X-109.58 Y-14.52 E1.28475
G1 X-102.75 Y-14.65 E1.35309
G1 X-102.55 Y-8.44 E1.41512
G0 X-102.65 Y-8.54
G1 X-109.26 Y-8.22 E1.48134
G1 X-113.15 Y-7.93 E1.52028
G1 X-113.87 Y-13.68 E1.57826
G1 X-109.82 Y-14.40 E1.61943
G1 X-109.58 Y-14.43 E1.62184
G1 X-102.85 Y-14.54 E1.68916
G1 X-102.65 Y-8.54 E1.74922
G0 X-109.02 Y-11.34
;TYPE:WALL-OUTER
G1 X-109.50 Y-11.31 E1.75403
G1 X-109.40 Y-11.33 E1.75508
G1 X-109.02 Y-11.34 E1.75885
;LAYER:1
G0 X-109.41 Y-11.55 Z0.20
;TYPE:WALL-OUTER
G1 X-102.63 Y-11.64 E1.82668
G1 X-111.83 Y-11.12 E1.91879
G1 X-109.41 Y-11.55 E1.94330
G0 X-109.41 Y-11.51
;LAYER:2
G0 X-109.50 Y-11.31 Z0.30
;TYPE:WALL-OUTER
G1 X-113.74 Y-11.00 E1.98589
G1 X-109.43 Y-11.78 E2.02975
G1 X-98.46 Y-11.91 E2.13946
G1 X-98.48 Y-11.85 E2.14012
G1 X-109.50 Y-11.31 E2.25041
G0 X-109.29 Y-11.53
;LAYER:3
G0 X-109.53 Y-11.31 Z0.40
;TYPE:WALL-OUTER
G1 X-115.76 Y-10.85 E2.31286
G1 X-109.44 Y-12.01 E2.37713
G1 X-98.47 Y-12.13 E2.48681
G1 X-98.57 Y-11.85 E2.48982
G1 X-109.53 Y-11.31 E2.59955
G0 X-109.43 Y-11.57
G0 X-71.61 Y-11.82
G1 X-64.07 Y-11.65 E2.67493
G1 X-52.17 Y-11.08 E2.79417
G1 X-52.18 Y-11.04 E2.79463
G1 X-55.37 Y-11.17 E2.82657
G1 X-55.38 Y-11.17 E2.82671
G1 X-58.60 Y-11.31 E2.85894
G1 X-58.62 Y-11.31 E2.85909
G1 X-61.83 Y-11.44 E2.89126
G1 X-61.85 Y-11.44 E2.89145
G1 X-65.06 Y-11.58 E2.92356
G1 X-65.08 Y-11.57 E2.92380
G1 X-68.35 Y-11.68 E2.95648
G1 X-68.37 Y-11.68 E2.95667
G1 X-71.60 Y-11.78 E2.98905
G1 X-71.61 Y-11.82 E2.98952
G0 X-65.16 Y-11.53
G0 X-65.15 Y-11.53
G0 X-65.14 Y-11.83
G0 X76.90 Y4.38
G1 X79.00 Y4.49 E3.01051
G1 X79.02 Y4.59 E3.01159
G1 X76.90 Y4.38 E3.03281
G0 X78.91 Y4.63
G0 X78.86 Y4.53
G0 X78.95 Y4.33
;LAYER:4
G0 X78.97 Y4.49 Z0.50
;TYPE:WALL-OUTER
G1 X79.01 Y4.77 E3.03570
G1 X73.28 Y4.20 E3.09333
G1 X75.43 Y4.31 E3.11486
G1 X75.44 Y4.31 E3.11504
G1 X78.97 Y4.49 E3.15035
G0 X78.72 Y4.72
G0 X121.89 Y5.25
G1 X125.84 Y5.09 E3.18987
G1 X122.54 Y5.31 E3.22293
G1 X121.89 Y5.25 E3.22947
G0 X0.99 Y25.87
G1 X-0.64 Y25.87 E3.24576
G1 X-0.64 Y-15.44 E3.65889
G1 X0.99 Y-15.44 E3.67517
G1 X0.99 Y25.87 E4.08830
G0 X0.74 Y25.62
G0 X-52.20 Y-11.04
G1 X-58.61 Y-11.31 E4.15242
G1 X-58.64 Y-11.31 E4.15274
G1 X-68.32 Y-11.68 E4.24962
G1 X-68.36 Y-11.68 E4.24999
G1 X-71.57 Y-11.78 E4.28207
G1 X-71.61 Y-12.00 E4.28429
G1 X-65.06 Y-11.88 E4.34974
G1 X-52.16 Y-11.24 E4.47893
G1 X-52.20 Y-11.04 E4.48097
G0 X-52.26 Y-11.00
G0 X-98.48 Y-12.35
G1 X-98.67 Y-11.85 E4.48634
G1 X-109.57 Y-11.31 E4.59552
G1 X-117.68 Y-10.70 E4.67688
G1 X-110.37 Y-12.07 E4.75126
G1 X-106.59 Y-12.27 E4.78917
G1 X-98.48 Y-12.35 E4.87023
G0 X-98.74 Y-12.10
;LAYER:5
G0 X-98.76 Y-11.84 Z0.60
;TYPE:WALL-OUTER
G1 X-109.61 Y-11.31 E4.97885
G1 X-119.59 Y-10.56 E5.07898
G1 X-112.58 Y-11.90 E5.15034
G1 X-109.42 Y-12.13 E5.18204
G1 X-100.75 Y-12.55 E5.26882
G1 X-98.49 Y-12.57 E5.29142
G1 X-98.76 Y-11.84 E5.29915
G0 X-98.92 Y-12.13
G0 X-71.60 Y-12.17
G1 X-65.06 Y-12.05 E5.36460
G1 X-53.24 Y-11.44 E5.48293
G1 X-52.15 Y-11.40 E5.49380
G1 X-52.23 Y-11.04 E5.49743
G1 X-61.83 Y-11.44 E5.59347
G1 X-68.30 Y-11.68 E5.65823
G1 X-68.35 Y-11.68 E5.65876
G1 X-71.53 Y-11.78 E5.69054
G1 X-71.60 Y-12.17 E5.69451
G0 X-71.31 Y-11.95
G0 X-0.64 Y-15.44
G1 X1.43 Y-15.44 E5.71519
G1 X1.43 Y25.87 E6.12832
G1 X-0.64 Y25.87 E6.14900
G1 X-0.64 Y-15.44 E6.56213
G0 X-0.39 Y-15.19
G0 X70.40 Y4.05
G1 X71.81 Y4.13 E6.57624
G1 X71.83 Y4.13 E6.57641
G1 X78.94 Y4.49 E6.64765
G1 X79.00 Y4.95 E6.65235
G1 X70.40 Y4.05 E6.73886
G0 X72.38 Y4.30
G0 X72.40 Y4.31
G0 X72.41 Y4.01
G0 X119.90 Y5.29
G1 X125.81 Y5.11 E6.79795
G1 X133.89 Y4.76 E6.87882
G1 X122.55 Y5.56 E6.99246
G1 X119.90 Y5.29 E7.01909
G0 X120.72 Y5.12
;LAYER:6
G0 X120.73 Y5.40 Z0.70
G0 X122.56 Y5.65
G0 X122.56 Y5.80
;TYPE:WALL-OUTER
G1 X117.89 Y5.33 E7.06604
G1 X125.81 Y5.11 E7.14524
G1 X135.50 Y4.70 E7.24227
G1 X135.57 Y4.90 E7.24441
G1 X122.56 Y5.80 E7.37483
G0 X122.57 Y5.55
G0 X79.00 Y5.13
G1 X71.81 Y4.41 E7.44706
G1 X66.78 Y3.84 E7.49765
G1 X78.91 Y4.49 E7.61910
G1 X79.00 Y5.13 E7.62564
G0 X78.72 Y4.91
G0 X1.43 Y-15.44
G1 X1.43 Y25.87 E8.03877
G1 X-0.64 Y25.87 E8.05945
G1 X-0.64 Y-15.44 E8.47258
G1 X1.43 Y-15.44 E8.49326
G0 X1.18 Y-15.19
G0 X-52.15 Y-11.56
G1 X-52.26 Y-11.05 E8.49850
G1 X-58.63 Y-11.31 E8.56223
G1 X-65.02 Y-11.58 E8.62620
G1 X-71.50 Y-11.78 E8.69095
G1 X-71.59 Y-12.34 E8.69666
G1 X-66.11 Y-12.23 E8.75154
G1 X-52.15 Y-11.56 E8.89132
G0 X-52.41 Y-11.32
G0 X-98.55 Y-12.66
G1 X-98.85 Y-11.84 E8.90003
G1 X-109.65 Y-11.31 E9.00809
G1 X-121.42 Y-10.43 E9.12616
G1 X-114.68 Y-11.75 E9.19480
G1 X-109.41 Y-12.13 E9.24772
G1 X-98.55 Y-12.66 E9.35638
G0 X-98.80 Y-12.40
;LAYER:7
G0 X-98.65 Y-12.65 Z0.80
;TYPE:WALL-OUTER
G1 X-98.95 Y-11.84 E9.36501
G1 X-112.99 Y-11.07 E9.50568
G1 X-123.26 Y-10.29 E9.60865
G1 X-116.74 Y-11.60 E9.67511
G1 X-109.39 Y-12.12 E9.74882
G1 X-98.65 Y-12.65 E9.85636
G0 X-98.90 Y-12.39
G0 X-71.57 Y-12.40
G1 X-68.33 Y-12.30 E9.88875
G1 X-68.32 Y-12.30 E9.88886
G1 X-65.04 Y-12.20 E9.92170
G1 X-65.02 Y-12.20 E9.92185
G1 X-61.81 Y-12.06 E9.95403
G1 X-61.79 Y-12.06 E9.95415
G1 X-58.57 Y-11.92 E9.98642
G1 X-55.33 Y-11.78 E10.01884
G1 X-52.15 Y-11.65 E10.05065
G1 X-52.29 Y-11.05 E10.05684
G1 X-71.46 Y-11.78 E10.24866
G1 X-71.57 Y-12.40 E10.25500
G0 X-71.28 Y-12.19
G0 X-0.64 Y-15.44
G1 X1.43 Y-15.44 E10.27568
G1 X1.43 Y25.87 E10.68881
G1 X-0.64 Y25.87 E10.70949
G1 X-0.64 Y-15.44 E11.12262
G0 X-0.39 Y-15.19
G0 X63.59 Y3.66
G1 X78.88 Y4.49 E11.27581
G1 X78.97 Y5.17 E11.28272
G1 X76.37 Y5.04 E11.30879
G1 X63.59 Y3.66 E11.43736
G0 X65.44 Y3.90
G0 X65.46 Y3.91
G0 X65.47 Y3.61
G0 X115.89 Y5.38
G1 X125.80 Y5.12 E11.53654
G1 X135.42 Y4.70 E11.63281
G1 X135.58 Y5.15 E11.63754
G1 X122.57 Y6.05 E11.76796
G1 X115.89 Y5.38 E11.83509
G0 X116.74 Y5.21
;LAYER:8
G0 X115.53 Y5.39 Z0.90
;TYPE:WALL-OUTER
G1 X122.65 Y5.26 E11.90629
G1 X135.35 Y4.71 E12.03339
G1 X135.59 Y5.40 E12.04073
G1 X129.11 Y5.87 E12.10565
G1 X121.45 Y6.17 E12.18239
G1 X115.47 Y5.57 E12.24242
G1 X115.53 Y5.39 E12.24435
G0 X115.61 Y5.34
G0 X78.94 Y5.17
G1 X71.80 Y4.76 E12.31591
G1 X61.08 Y3.56 E12.42371
G1 X61.09 Y3.52 E12.42408
G1 X68.24 Y3.93 E12.49566
G1 X68.28 Y3.93 E12.49608
G1 X78.85 Y4.49 E12.60195
G1 X78.94 Y5.17 E12.60883
G0 X78.66 Y4.95
G0 X1.43 Y-15.44
G1 X1.43 Y25.87 E13.02196
G1 X-0.64 Y25.87 E13.04264
G1 X-0.64 Y-15.44 E13.45577
G1 X1.43 Y-15.44 E13.47645
G0 X1.18 Y-15.19
G0 X-52.18 Y-11.65
G1 X-52.32 Y-11.05 E13.48261
G1 X-71.43 Y-11.78 E13.67377
G1 X-71.53 Y-12.40 E13.68011
G1 X-68.31 Y-12.30 E13.71237
G1 X-68.28 Y-12.30 E13.71264
G1 X-65.03 Y-12.19 E13.74520
G1 X-65.00 Y-12.19 E13.74550
G1 X-61.81 Y-12.06 E13.77742
G1 X-61.78 Y-12.06 E13.77769
G1 X-58.58 Y-11.92 E13.80970
G1 X-58.56 Y-11.92 E13.80993
G1 X-55.35 Y-11.78 E13.84202
G1 X-55.33 Y-11.78 E13.84224
G1 X-52.18 Y-11.65 E13.87373
G0 X-52.45 Y-11.41
G0 X-98.74 Y-12.64
G1 X-99.04 Y-11.84 E13.88229
G1 X-109.72 Y-11.31 E13.98924
G1 X-123.30 Y-10.29 E14.12545
G1 X-123.40 Y-10.50 E14.12776
G1 X-118.67 Y-11.46 E14.17601
G1 X-109.37 Y-12.12 E14.26924
G1 X-98.74 Y-12.64 E14.37567
G0 X-98.99 Y-12.38
;LAYER:9
G0 X-98.84 Y-12.63 Z1.00
;TYPE:WALL-OUTER
G1 X-99.13 Y-11.83 E14.38415
G1 X-109.76 Y-11.31 E14.49055
G1 X-123.21 Y-10.30 E14.62544
G1 X-123.42 Y-10.73 E14.63022
G1 X-120.57 Y-11.32 E14.65931
G1 X-105.83 Y-12.29 E14.80701
G1 X-98.84 Y-12.63 E14.87696
G0 X-99.09 Y-12.37
G0 X-71.49 Y-12.40
G1 X-68.28 Y-12.30 E14.90909
G1 X-68.24 Y-12.30 E14.90952
G1 X-52.21 Y-11.65 E15.06991
G1 X-52.35 Y-11.05 E15.07604
G1 X-71.39 Y-11.78 E15.26651
G1 X-71.49 Y-12.40 E15.27282
G0 X-71.20 Y-12.19
G0 X-0.64 Y-15.44
G1 X1.43 Y-15.44 E15.29350
G1 X1.43 Y25.87 E15.70663
G1 X-0.64 Y25.87 E15.72731
G1 X-0.64 Y-15.44 E16.14044
G0 X-0.39 Y-15.19
G0 X61.12 Y3.52
G1 X78.82 Y4.49 E16.31774
G1 X78.91 Y5.16 E16.32460
G1 X75.39 Y4.99 E16.35983
G1 X75.37 Y4.99 E16.36006
G1 X69.75 Y4.69 E16.41635
G1 X61.08 Y3.72 E16.50360
G1 X61.12 Y3.52 E16.50565
G0 X61.19 Y3.48
G0 X115.48 Y5.81
G1 X115.61 Y5.39 E16.51007
G1 X122.79 Y5.26 E16.58194
G1 X135.27 Y4.72 E16.70679
G1 X135.58 Y5.60 E16.71611
G1 X119.43 Y6.21 E16.87770
G1 X115.48 Y5.81 E16.91737
G0 X115.76 Y5.59
;LAYER:10
G0 X115.69 Y5.39 Z1.10
;TYPE:WALL-OUTER
G1 X122.84 Y5.26 E16.98890
G1 X135.19 Y4.73 E17.11251
G1 X135.50 Y5.60 E17.12174
G1 X117.44 Y6.25 E17.30243
G1 X115.49 Y6.05 E17.32202
G1 X115.69 Y5.39 E17.32893
G0 X115.86 Y5.68
G0 X78.88 Y5.16
G1 X66.87 Y4.52 E17.44924
G1 X61.07 Y3.89 E17.50756
G1 X61.15 Y3.52 E17.51128
G1 X78.79 Y4.49 E17.68802
G1 X78.88 Y5.16 E17.69485
G0 X78.60 Y4.94
G0 X1.43 Y-15.44
G1 X1.43 Y25.87 E18.10798
G1 X-0.64 Y25.87 E18.12866
G1 X-0.64 Y-15.44 E18.54179
G1 X1.43 Y-15.44 E18.56247
G0 X1.18 Y-15.19
G0 X-52.24 Y-11.65
G1 X-52.38 Y-11.06 E18.56858
G1 X-71.35 Y-11.78 E18.75841
G1 X-71.46 Y-12.40 E18.76469
G1 X-52.24 Y-11.65 E18.95699
G0 X-52.51 Y-11.41
G0 X-98.94 Y-12.62
G1 X-99.23 Y-11.83 E18.96541
G1 X-109.80 Y-11.31 E19.07123
G1 X-123.11 Y-10.31 E19.20480
G1 X-123.43 Y-10.97 E19.21206
G1 X-122.38 Y-11.18 E19.22277
G1 X-105.84 Y-12.28 E19.38852
G1 X-98.94 Y-12.62 E19.45762
G0 X-99.19 Y-12.36
;LAYER:11
G0 X-99.03 Y-12.61 Z1.20
;TYPE:WALL-OUTER
G1 X-99.32 Y-11.83 E19.46596
G1 X-109.83 Y-11.31 E19.57124
G1 X-123.02 Y-10.32 E19.70347
G1 X-123.39 Y-11.10 E19.71212
G1 X-99.03 Y-12.61 E19.95617
G0 X-99.28 Y-12.35
G0 X-71.42 Y-12.39
G1 X-52.27 Y-11.65 E20.14781
G1 X-52.41 Y-11.06 E20.15391
G1 X-71.32 Y-11.78 E20.34307
G1 X-71.42 Y-12.39 E20.34933
G0 X-71.13 Y-12.18
G0 X-0.64 Y-15.44
G1 X1.43 Y-15.44 E20.37001
G1 X1.43 Y25.87 E20.78314
G1 X-0.64 Y25.87 E20.80382
G1 X-0.64 Y-15.44 E21.21695
G0 X-0.39 Y-15.19
G0 X61.17 Y3.53
G1 X78.76 Y4.49 E21.39314
G1 X78.85 Y5.16 E21.39993
G1 X75.36 Y4.98 E21.43491
G1 X75.31 Y4.98 E21.43542
G1 X68.20 Y4.60 E21.50656
G1 X68.18 Y4.60 E21.50675
G1 X64.60 Y4.39 E21.54264
G1 X63.77 Y4.35 E21.55099
G1 X61.06 Y4.05 E21.57820
G1 X61.17 Y3.53 E21.58359
G0 X61.37 Y3.81
G0 X115.50 Y6.29
G1 X115.77 Y5.39 E21.59293
G1 X122.89 Y5.26 E21.66410
G1 X135.11 Y4.73 E21.78647
G1 X135.42 Y5.59 E21.79561
G1 X115.50 Y6.29 E21.99488
G0 X115.76 Y6.03
;LAYER:12
G0 X115.59 Y6.28 Z1.30
;TYPE:WALL-OUTER
G1 X115.85 Y5.39 E22.00414
G1 X122.93 Y5.26 E22.07495
G1 X135.04 Y4.74 E22.19609
G1 X135.34 Y5.59 E22.20515
G1 X115.59 Y6.28 E22.40278
G0 X115.84 Y6.02
G0 X78.82 Y5.16
G1 X64.62 Y4.39 E22.54502
G1 X64.60 Y4.39 E22.54520
G1 X61.06 Y4.19 E22.58064
G1 X61.20 Y3.53 E22.58737
G1 X78.73 Y4.49 E22.76297
G1 X78.82 Y5.16 E22.76974
G0 X78.54 Y4.93
G0 X1.43 Y-15.44
G1 X1.43 Y25.87 E23.18287
G1 X-0.64 Y25.87 E23.20355
G1 X-0.64 Y-15.44 E23.61668
G1 X1.43 Y-15.44 E23.63736
G0 X1.18 Y-15.19
G0 X-52.30 Y-11.65
G1 X-52.44 Y-11.06 E23.64342
G1 X-71.28 Y-11.78 E23.83194
G1 X-71.39 Y-12.39 E23.83817
G1 X-52.30 Y-11.65 E24.02914
G0 X-52.57 Y-11.41
G0 X-99.13 Y-12.60
G1 X-99.41 Y-11.83 E24.03740
G1 X-109.87 Y-11.31 E24.14211
G1 X-122.93 Y-10.33 E24.27302
G1 X-123.29 Y-11.11 E24.28163
G1 X-99.13 Y-12.60 E24.52376
G0 X-99.37 Y-12.34
;LAYER:13
G0 X-99.22 Y-12.60 Z1.40
;TYPE:WALL-OUTER
G1 X-99.50 Y-11.83 E24.53194
G1 X-109.57 Y-11.34 E24.63267
G1 X-122.83 Y-10.34 E24.76570
G1 X-123.20 Y-11.11 E24.77424
G1 X-109.29 Y-12.10 E24.91360
G1 X-99.22 Y-12.60 E25.01444
G0 X-99.47 Y-12.33
G0 X-71.35 Y-12.39
G1 X-52.33 Y-11.65 E25.20476
G1 X-52.47 Y-11.06 E25.21080
G1 X-71.24 Y-11.78 E25.39865
G1 X-71.35 Y-12.39 E25.40485
G0 X-71.06 Y-12.18
G0 X-0.64 Y-15.44
G1 X1.43 Y-15.44 E25.42553
G1 X1.43 Y25.87 E25.83866
G1 X-0.64 Y25.87 E25.85934
G1 X-0.64 Y-15.44 E26.27247
G0 X-0.39 Y-15.19
G0 X61.23 Y3.53
G1 X78.71 Y4.48 E26.44755
G1 X78.79 Y5.15 E26.45429
G1 X68.21 Y4.59 E26.56022
G1 X68.17 Y4.59 E26.56069
G1 X61.09 Y4.19 E26.63158
G1 X61.23 Y3.53 E26.63828
G0 X61.42 Y3.82
G0 X115.67 Y6.27
G1 X115.93 Y5.40 E26.64744
G1 X122.98 Y5.26 E26.71791
G1 X134.96 Y4.75 E26.83782
G1 X135.26 Y5.59 E26.84681
G1 X115.67 Y6.27 E27.04281
G0 X115.92 Y6.01
;LAYER:14
G0 X115.75 Y6.27 Z1.50
;TYPE:WALL-OUTER
G1 X116.02 Y5.40 E27.05189
G1 X123.03 Y5.26 E27.12201
G1 X134.88 Y4.75 E27.24068
G1 X135.18 Y5.59 E27.24959
G1 X115.75 Y6.27 E27.44395
G0 X116.01 Y6.01
G0 X78.76 Y5.15
G1 X61.12 Y4.19 E27.62066
G1 X61.25 Y3.54 E27.62734
G1 X78.68 Y4.48 E27.80185
G1 X78.76 Y5.15 E27.80857
G0 X78.48 Y4.93
G0 X1.43 Y-15.44
G1 X1.43 Y25.87 E28.22170
G1 X-0.64 Y25.87 E28.24238
G1 X-0.64 Y-15.44 E28.65551
G1 X1.43 Y-15.44 E28.67619
G0 X1.18 Y-15.19
G0 X-52.36 Y-11.65
G1 X-52.50 Y-11.06 E28.68221
G1 X-71.21 Y-11.78 E28.86940
G1 X-71.31 Y-12.39 E28.87558
G1 X-52.36 Y-11.65 E29.06524
G0 X-52.63 Y-11.41
G0 X-99.32 Y-12.59
G1 X-99.60 Y-11.82 E29.07335
G1 X-112.74 Y-11.10 E29.20499
G1 X-122.74 Y-10.35 E29.30521
G1 X-123.10 Y-11.12 E29.31366
G1 X-109.28 Y-12.10 E29.45220
G1 X-99.32 Y-12.59 E29.55192
G0 X-99.57 Y-12.32
;LAYER:15
G0 X-99.41 Y-12.58 Z1.60
;TYPE:WALL-OUTER
G1 X-99.69 Y-11.82 E29.55995
G1 X-113.09 Y-11.08 E29.69417
G1 X-122.64 Y-10.36 E29.78993
G1 X-123.00 Y-11.12 E29.79830
G1 X-109.26 Y-12.10 E29.93602
G1 X-99.41 Y-12.58 E30.03463
G0 X-99.66 Y-12.31
G0 X-71.28 Y-12.38
G1 X-52.39 Y-11.65 E30.22363
G1 X-52.53 Y-11.07 E30.22963
G1 X-71.18 Y-11.78 E30.41621
G1 X-71.28 Y-12.38 E30.42235
G0 X-70.99 Y-12.17
G0 X-0.64 Y-15.44
G1 X1.43 Y-15.44 E30.44303
G1 X1.43 Y25.87 E30.85616
G1 X-0.64 Y25.87 E30.87684
G1 X-0.64 Y-15.44 E31.28997
G0 X-0.39 Y-15.19
G0 X61.28 Y3.54
G1 X78.65 Y4.48 E31.46392
G1 X78.73 Y5.15 E31.47061
G1 X61.15 Y4.19 E31.64674
G1 X61.28 Y3.54 E31.65341
G0 X61.48 Y3.82
G0 X115.84 Y6.26
G1 X116.10 Y5.40 E31.66240
G1 X123.07 Y5.26 E31.73217
G1 X134.81 Y4.76 E31.84960
G1 X135.10 Y5.59 E31.85842
G1 X115.84 Y6.26 E32.05115
G0 X116.09 Y6.00
;LAYER:16
G0 X115.92 Y6.26 Z1.70
;TYPE:WALL-OUTER
G1 X116.18 Y5.40 E32.06007
G1 X123.12 Y5.27 E32.12948
G1 X134.73 Y4.77 E32.24569
G1 X135.02 Y5.59 E32.25442
G1 X115.92 Y6.26 E32.44551
G0 X116.18 Y6.00
G0 X78.70 Y5.14
G1 X61.17 Y4.19 E32.62108
G1 X61.31 Y3.54 E32.62772
G1 X78.61 Y4.48 E32.80105
G1 X78.70 Y5.14 E32.80772
G0 X78.42 Y4.92
G0 X1.43 Y-15.44
G1 X1.43 Y25.87 E33.22085
G1 X-0.64 Y25.87 E33.24153
G1 X-0.64 Y-15.44 E33.65466
G1 X1.43 Y-15.44 E33.67534
G0 X1.18 Y-15.19
G0 X-52.42 Y-11.65
G1 X-52.56 Y-11.07 E33.68132
G1 X-71.14 Y-11.78 E33.86723
G1 X-71.24 Y-12.38 E33.87335
G1 X-52.42 Y-11.65 E34.06169
G0 X-52.69 Y-11.41
G0 X-99.51 Y-12.57
G1 X-99.78 Y-11.82 E34.06965
G1 X-110.02 Y-11.31 E34.17215
G1 X-122.55 Y-10.37 E34.29775
G1 X-122.90 Y-11.12 E34.30605
G1 X-109.25 Y-12.09 E34.44294
G1 X-99.51 Y-12.57 E34.54043
G0 X-99.76 Y-12.31
;LAYER:17
G0 X-99.61 Y-12.56 Z1.80
;TYPE:WALL-OUTER
G1 X-99.88 Y-11.82 E34.54831
G1 X-110.06 Y-11.31 E34.65025
G1 X-122.45 Y-10.38 E34.77453
G1 X-122.80 Y-11.13 E34.78275
G1 X-109.23 Y-12.09 E34.91882
G1 X-99.61 Y-12.56 E35.01519
G0 X-99.86 Y-12.30
G0 X-71.21 Y-12.38
G1 X-52.46 Y-11.65 E35.20283
G1 X-52.59 Y-11.07 E35.20878
G1 X-71.10 Y-11.78 E35.39401
G1 X-71.21 Y-12.38 E35.40011
G0 X-70.91 Y-12.17
G0 X-0.64 Y-15.44
G1 X1.43 Y-15.44 E35.42079
G1 X1.43 Y25.87 E35.83392
G1 X-0.64 Y25.87 E35.85460
G1 X-0.64 Y-15.44 E36.26773
G0 X-0.39 Y-15.19
G0 X61.33 Y3.54
G1 X78.58 Y4.48 E36.44050
G1 X78.67 Y5.14 E36.44715
G1 X61.20 Y4.19 E36.62215
G1 X61.33 Y3.54 E36.62876
G0 X61.53 Y3.83
G0 X116.01 Y6.25
G1 X116.26 Y5.40 E36.63759
G1 X123.17 Y5.27 E36.70666
G1 X134.65 Y4.77 E36.82163
